(Created with grbl post processor 2023/08/02 14:06)
G21
(G-code generated with BlenderCAM and NC library)
G17G90
S12000M03
G00 Z10.0

G0X0Y0Z10
X12.45Y2164.431
G1Z-5F500
X12.413Y2164.431F1000
X12.377Y2164.432
X12.34Y2164.435
X12.303Y2164.438
X12.267Y2164.442
X12.23Y2164.447
X12.194Y2164.453
X12.158Y2164.459
X12.122Y2164.467
X12.086Y2164.475
X12.05Y2164.485
X12.015Y2164.495
X11.98Y2164.506
X11.945Y2164.518
X11.91Y2164.531
X11.876Y2164.545
X11.842Y2164.559
X11.809Y2164.575
X11.776Y2164.591
X11.743Y2164.608
X11.711Y2164.625
X11.679Y2164.644
X11.648Y2164.663
X11.617Y2164.683
X11.586Y2164.704
X11.557Y2164.726
X11.527Y2164.748
X11.499Y2164.771
X11.47Y2164.795
X11.443Y2164.819
X11.416Y2164.844
X11.39Y2164.87
X11.364Y2164.896
X11.339Y2164.923
X11.314Y2164.951
X11.291Y2164.979
X11.268Y2165.008
X11.245Y2165.037
X11.224Y2165.067
X11.203Y2165.097
X11.183Y2165.128
X11.164Y2165.159
X11.145Y2165.191
X11.127Y2165.223
X11.11Y2165.256
X11.094Y2165.289
X11.079Y2165.323
X11.064Y2165.356
X11.051Y2165.391
X11.038Y2165.425
X11.026Y2165.46
X11.015Y2165.495
X11.005Y2165.53
X10.995Y2165.566
X10.987Y2165.602
X10.979Y2165.638
X10.972Y2165.674
X10.966Y2165.71
X10.961Y2165.747
X10.957Y2165.783
X10.954Y2165.82
X10.952Y2165.857
X10.951Y2165.894
X10.95Y2165.93
Y2169.431
X-2.549
X-2.586Y2169.431
X-2.622Y2169.432
X-2.659Y2169.435
X-2.696Y2169.438
X-2.732Y2169.442
X-2.769Y2169.447
X-2.805Y2169.453
X-2.841Y2169.459
X-2.877Y2169.467
X-2.913Y2169.476
X-2.949Y2169.485
X-2.984Y2169.495
X-3.019Y2169.506
X-3.054Y2169.518
X-3.089Y2169.531
X-3.123Y2169.545
X-3.157Y2169.559
X-3.19Y2169.575
X-3.223Y2169.591
X-3.256Y2169.608
X-3.288Y2169.625
X-3.32Y2169.644
X-3.351Y2169.663
X-3.382Y2169.683
X-3.413Y2169.704
X-3.442Y2169.726
X-3.472Y2169.748
X-3.5Y2169.771
X-3.529Y2169.795
X-3.556Y2169.819
X-3.583Y2169.844
X-3.609Y2169.87
X-3.635Y2169.896
X-3.66Y2169.923
X-3.685Y2169.951
X-3.708Y2169.979
X-3.731Y2170.008
X-3.754Y2170.037
X-3.775Y2170.067
X-3.796Y2170.097
X-3.816Y2170.128
X-3.835Y2170.16
X-3.854Y2170.191
X-3.872Y2170.223
X-3.889Y2170.256
X-3.905Y2170.289
X-3.92Y2170.323
X-3.935Y2170.356
X-3.948Y2170.391
X-3.961Y2170.425
X-3.973Y2170.46
X-3.984Y2170.495
X-3.994Y2170.531
X-4.004Y2170.566
X-4.012Y2170.602
X-4.02Y2170.638
X-4.027Y2170.674
X-4.033Y2170.711
X-4.038Y2170.747
X-4.042Y2170.783
X-4.045Y2170.82
X-4.047Y2170.857
X-4.048Y2170.894
X-4.049Y2170.931
Y2660.931
X-4.048Y2660.967
X-4.047Y2661.004
X-4.045Y2661.041
X-4.042Y2661.078
X-4.038Y2661.114
X-4.033Y2661.151
X-4.027Y2661.187
X-4.02Y2661.223
X-4.012Y2661.259
X-4.004Y2661.295
X-3.994Y2661.331
X-3.984Y2661.366
X-3.973Y2661.401
X-3.961Y2661.436
X-3.948Y2661.47
X-3.935Y2661.505
X-3.92Y2661.539
X-3.905Y2661.572
X-3.889Y2661.605
X-3.872Y2661.638
X-3.854Y2661.67
X-3.835Y2661.702
X-3.816Y2661.733
X-3.796Y2661.764
X-3.775Y2661.794
X-3.754Y2661.824
X-3.731Y2661.854
X-3.708Y2661.882
X-3.685Y2661.91
X-3.66Y2661.938
X-3.635Y2661.965
X-3.609Y2661.991
X-3.583Y2662.017
X-3.556Y2662.042
X-3.529Y2662.066
X-3.5Y2662.09
X-3.472Y2662.113
X-3.442Y2662.135
X-3.413Y2662.157
X-3.382Y2662.178
X-3.351Y2662.198
X-3.32Y2662.217
X-3.288Y2662.236
X-3.256Y2662.254
X-3.223Y2662.271
X-3.19Y2662.286
X-3.157Y2662.302
X-3.123Y2662.317
X-3.089Y2662.33
X-3.054Y2662.343
X-3.019Y2662.355
X-2.984Y2662.366
X-2.949Y2662.376
X-2.913Y2662.386
X-2.877Y2662.394
X-2.841Y2662.402
X-2.805Y2662.409
X-2.769Y2662.414
X-2.732Y2662.419
X-2.696Y2662.423
X-2.659Y2662.426
X-2.622Y2662.429
X-2.586Y2662.43
X-2.549Y2662.431
X10.95
Y2665.93
X10.951Y2665.967
X10.952Y2666.004
X10.954Y2666.041
X10.957Y2666.078
X10.961Y2666.114
X10.966Y2666.151
X10.972Y2666.187
X10.979Y2666.223
X10.987Y2666.259
X10.995Y2666.295
X11.005Y2666.331
X11.015Y2666.366
X11.026Y2666.401
X11.038Y2666.436
X11.051Y2666.47
X11.064Y2666.505
X11.079Y2666.538
X11.094Y2666.572
X11.11Y2666.605
X11.127Y2666.638
X11.145Y2666.67
X11.164Y2666.702
X11.183Y2666.733
X11.203Y2666.764
X11.224Y2666.794
X11.245Y2666.824
X11.268Y2666.853
X11.291Y2666.882
X11.314Y2666.91
X11.339Y2666.938
X11.364Y2666.965
X11.39Y2666.991
X11.416Y2667.017
X11.443Y2667.042
X11.47Y2667.066
X11.499Y2667.09
X11.527Y2667.113
X11.557Y2667.135
X11.586Y2667.157
X11.617Y2667.178
X11.648Y2667.198
X11.679Y2667.217
X11.711Y2667.236
X11.743Y2667.253
X11.776Y2667.27
X11.809Y2667.286
X11.842Y2667.302
X11.876Y2667.316
X11.91Y2667.33
X11.945Y2667.343
X11.98Y2667.355
X12.015Y2667.366
X12.05Y2667.376
X12.086Y2667.386
X12.122Y2667.394
X12.158Y2667.402
X12.194Y2667.408
X12.23Y2667.414
X12.267Y2667.419
X12.303Y2667.423
X12.34Y2667.426
X12.377Y2667.429
X12.413Y2667.43
X12.45Y2667.43
X22.45
X22.487Y2667.43
X22.524Y2667.429
X22.561Y2667.426
X22.597Y2667.423
X22.634Y2667.419
X22.67Y2667.414
X22.707Y2667.408
X22.743Y2667.402
X22.779Y2667.394
X22.815Y2667.386
X22.85Y2667.376
X22.886Y2667.366
X22.921Y2667.355
X22.956Y2667.343
X22.99Y2667.33
X23.024Y2667.316
X23.058Y2667.302
X23.092Y2667.286
X23.125Y2667.27
X23.157Y2667.253
X23.19Y2667.236
X23.221Y2667.217
X23.253Y2667.198
X23.284Y2667.178
X23.314Y2667.157
X23.344Y2667.135
X23.373Y2667.113
X23.402Y2667.09
X23.43Y2667.066
X23.458Y2667.042
X23.485Y2667.017
X23.511Y2666.991
X23.537Y2666.965
X23.562Y2666.938
X23.586Y2666.91
X23.61Y2666.882
X23.633Y2666.853
X23.655Y2666.824
X23.677Y2666.794
X23.697Y2666.764
X23.717Y2666.733
X23.737Y2666.702
X23.755Y2666.67
X23.773Y2666.638
X23.79Y2666.605
X23.806Y2666.572
X23.822Y2666.538
X23.836Y2666.505
X23.85Y2666.47
X23.863Y2666.436
X23.874Y2666.401
X23.886Y2666.366
X23.896Y2666.331
X23.905Y2666.295
X23.914Y2666.259
X23.921Y2666.223
X23.928Y2666.187
X23.934Y2666.151
X23.939Y2666.114
X23.943Y2666.078
X23.946Y2666.041
X23.948Y2666.004
X23.95Y2665.967
X23.95Y2665.93
Y2662.431
X70.95
Y2665.93
X70.951Y2665.967
X70.952Y2666.004
X70.954Y2666.041
X70.957Y2666.078
X70.961Y2666.114
X70.966Y2666.151
X70.972Y2666.187
X70.979Y2666.223
X70.987Y2666.259
X70.995Y2666.295
X71.005Y2666.331
X71.015Y2666.366
X71.026Y2666.401
X71.038Y2666.436
X71.051Y2666.47
X71.064Y2666.505
X71.079Y2666.538
X71.094Y2666.572
X71.11Y2666.605
X71.127Y2666.638
X71.145Y2666.67
X71.164Y2666.702
X71.183Y2666.733
X71.203Y2666.764
X71.224Y2666.794
X71.245Y2666.824
X71.268Y2666.853
X71.291Y2666.882
X71.314Y2666.91
X71.339Y2666.938
X71.364Y2666.965
X71.39Y2666.991
X71.416Y2667.017
X71.443Y2667.042
X71.47Y2667.066
X71.499Y2667.09
X71.527Y2667.113
X71.557Y2667.135
X71.586Y2667.157
X71.617Y2667.178
X71.648Y2667.198
X71.679Y2667.217
X71.711Y2667.236
X71.743Y2667.253
X71.776Y2667.27
X71.809Y2667.286
X71.842Y2667.302
X71.876Y2667.316
X71.91Y2667.33
X71.945Y2667.343
X71.98Y2667.355
X72.015Y2667.366
X72.05Y2667.376
X72.086Y2667.386
X72.122Y2667.394
X72.158Y2667.402
X72.194Y2667.408
X72.23Y2667.414
X72.267Y2667.419
X72.303Y2667.423
X72.34Y2667.426
X72.377Y2667.429
X72.413Y2667.43
X72.45Y2667.43
X82.45
X82.487Y2667.43
X82.524Y2667.429
X82.561Y2667.426
X82.597Y2667.423
X82.634Y2667.419
X82.67Y2667.414
X82.707Y2667.408
X82.743Y2667.402
X82.779Y2667.394
X82.815Y2667.386
X82.85Y2667.376
X82.886Y2667.366
X82.921Y2667.355
X82.956Y2667.343
X82.99Y2667.33
X83.024Y2667.316
X83.058Y2667.302
X83.092Y2667.286
X83.125Y2667.27
X83.157Y2667.253
X83.19Y2667.236
X83.221Y2667.217
X83.253Y2667.198
X83.284Y2667.178
X83.314Y2667.157
X83.344Y2667.135
X83.373Y2667.113
X83.402Y2667.09
X83.43Y2667.066
X83.458Y2667.042
X83.485Y2667.017
X83.511Y2666.991
X83.537Y2666.965
X83.562Y2666.938
X83.586Y2666.91
X83.61Y2666.882
X83.633Y2666.853
X83.655Y2666.824
X83.677Y2666.794
X83.697Y2666.764
X83.717Y2666.733
X83.737Y2666.702
X83.755Y2666.67
X83.773Y2666.638
X83.79Y2666.605
X83.806Y2666.572
X83.822Y2666.538
X83.836Y2666.505
X83.85Y2666.47
X83.863Y2666.436
X83.874Y2666.401
X83.886Y2666.366
X83.896Y2666.331
X83.905Y2666.295
X83.914Y2666.259
X83.921Y2666.223
X83.928Y2666.187
X83.934Y2666.151
X83.939Y2666.114
X83.943Y2666.078
X83.946Y2666.041
X83.948Y2666.004
X83.95Y2665.967
X83.95Y2665.93
Y2662.431
X97.45
X97.487Y2662.43
X97.524Y2662.429
X97.561Y2662.426
X97.597Y2662.423
X97.634Y2662.419
X97.67Y2662.414
X97.707Y2662.409
X97.743Y2662.402
X97.779Y2662.394
X97.815Y2662.386
X97.85Y2662.376
X97.886Y2662.366
X97.921Y2662.355
X97.956Y2662.343
X97.99Y2662.33
X98.024Y2662.317
X98.058Y2662.302
X98.092Y2662.286
X98.125Y2662.271
X98.157Y2662.254
X98.19Y2662.236
X98.221Y2662.217
X98.253Y2662.198
X98.284Y2662.178
X98.314Y2662.157
X98.344Y2662.135
X98.373Y2662.113
X98.402Y2662.09
X98.43Y2662.066
X98.458Y2662.042
X98.485Y2662.017
X98.511Y2661.991
X98.537Y2661.965
X98.562Y2661.938
X98.586Y2661.91
X98.61Y2661.882
X98.633Y2661.854
X98.655Y2661.824
X98.677Y2661.794
X98.697Y2661.764
X98.717Y2661.733
X98.737Y2661.702
X98.755Y2661.67
X98.773Y2661.638
X98.79Y2661.605
X98.806Y2661.572
X98.822Y2661.539
X98.836Y2661.505
X98.85Y2661.47
X98.863Y2661.436
X98.874Y2661.401
X98.886Y2661.366
X98.896Y2661.331
X98.905Y2661.295
X98.914Y2661.259
X98.921Y2661.223
X98.928Y2661.187
X98.934Y2661.151
X98.939Y2661.114
X98.943Y2661.078
X98.946Y2661.041
X98.948Y2661.004
X98.95Y2660.967
X98.95Y2660.931
Y2595.231
X98.95Y2595.194
X98.948Y2595.157
X98.946Y2595.12
X98.943Y2595.083
X98.939Y2595.047
X98.934Y2595.01
X98.928Y2594.974
X98.921Y2594.938
X98.914Y2594.902
X98.905Y2594.866
X98.896Y2594.83
X98.886Y2594.795
X98.874Y2594.76
X98.863Y2594.725
X98.85Y2594.691
X98.836Y2594.656
X98.822Y2594.623
X98.806Y2594.589
X98.79Y2594.556
X98.773Y2594.523
X98.755Y2594.491
X98.737Y2594.46
X98.717Y2594.428
X98.697Y2594.397
X98.677Y2594.367
X98.655Y2594.337
X98.633Y2594.308
X98.61Y2594.279
X98.586Y2594.251
X98.562Y2594.223
X98.537Y2594.196
X98.511Y2594.17
X98.485Y2594.144
X98.458Y2594.119
X98.43Y2594.095
X98.402Y2594.071
X98.373Y2594.048
X98.344Y2594.026
X98.314Y2594.004
X98.284Y2593.983
X98.253Y2593.963
X98.221Y2593.944
X98.19Y2593.925
X98.157Y2593.908
X98.125Y2593.891
X98.092Y2593.875
X98.058Y2593.859
X98.024Y2593.845
X97.99Y2593.831
X97.956Y2593.818
X97.921Y2593.806
X97.886Y2593.795
X97.85Y2593.785
X97.815Y2593.775
X97.779Y2593.767
X97.743Y2593.759
X97.707Y2593.753
X97.67Y2593.747
X97.634Y2593.742
X97.597Y2593.738
X97.561Y2593.735
X97.524Y2593.732
X97.487Y2593.731
X97.45Y2593.731
X48.95
Y2591.73
X97.45
X97.487Y2591.73
X97.524Y2591.729
X97.561Y2591.726
X97.597Y2591.723
X97.634Y2591.719
X97.67Y2591.714
X97.707Y2591.708
X97.743Y2591.702
X97.779Y2591.694
X97.815Y2591.686
X97.85Y2591.676
X97.886Y2591.666
X97.921Y2591.655
X97.956Y2591.643
X97.99Y2591.63
X98.024Y2591.616
X98.058Y2591.602
X98.092Y2591.586
X98.125Y2591.57
X98.157Y2591.553
X98.19Y2591.536
X98.221Y2591.517
X98.253Y2591.498
X98.284Y2591.478
X98.314Y2591.457
X98.344Y2591.435
X98.373Y2591.413
X98.402Y2591.39
X98.43Y2591.366
X98.458Y2591.342
X98.485Y2591.317
X98.511Y2591.291
X98.537Y2591.265
X98.562Y2591.238
X98.586Y2591.21
X98.61Y2591.182
X98.633Y2591.153
X98.655Y2591.124
X98.677Y2591.094
X98.697Y2591.064
X98.717Y2591.033
X98.737Y2591.001
X98.755Y2590.97
X98.773Y2590.938
X98.79Y2590.905
X98.806Y2590.872
X98.822Y2590.838
X98.836Y2590.805
X98.85Y2590.77
X98.863Y2590.736
X98.874Y2590.701
X98.886Y2590.666
X98.896Y2590.631
X98.905Y2590.595
X98.914Y2590.559
X98.921Y2590.523
X98.928Y2590.487
X98.934Y2590.451
X98.939Y2590.414
X98.943Y2590.378
X98.946Y2590.341
X98.948Y2590.304
X98.95Y2590.267
X98.95Y2590.23
Y2524.53
X98.95Y2524.494
X98.948Y2524.457
X98.946Y2524.42
X98.943Y2524.383
X98.939Y2524.347
X98.934Y2524.31
X98.928Y2524.274
X98.921Y2524.238
X98.914Y2524.202
X98.905Y2524.166
X98.896Y2524.13
X98.886Y2524.095
X98.874Y2524.06
X98.863Y2524.025
X98.85Y2523.991
X98.836Y2523.956
X98.822Y2523.922
X98.806Y2523.889
X98.79Y2523.856
X98.773Y2523.823
X98.755Y2523.791
X98.737Y2523.759
X98.717Y2523.728
X98.697Y2523.697
X98.677Y2523.667
X98.655Y2523.637
X98.633Y2523.607
X98.61Y2523.579
X98.586Y2523.551
X98.562Y2523.523
X98.537Y2523.496
X98.511Y2523.47
X98.485Y2523.444
X98.458Y2523.419
X98.43Y2523.395
X98.402Y2523.371
X98.373Y2523.348
X98.344Y2523.326
X98.314Y2523.304
X98.284Y2523.283
X98.253Y2523.263
X98.221Y2523.244
X98.19Y2523.225
X98.157Y2523.207
X98.125Y2523.19
X98.092Y2523.175
X98.058Y2523.159
X98.024Y2523.144
X97.99Y2523.131
X97.956Y2523.118
X97.921Y2523.106
X97.886Y2523.095
X97.85Y2523.085
X97.815Y2523.075
X97.779Y2523.067
X97.743Y2523.059
X97.707Y2523.052
X97.67Y2523.047
X97.634Y2523.042
X97.597Y2523.038
X97.561Y2523.035
X97.524Y2523.032
X97.487Y2523.031
X97.45Y2523.03
X48.95
Y2521.03
X97.45
X97.487Y2521.03
X97.524Y2521.029
X97.561Y2521.026
X97.597Y2521.023
X97.634Y2521.019
X97.67Y2521.014
X97.707Y2521.008
X97.743Y2521.002
X97.779Y2520.994
X97.815Y2520.986
X97.85Y2520.976
X97.886Y2520.966
X97.921Y2520.955
X97.956Y2520.943
X97.99Y2520.93
X98.024Y2520.916
X98.058Y2520.902
X98.092Y2520.886
X98.125Y2520.87
X98.157Y2520.853
X98.19Y2520.836
X98.221Y2520.817
X98.253Y2520.798
X98.284Y2520.778
X98.314Y2520.757
X98.344Y2520.735
X98.373Y2520.713
X98.402Y2520.69
X98.43Y2520.666
X98.458Y2520.642
X98.485Y2520.617
X98.511Y2520.591
X98.537Y2520.565
X98.562Y2520.538
X98.586Y2520.51
X98.61Y2520.482
X98.633Y2520.453
X98.655Y2520.424
X98.677Y2520.394
X98.697Y2520.364
X98.717Y2520.333
X98.737Y2520.302
X98.755Y2520.27
X98.773Y2520.238
X98.79Y2520.205
X98.806Y2520.172
X98.822Y2520.138
X98.836Y2520.105
X98.85Y2520.07
X98.863Y2520.036
X98.874Y2520.001
X98.886Y2519.966
X98.896Y2519.931
X98.905Y2519.895
X98.914Y2519.859
X98.921Y2519.823
X98.928Y2519.787
X98.934Y2519.751
X98.939Y2519.714
X98.943Y2519.678
X98.946Y2519.641
X98.948Y2519.604
X98.95Y2519.567
X98.95Y2519.531
Y2453.83
X98.95Y2453.794
X98.948Y2453.757
X98.946Y2453.72
X98.943Y2453.683
X98.939Y2453.647
X98.934Y2453.61
X98.928Y2453.574
X98.921Y2453.538
X98.914Y2453.502
X98.905Y2453.466
X98.896Y2453.43
X98.886Y2453.395
X98.874Y2453.36
X98.863Y2453.325
X98.85Y2453.291
X98.836Y2453.256
X98.822Y2453.222
X98.806Y2453.189
X98.79Y2453.156
X98.773Y2453.123
X98.755Y2453.091
X98.737Y2453.059
X98.717Y2453.028
X98.697Y2452.997
X98.677Y2452.967
X98.655Y2452.937
X98.633Y2452.908
X98.61Y2452.879
X98.586Y2452.851
X98.562Y2452.823
X98.537Y2452.796
X98.511Y2452.77
X98.485Y2452.744
X98.458Y2452.719
X98.43Y2452.695
X98.402Y2452.671
X98.373Y2452.648
X98.344Y2452.626
X98.314Y2452.604
X98.284Y2452.583
X98.253Y2452.563
X98.221Y2452.544
X98.19Y2452.525
X98.157Y2452.507
X98.125Y2452.491
X98.092Y2452.475
X98.058Y2452.459
X98.024Y2452.445
X97.99Y2452.431
X97.956Y2452.418
X97.921Y2452.406
X97.886Y2452.395
X97.85Y2452.385
X97.815Y2452.375
X97.779Y2452.367
X97.743Y2452.359
X97.707Y2452.353
X97.67Y2452.347
X97.634Y2452.342
X97.597Y2452.338
X97.561Y2452.335
X97.524Y2452.332
X97.487Y2452.331
X97.45Y2452.331
X48.95
Y2450.33
X97.45
X97.487Y2450.33
X97.524Y2450.329
X97.561Y2450.326
X97.597Y2450.323
X97.634Y2450.319
X97.67Y2450.314
X97.707Y2450.309
X97.743Y2450.302
X97.779Y2450.294
X97.815Y2450.286
X97.85Y2450.276
X97.886Y2450.266
X97.921Y2450.255
X97.956Y2450.243
X97.99Y2450.23
X98.024Y2450.217
X98.058Y2450.202
X98.092Y2450.186
X98.125Y2450.17
X98.157Y2450.154
X98.19Y2450.136
X98.221Y2450.117
X98.253Y2450.098
X98.284Y2450.078
X98.314Y2450.057
X98.344Y2450.035
X98.373Y2450.013
X98.402Y2449.99
X98.43Y2449.966
X98.458Y2449.942
X98.485Y2449.917
X98.511Y2449.891
X98.537Y2449.865
X98.562Y2449.838
X98.586Y2449.81
X98.61Y2449.782
X98.633Y2449.754
X98.655Y2449.724
X98.677Y2449.694
X98.697Y2449.664
X98.717Y2449.633
X98.737Y2449.602
X98.755Y2449.57
X98.773Y2449.538
X98.79Y2449.505
X98.806Y2449.472
X98.822Y2449.439
X98.836Y2449.405
X98.85Y2449.37
X98.863Y2449.336
X98.874Y2449.301
X98.886Y2449.266
X98.896Y2449.231
X98.905Y2449.195
X98.914Y2449.159
X98.921Y2449.123
X98.928Y2449.087
X98.934Y2449.051
X98.939Y2449.014
X98.943Y2448.978
X98.946Y2448.941
X98.948Y2448.904
X98.95Y2448.867
X98.95Y2448.831
Y2383.131
X98.95Y2383.094
X98.948Y2383.057
X98.946Y2383.02
X98.943Y2382.983
X98.939Y2382.947
X98.934Y2382.91
X98.928Y2382.874
X98.921Y2382.838
X98.914Y2382.802
X98.905Y2382.766
X98.896Y2382.73
X98.886Y2382.695
X98.874Y2382.66
X98.863Y2382.625
X98.85Y2382.591
X98.836Y2382.556
X98.822Y2382.523
X98.806Y2382.489
X98.79Y2382.456
X98.773Y2382.423
X98.755Y2382.391
X98.737Y2382.359
X98.717Y2382.328
X98.697Y2382.297
X98.677Y2382.267
X98.655Y2382.237
X98.633Y2382.208
X98.61Y2382.179
X98.586Y2382.151
X98.562Y2382.123
X98.537Y2382.096
X98.511Y2382.07
X98.485Y2382.044
X98.458Y2382.019
X98.43Y2381.995
X98.402Y2381.971
X98.373Y2381.948
X98.344Y2381.926
X98.314Y2381.904
X98.284Y2381.883
X98.253Y2381.863
X98.221Y2381.844
X98.19Y2381.825
X98.157Y2381.808
X98.125Y2381.791
X98.092Y2381.775
X98.058Y2381.759
X98.024Y2381.745
X97.99Y2381.731
X97.956Y2381.718
X97.921Y2381.706
X97.886Y2381.695
X97.85Y2381.685
X97.815Y2381.675
X97.779Y2381.667
X97.743Y2381.659
X97.707Y2381.653
X97.67Y2381.647
X97.634Y2381.642
X97.597Y2381.638
X97.561Y2381.635
X97.524Y2381.632
X97.487Y2381.631
X97.45Y2381.631
X48.95
Y2379.63
X97.45
X97.487Y2379.63
X97.524Y2379.629
X97.561Y2379.626
X97.597Y2379.623
X97.634Y2379.619
X97.67Y2379.614
X97.707Y2379.608
X97.743Y2379.602
X97.779Y2379.594
X97.815Y2379.585
X97.85Y2379.576
X97.886Y2379.566
X97.921Y2379.555
X97.956Y2379.543
X97.99Y2379.53
X98.024Y2379.516
X98.058Y2379.502
X98.092Y2379.486
X98.125Y2379.47
X98.157Y2379.453
X98.19Y2379.436
X98.221Y2379.417
X98.253Y2379.398
X98.284Y2379.378
X98.314Y2379.357
X98.344Y2379.335
X98.373Y2379.313
X98.402Y2379.29
X98.43Y2379.266
X98.458Y2379.242
X98.485Y2379.217
X98.511Y2379.191
X98.537Y2379.165
X98.562Y2379.138
X98.586Y2379.11
X98.61Y2379.082
X98.633Y2379.053
X98.655Y2379.024
X98.677Y2378.994
X98.697Y2378.964
X98.717Y2378.933
X98.737Y2378.901
X98.755Y2378.87
X98.773Y2378.838
X98.79Y2378.805
X98.806Y2378.772
X98.822Y2378.738
X98.836Y2378.705
X98.85Y2378.67
X98.863Y2378.636
X98.874Y2378.601
X98.886Y2378.566
X98.896Y2378.53
X98.905Y2378.495
X98.914Y2378.459
X98.921Y2378.423
X98.928Y2378.387
X98.934Y2378.35
X98.939Y2378.314
X98.943Y2378.278
X98.946Y2378.241
X98.948Y2378.204
X98.95Y2378.167
X98.95Y2378.13
Y2312.431
X98.95Y2312.394
X98.948Y2312.357
X98.946Y2312.32
X98.943Y2312.283
X98.939Y2312.247
X98.934Y2312.211
X98.928Y2312.174
X98.921Y2312.138
X98.914Y2312.102
X98.905Y2312.066
X98.896Y2312.031
X98.886Y2311.995
X98.874Y2311.96
X98.863Y2311.925
X98.85Y2311.891
X98.836Y2311.856
X98.822Y2311.823
X98.806Y2311.789
X98.79Y2311.756
X98.773Y2311.723
X98.755Y2311.691
X98.737Y2311.66
X98.717Y2311.628
X98.697Y2311.597
X98.677Y2311.567
X98.655Y2311.537
X98.633Y2311.508
X98.61Y2311.479
X98.586Y2311.451
X98.562Y2311.423
X98.537Y2311.396
X98.511Y2311.37
X98.485Y2311.344
X98.458Y2311.319
X98.43Y2311.295
X98.402Y2311.271
X98.373Y2311.248
X98.344Y2311.226
X98.314Y2311.204
X98.284Y2311.183
X98.253Y2311.163
X98.221Y2311.144
X98.19Y2311.125
X98.157Y2311.108
X98.125Y2311.091
X98.092Y2311.075
X98.058Y2311.059
X98.024Y2311.045
X97.99Y2311.031
X97.956Y2311.018
X97.921Y2311.006
X97.886Y2310.995
X97.85Y2310.985
X97.815Y2310.976
X97.779Y2310.967
X97.743Y2310.959
X97.707Y2310.953
X97.67Y2310.947
X97.634Y2310.942
X97.597Y2310.938
X97.561Y2310.935
X97.524Y2310.932
X97.487Y2310.931
X97.45Y2310.931
X48.95
Y2308.93
X97.45
X97.487Y2308.93
X97.524Y2308.929
X97.561Y2308.926
X97.597Y2308.923
X97.634Y2308.919
X97.67Y2308.914
X97.707Y2308.908
X97.743Y2308.902
X97.779Y2308.894
X97.815Y2308.886
X97.85Y2308.876
X97.886Y2308.866
X97.921Y2308.855
X97.956Y2308.843
X97.99Y2308.83
X98.024Y2308.816
X98.058Y2308.802
X98.092Y2308.786
X98.125Y2308.77
X98.157Y2308.753
X98.19Y2308.736
X98.221Y2308.717
X98.253Y2308.698
X98.284Y2308.678
X98.314Y2308.657
X98.344Y2308.635
X98.373Y2308.613
X98.402Y2308.59
X98.43Y2308.566
X98.458Y2308.542
X98.485Y2308.517
X98.511Y2308.491
X98.537Y2308.465
X98.562Y2308.438
X98.586Y2308.41
X98.61Y2308.382
X98.633Y2308.353
X98.655Y2308.324
X98.677Y2308.294
X98.697Y2308.264
X98.717Y2308.233
X98.737Y2308.202
X98.755Y2308.17
X98.773Y2308.138
X98.79Y2308.105
X98.806Y2308.072
X98.822Y2308.038
X98.836Y2308.005
X98.85Y2307.97
X98.863Y2307.936
X98.874Y2307.901
X98.886Y2307.866
X98.896Y2307.831
X98.905Y2307.795
X98.914Y2307.759
X98.921Y2307.723
X98.928Y2307.687
X98.934Y2307.651
X98.939Y2307.614
X98.943Y2307.578
X98.946Y2307.541
X98.948Y2307.504
X98.95Y2307.467
X98.95Y2307.43
Y2241.73
X98.95Y2241.694
X98.948Y2241.657
X98.946Y2241.62
X98.943Y2241.583
X98.939Y2241.547
X98.934Y2241.51
X98.928Y2241.474
X98.921Y2241.438
X98.914Y2241.402
X98.905Y2241.366
X98.896Y2241.33
X98.886Y2241.295
X98.874Y2241.26
X98.863Y2241.225
X98.85Y2241.191
X98.836Y2241.156
X98.822Y2241.122
X98.806Y2241.089
X98.79Y2241.056
X98.773Y2241.023
X98.755Y2240.991
X98.737Y2240.959
X98.717Y2240.928
X98.697Y2240.897
X98.677Y2240.867
X98.655Y2240.837
X98.633Y2240.808
X98.61Y2240.779
X98.586Y2240.751
X98.562Y2240.723
X98.537Y2240.696
X98.511Y2240.67
X98.485Y2240.644
X98.458Y2240.619
X98.43Y2240.595
X98.402Y2240.571
X98.373Y2240.548
X98.344Y2240.526
X98.314Y2240.504
X98.284Y2240.483
X98.253Y2240.463
X98.221Y2240.444
X98.19Y2240.425
X98.157Y2240.407
X98.125Y2240.391
X98.092Y2240.375
X98.058Y2240.359
X98.024Y2240.345
X97.99Y2240.331
X97.956Y2240.318
X97.921Y2240.306
X97.886Y2240.295
X97.85Y2240.285
X97.815Y2240.275
X97.779Y2240.267
X97.743Y2240.259
X97.707Y2240.252
X97.67Y2240.247
X97.634Y2240.242
X97.597Y2240.238
X97.561Y2240.235
X97.524Y2240.232
X97.487Y2240.231
X97.45Y2240.231
X48.95
Y2238.23
X97.45
X97.487Y2238.23
X97.524Y2238.229
X97.561Y2238.226
X97.597Y2238.223
X97.634Y2238.219
X97.67Y2238.214
X97.707Y2238.209
X97.743Y2238.202
X97.779Y2238.194
X97.815Y2238.186
X97.85Y2238.176
X97.886Y2238.166
X97.921Y2238.155
X97.956Y2238.143
X97.99Y2238.13
X98.024Y2238.116
X98.058Y2238.102
X98.092Y2238.086
X98.125Y2238.07
X98.157Y2238.054
X98.19Y2238.036
X98.221Y2238.017
X98.253Y2237.998
X98.284Y2237.978
X98.314Y2237.957
X98.344Y2237.935
X98.373Y2237.913
X98.402Y2237.89
X98.43Y2237.866
X98.458Y2237.842
X98.485Y2237.817
X98.511Y2237.791
X98.537Y2237.765
X98.562Y2237.738
X98.586Y2237.71
X98.61Y2237.682
X98.633Y2237.653
X98.655Y2237.624
X98.677Y2237.594
X98.697Y2237.564
X98.717Y2237.533
X98.737Y2237.502
X98.755Y2237.47
X98.773Y2237.438
X98.79Y2237.405
X98.806Y2237.372
X98.822Y2237.339
X98.836Y2237.305
X98.85Y2237.27
X98.863Y2237.236
X98.874Y2237.201
X98.886Y2237.166
X98.896Y2237.131
X98.905Y2237.095
X98.914Y2237.059
X98.921Y2237.023
X98.928Y2236.987
X98.934Y2236.951
X98.939Y2236.914
X98.943Y2236.878
X98.946Y2236.841
X98.948Y2236.804
X98.95Y2236.767
X98.95Y2236.731
Y2170.931
X98.95Y2170.894
X98.948Y2170.857
X98.946Y2170.82
X98.943Y2170.783
X98.939Y2170.747
X98.934Y2170.711
X98.928Y2170.674
X98.921Y2170.638
X98.914Y2170.602
X98.905Y2170.566
X98.896Y2170.531
X98.886Y2170.495
X98.874Y2170.46
X98.863Y2170.425
X98.85Y2170.391
X98.836Y2170.356
X98.822Y2170.323
X98.806Y2170.289
X98.79Y2170.256
X98.773Y2170.223
X98.755Y2170.191
X98.737Y2170.16
X98.717Y2170.128
X98.697Y2170.097
X98.677Y2170.067
X98.655Y2170.037
X98.633Y2170.008
X98.61Y2169.979
X98.586Y2169.951
X98.562Y2169.923
X98.537Y2169.896
X98.511Y2169.87
X98.485Y2169.844
X98.458Y2169.819
X98.43Y2169.795
X98.402Y2169.771
X98.373Y2169.748
X98.344Y2169.726
X98.314Y2169.704
X98.284Y2169.683
X98.253Y2169.663
X98.221Y2169.644
X98.19Y2169.625
X98.157Y2169.608
X98.125Y2169.591
X98.092Y2169.575
X98.058Y2169.559
X98.024Y2169.545
X97.99Y2169.531
X97.956Y2169.518
X97.921Y2169.506
X97.886Y2169.495
X97.85Y2169.485
X97.815Y2169.476
X97.779Y2169.467
X97.743Y2169.459
X97.707Y2169.453
X97.67Y2169.447
X97.634Y2169.442
X97.597Y2169.438
X97.561Y2169.435
X97.524Y2169.432
X97.487Y2169.431
X97.45Y2169.431
X83.95
Y2165.93
X83.95Y2165.894
X83.948Y2165.857
X83.946Y2165.82
X83.943Y2165.783
X83.939Y2165.747
X83.934Y2165.71
X83.928Y2165.674
X83.921Y2165.638
X83.914Y2165.602
X83.905Y2165.566
X83.896Y2165.53
X83.886Y2165.495
X83.874Y2165.46
X83.863Y2165.425
X83.85Y2165.391
X83.836Y2165.356
X83.822Y2165.323
X83.806Y2165.289
X83.79Y2165.256
X83.773Y2165.223
X83.755Y2165.191
X83.737Y2165.159
X83.717Y2165.128
X83.697Y2165.097
X83.677Y2165.067
X83.655Y2165.037
X83.633Y2165.008
X83.61Y2164.979
X83.586Y2164.951
X83.562Y2164.923
X83.537Y2164.896
X83.511Y2164.87
X83.485Y2164.844
X83.458Y2164.819
X83.43Y2164.795
X83.402Y2164.771
X83.373Y2164.748
X83.344Y2164.726
X83.314Y2164.704
X83.284Y2164.683
X83.253Y2164.663
X83.221Y2164.644
X83.19Y2164.625
X83.157Y2164.608
X83.125Y2164.591
X83.092Y2164.575
X83.058Y2164.559
X83.024Y2164.545
X82.99Y2164.531
X82.956Y2164.518
X82.921Y2164.506
X82.886Y2164.495
X82.85Y2164.485
X82.815Y2164.475
X82.779Y2164.467
X82.743Y2164.459
X82.707Y2164.453
X82.67Y2164.447
X82.634Y2164.442
X82.597Y2164.438
X82.561Y2164.435
X82.524Y2164.432
X82.487Y2164.431
X82.45Y2164.431
X72.45
X72.413Y2164.431
X72.377Y2164.432
X72.34Y2164.435
X72.303Y2164.438
X72.267Y2164.442
X72.23Y2164.447
X72.194Y2164.453
X72.158Y2164.459
X72.122Y2164.467
X72.086Y2164.475
X72.05Y2164.485
X72.015Y2164.495
X71.98Y2164.506
X71.945Y2164.518
X71.91Y2164.531
X71.876Y2164.545
X71.842Y2164.559
X71.809Y2164.575
X71.776Y2164.591
X71.743Y2164.608
X71.711Y2164.625
X71.679Y2164.644
X71.648Y2164.663
X71.617Y2164.683
X71.586Y2164.704
X71.557Y2164.726
X71.527Y2164.748
X71.499Y2164.771
X71.47Y2164.795
X71.443Y2164.819
X71.416Y2164.844
X71.39Y2164.87
X71.364Y2164.896
X71.339Y2164.923
X71.314Y2164.951
X71.291Y2164.979
X71.268Y2165.008
X71.245Y2165.037
X71.224Y2165.067
X71.203Y2165.097
X71.183Y2165.128
X71.164Y2165.159
X71.145Y2165.191
X71.127Y2165.223
X71.11Y2165.256
X71.094Y2165.289
X71.079Y2165.323
X71.064Y2165.356
X71.051Y2165.391
X71.038Y2165.425
X71.026Y2165.46
X71.015Y2165.495
X71.005Y2165.53
X70.995Y2165.566
X70.987Y2165.602
X70.979Y2165.638
X70.972Y2165.674
X70.966Y2165.71
X70.961Y2165.747
X70.957Y2165.783
X70.954Y2165.82
X70.952Y2165.857
X70.951Y2165.894
X70.95Y2165.93
Y2169.431
X23.95
Y2165.93
X23.95Y2165.894
X23.948Y2165.857
X23.946Y2165.82
X23.943Y2165.783
X23.939Y2165.747
X23.934Y2165.71
X23.928Y2165.674
X23.921Y2165.638
X23.914Y2165.602
X23.905Y2165.566
X23.896Y2165.53
X23.886Y2165.495
X23.874Y2165.46
X23.863Y2165.425
X23.85Y2165.391
X23.836Y2165.356
X23.822Y2165.323
X23.806Y2165.289
X23.79Y2165.256
X23.773Y2165.223
X23.755Y2165.191
X23.737Y2165.159
X23.717Y2165.128
X23.697Y2165.097
X23.677Y2165.067
X23.655Y2165.037
X23.633Y2165.008
X23.61Y2164.979
X23.586Y2164.951
X23.562Y2164.923
X23.537Y2164.896
X23.511Y2164.87
X23.485Y2164.844
X23.458Y2164.819
X23.43Y2164.795
X23.402Y2164.771
X23.373Y2164.748
X23.344Y2164.726
X23.314Y2164.704
X23.284Y2164.683
X23.253Y2164.663
X23.221Y2164.644
X23.19Y2164.625
X23.157Y2164.608
X23.125Y2164.591
X23.092Y2164.575
X23.058Y2164.559
X23.024Y2164.545
X22.99Y2164.531
X22.956Y2164.518
X22.921Y2164.506
X22.886Y2164.495
X22.85Y2164.485
X22.815Y2164.475
X22.779Y2164.467
X22.743Y2164.459
X22.707Y2164.453
X22.67Y2164.447
X22.634Y2164.442
X22.597Y2164.438
X22.561Y2164.435
X22.524Y2164.432
X22.487Y2164.431
X22.45Y2164.431
X12.45
G0Z10
X110.954Y2170.82
G1Z-5F500
X110.952Y2170.857F1000
X110.951Y2170.894
X110.95Y2170.931
Y2660.931
X110.951Y2660.967
X110.952Y2661.004
X110.954Y2661.041
X110.957Y2661.078
X110.961Y2661.114
X110.966Y2661.151
X110.972Y2661.187
X110.979Y2661.223
X110.987Y2661.259
X110.995Y2661.295
X111.005Y2661.331
X111.015Y2661.366
X111.026Y2661.401
X111.038Y2661.436
X111.051Y2661.47
X111.064Y2661.505
X111.079Y2661.539
X111.094Y2661.572
X111.11Y2661.605
X111.127Y2661.638
X111.145Y2661.67
X111.164Y2661.702
X111.183Y2661.733
X111.203Y2661.764
X111.224Y2661.794
X111.245Y2661.824
X111.268Y2661.854
X111.291Y2661.882
X111.314Y2661.91
X111.339Y2661.938
X111.364Y2661.965
X111.39Y2661.991
X111.416Y2662.017
X111.443Y2662.042
X111.47Y2662.066
X111.499Y2662.09
X111.527Y2662.113
X111.557Y2662.135
X111.586Y2662.157
X111.617Y2662.178
X111.648Y2662.198
X111.679Y2662.217
X111.711Y2662.236
X111.743Y2662.254
X111.776Y2662.271
X111.809Y2662.286
X111.842Y2662.302
X111.876Y2662.317
X111.91Y2662.33
X111.945Y2662.343
X111.98Y2662.355
X112.015Y2662.366
X112.05Y2662.376
X112.086Y2662.386
X112.122Y2662.394
X112.158Y2662.402
X112.194Y2662.409
X112.23Y2662.414
X112.267Y2662.419
X112.303Y2662.423
X112.34Y2662.426
X112.377Y2662.429
X112.413Y2662.43
X112.45Y2662.431
X125.95
Y2665.93
X125.951Y2665.967
X125.952Y2666.004
X125.954Y2666.041
X125.957Y2666.078
X125.961Y2666.114
X125.966Y2666.151
X125.972Y2666.187
X125.979Y2666.223
X125.987Y2666.259
X125.995Y2666.295
X126.005Y2666.331
X126.015Y2666.366
X126.026Y2666.401
X126.038Y2666.436
X126.051Y2666.47
X126.064Y2666.505
X126.079Y2666.538
X126.094Y2666.572
X126.11Y2666.605
X126.127Y2666.638
X126.145Y2666.67
X126.164Y2666.702
X126.183Y2666.733
X126.203Y2666.764
X126.224Y2666.794
X126.245Y2666.824
X126.268Y2666.853
X126.291Y2666.882
X126.314Y2666.91
X126.339Y2666.938
X126.364Y2666.965
X126.39Y2666.991
X126.416Y2667.017
X126.443Y2667.042
X126.47Y2667.066
X126.499Y2667.09
X126.527Y2667.113
X126.557Y2667.135
X126.586Y2667.157
X126.617Y2667.178
X126.648Y2667.198
X126.679Y2667.217
X126.711Y2667.236
X126.743Y2667.253
X126.776Y2667.27
X126.809Y2667.286
X126.842Y2667.302
X126.876Y2667.316
X126.91Y2667.33
X126.945Y2667.343
X126.98Y2667.355
X127.015Y2667.366
X127.05Y2667.376
X127.086Y2667.386
X127.122Y2667.394
X127.158Y2667.402
X127.194Y2667.408
X127.23Y2667.414
X127.267Y2667.419
X127.303Y2667.423
X127.34Y2667.426
X127.377Y2667.429
X127.413Y2667.43
X127.45Y2667.43
X137.45
X137.487Y2667.43
X137.524Y2667.429
X137.561Y2667.426
X137.597Y2667.423
X137.634Y2667.419
X137.67Y2667.414
X137.707Y2667.408
X137.743Y2667.402
X137.779Y2667.394
X137.815Y2667.386
X137.85Y2667.376
X137.886Y2667.366
X137.921Y2667.355
X137.956Y2667.343
X137.99Y2667.33
X138.024Y2667.316
X138.058Y2667.302
X138.092Y2667.286
X138.125Y2667.27
X138.157Y2667.253
X138.19Y2667.236
X138.221Y2667.217
X138.253Y2667.198
X138.284Y2667.178
X138.314Y2667.157
X138.344Y2667.135
X138.373Y2667.113
X138.402Y2667.09
X138.43Y2667.066
X138.458Y2667.042
X138.485Y2667.017
X138.511Y2666.991
X138.537Y2666.965
X138.562Y2666.938
X138.586Y2666.91
X138.61Y2666.882
X138.633Y2666.853
X138.655Y2666.824
X138.677Y2666.794
X138.697Y2666.764
X138.717Y2666.733
X138.737Y2666.702
X138.755Y2666.67
X138.773Y2666.638
X138.79Y2666.605
X138.806Y2666.572
X138.822Y2666.538
X138.836Y2666.505
X138.85Y2666.47
X138.863Y2666.436
X138.874Y2666.401
X138.886Y2666.366
X138.896Y2666.331
X138.905Y2666.295
X138.914Y2666.259
X138.921Y2666.223
X138.928Y2666.187
X138.934Y2666.151
X138.939Y2666.114
X138.943Y2666.078
X138.946Y2666.041
X138.948Y2666.004
X138.95Y2665.967
X138.95Y2665.93
Y2662.431
X185.95
Y2665.93
X185.951Y2665.967
X185.952Y2666.004
X185.954Y2666.041
X185.957Y2666.078
X185.961Y2666.114
X185.966Y2666.151
X185.972Y2666.187
X185.979Y2666.223
X185.987Y2666.259
X185.995Y2666.295
X186.005Y2666.331
X186.015Y2666.366
X186.026Y2666.401
X186.038Y2666.436
X186.051Y2666.47
X186.064Y2666.505
X186.079Y2666.538
X186.094Y2666.572
X186.11Y2666.605
X186.127Y2666.638
X186.145Y2666.67
X186.164Y2666.702
X186.183Y2666.733
X186.203Y2666.764
X186.224Y2666.794
X186.245Y2666.824
X186.268Y2666.853
X186.291Y2666.882
X186.314Y2666.91
X186.339Y2666.938
X186.364Y2666.965
X186.39Y2666.991
X186.416Y2667.017
X186.443Y2667.042
X186.47Y2667.066
X186.499Y2667.09
X186.527Y2667.113
X186.557Y2667.135
X186.586Y2667.157
X186.617Y2667.178
X186.648Y2667.198
X186.679Y2667.217
X186.711Y2667.236
X186.743Y2667.253
X186.776Y2667.27
X186.809Y2667.286
X186.842Y2667.302
X186.876Y2667.316
X186.91Y2667.33
X186.945Y2667.343
X186.98Y2667.355
X187.015Y2667.366
X187.05Y2667.376
X187.086Y2667.386
X187.122Y2667.394
X187.158Y2667.402
X187.194Y2667.408
X187.23Y2667.414
X187.267Y2667.419
X187.303Y2667.423
X187.34Y2667.426
X187.377Y2667.429
X187.413Y2667.43
X187.45Y2667.43
X197.45
X197.487Y2667.43
X197.524Y2667.429
X197.561Y2667.426
X197.597Y2667.423
X197.634Y2667.419
X197.67Y2667.414
X197.707Y2667.408
X197.743Y2667.402
X197.779Y2667.394
X197.815Y2667.386
X197.85Y2667.376
X197.886Y2667.366
X197.921Y2667.355
X197.956Y2667.343
X197.99Y2667.33
X198.024Y2667.316
X198.058Y2667.302
X198.092Y2667.286
X198.125Y2667.27
X198.157Y2667.253
X198.19Y2667.236
X198.221Y2667.217
X198.253Y2667.198
X198.284Y2667.178
X198.314Y2667.157
X198.344Y2667.135
X198.373Y2667.113
X198.402Y2667.09
X198.43Y2667.066
X198.458Y2667.042
X198.485Y2667.017
X198.511Y2666.991
X198.537Y2666.965
X198.562Y2666.938
X198.586Y2666.91
X198.61Y2666.882
X198.633Y2666.853
X198.655Y2666.824
X198.677Y2666.794
X198.697Y2666.764
X198.717Y2666.733
X198.737Y2666.702
X198.755Y2666.67
X198.773Y2666.638
X198.79Y2666.605
X198.806Y2666.572
X198.822Y2666.538
X198.836Y2666.505
X198.85Y2666.47
X198.863Y2666.436
X198.874Y2666.401
X198.886Y2666.366
X198.896Y2666.331
X198.905Y2666.295
X198.914Y2666.259
X198.921Y2666.223
X198.928Y2666.187
X198.934Y2666.151
X198.939Y2666.114
X198.943Y2666.078
X198.946Y2666.041
X198.948Y2666.004
X198.95Y2665.967
X198.95Y2665.93
Y2662.431
X212.45
X212.487Y2662.43
X212.524Y2662.429
X212.561Y2662.426
X212.597Y2662.423
X212.634Y2662.419
X212.67Y2662.414
X212.707Y2662.409
X212.743Y2662.402
X212.779Y2662.394
X212.815Y2662.386
X212.85Y2662.376
X212.886Y2662.366
X212.921Y2662.355
X212.956Y2662.343
X212.99Y2662.33
X213.024Y2662.317
X213.058Y2662.302
X213.092Y2662.286
X213.125Y2662.271
X213.157Y2662.254
X213.19Y2662.236
X213.221Y2662.217
X213.253Y2662.198
X213.284Y2662.178
X213.314Y2662.157
X213.344Y2662.135
X213.373Y2662.113
X213.402Y2662.09
X213.43Y2662.066
X213.458Y2662.042
X213.484Y2662.017
X213.511Y2661.991
X213.537Y2661.965
X213.562Y2661.938
X213.586Y2661.91
X213.61Y2661.882
X213.633Y2661.854
X213.655Y2661.824
X213.677Y2661.794
X213.697Y2661.764
X213.717Y2661.733
X213.737Y2661.702
X213.755Y2661.67
X213.773Y2661.638
X213.79Y2661.605
X213.806Y2661.572
X213.821Y2661.539
X213.836Y2661.505
X213.85Y2661.47
X213.863Y2661.436
X213.874Y2661.401
X213.886Y2661.366
X213.896Y2661.331
X213.905Y2661.295
X213.914Y2661.259
X213.921Y2661.223
X213.928Y2661.187
X213.934Y2661.151
X213.939Y2661.114
X213.943Y2661.078
X213.946Y2661.041
X213.948Y2661.004
X213.95Y2660.967
X213.95Y2660.931
Y2595.231
X213.95Y2595.194
X213.948Y2595.157
X213.946Y2595.12
X213.943Y2595.083
X213.939Y2595.047
X213.934Y2595.01
X213.928Y2594.974
X213.921Y2594.938
X213.914Y2594.902
X213.905Y2594.866
X213.896Y2594.83
X213.886Y2594.795
X213.874Y2594.76
X213.863Y2594.725
X213.85Y2594.691
X213.836Y2594.656
X213.821Y2594.623
X213.806Y2594.589
X213.79Y2594.556
X213.773Y2594.523
X213.755Y2594.491
X213.737Y2594.46
X213.717Y2594.428
X213.697Y2594.397
X213.677Y2594.367
X213.655Y2594.337
X213.633Y2594.308
X213.61Y2594.279
X213.586Y2594.251
X213.562Y2594.223
X213.537Y2594.196
X213.511Y2594.17
X213.484Y2594.144
X213.458Y2594.119
X213.43Y2594.095
X213.402Y2594.071
X213.373Y2594.048
X213.344Y2594.026
X213.314Y2594.004
X213.284Y2593.983
X213.253Y2593.963
X213.221Y2593.944
X213.19Y2593.925
X213.157Y2593.908
X213.125Y2593.891
X213.092Y2593.875
X213.058Y2593.859
X213.024Y2593.845
X212.99Y2593.831
X212.956Y2593.818
X212.921Y2593.806
X212.886Y2593.795
X212.85Y2593.785
X212.815Y2593.775
X212.779Y2593.767
X212.743Y2593.759
X212.707Y2593.753
X212.67Y2593.747
X212.634Y2593.742
X212.597Y2593.738
X212.561Y2593.735
X212.524Y2593.732
X212.487Y2593.731
X212.45Y2593.731
X163.95
Y2591.73
X212.45
X212.487Y2591.73
X212.524Y2591.729
X212.561Y2591.726
X212.597Y2591.723
X212.634Y2591.719
X212.67Y2591.714
X212.707Y2591.708
X212.743Y2591.702
X212.779Y2591.694
X212.815Y2591.686
X212.85Y2591.676
X212.886Y2591.666
X212.921Y2591.655
X212.956Y2591.643
X212.99Y2591.63
X213.024Y2591.616
X213.058Y2591.602
X213.092Y2591.586
X213.125Y2591.57
X213.157Y2591.553
X213.19Y2591.536
X213.221Y2591.517
X213.253Y2591.498
X213.284Y2591.478
X213.314Y2591.457
X213.344Y2591.435
X213.373Y2591.413
X213.402Y2591.39
X213.43Y2591.366
X213.458Y2591.342
X213.484Y2591.317
X213.511Y2591.291
X213.537Y2591.265
X213.562Y2591.238
X213.586Y2591.21
X213.61Y2591.182
X213.633Y2591.153
X213.655Y2591.124
X213.677Y2591.094
X213.697Y2591.064
X213.717Y2591.033
X213.737Y2591.001
X213.755Y2590.97
X213.773Y2590.938
X213.79Y2590.905
X213.806Y2590.872
X213.821Y2590.838
X213.836Y2590.805
X213.85Y2590.77
X213.863Y2590.736
X213.874Y2590.701
X213.886Y2590.666
X213.896Y2590.631
X213.905Y2590.595
X213.914Y2590.559
X213.921Y2590.523
X213.928Y2590.487
X213.934Y2590.451
X213.939Y2590.414
X213.943Y2590.378
X213.946Y2590.341
X213.948Y2590.304
X213.95Y2590.267
X213.95Y2590.23
Y2524.53
X213.95Y2524.494
X213.948Y2524.457
X213.946Y2524.42
X213.943Y2524.383
X213.939Y2524.347
X213.934Y2524.31
X213.928Y2524.274
X213.921Y2524.238
X213.914Y2524.202
X213.905Y2524.166
X213.896Y2524.13
X213.886Y2524.095
X213.874Y2524.06
X213.863Y2524.025
X213.85Y2523.991
X213.836Y2523.956
X213.821Y2523.922
X213.806Y2523.889
X213.79Y2523.856
X213.773Y2523.823
X213.755Y2523.791
X213.737Y2523.759
X213.717Y2523.728
X213.697Y2523.697
X213.677Y2523.667
X213.655Y2523.637
X213.633Y2523.607
X213.61Y2523.579
X213.586Y2523.551
X213.562Y2523.523
X213.537Y2523.496
X213.511Y2523.47
X213.484Y2523.444
X213.458Y2523.419
X213.43Y2523.395
X213.402Y2523.371
X213.373Y2523.348
X213.344Y2523.326
X213.314Y2523.304
X213.284Y2523.283
X213.253Y2523.263
X213.221Y2523.244
X213.19Y2523.225
X213.157Y2523.207
X213.125Y2523.19
X213.092Y2523.175
X213.058Y2523.159
X213.024Y2523.144
X212.99Y2523.131
X212.956Y2523.118
X212.921Y2523.106
X212.886Y2523.095
X212.85Y2523.085
X212.815Y2523.075
X212.779Y2523.067
X212.743Y2523.059
X212.707Y2523.052
X212.67Y2523.047
X212.634Y2523.042
X212.597Y2523.038
X212.561Y2523.035
X212.524Y2523.032
X212.487Y2523.031
X212.45Y2523.03
X163.95
Y2521.03
X212.45
X212.487Y2521.03
X212.524Y2521.029
X212.561Y2521.026
X212.597Y2521.023
X212.634Y2521.019
X212.67Y2521.014
X212.707Y2521.008
X212.743Y2521.002
X212.779Y2520.994
X212.815Y2520.986
X212.85Y2520.976
X212.886Y2520.966
X212.921Y2520.955
X212.956Y2520.943
X212.99Y2520.93
X213.024Y2520.916
X213.058Y2520.902
X213.092Y2520.886
X213.125Y2520.87
X213.157Y2520.853
X213.19Y2520.836
X213.221Y2520.817
X213.253Y2520.798
X213.284Y2520.778
X213.314Y2520.757
X213.344Y2520.735
X213.373Y2520.713
X213.402Y2520.69
X213.43Y2520.666
X213.458Y2520.642
X213.484Y2520.617
X213.511Y2520.591
X213.537Y2520.565
X213.562Y2520.538
X213.586Y2520.51
X213.61Y2520.482
X213.633Y2520.453
X213.655Y2520.424
X213.677Y2520.394
X213.697Y2520.364
X213.717Y2520.333
X213.737Y2520.302
X213.755Y2520.27
X213.773Y2520.238
X213.79Y2520.205
X213.806Y2520.172
X213.821Y2520.138
X213.836Y2520.105
X213.85Y2520.07
X213.863Y2520.036
X213.874Y2520.001
X213.886Y2519.966
X213.896Y2519.931
X213.905Y2519.895
X213.914Y2519.859
X213.921Y2519.823
X213.928Y2519.787
X213.934Y2519.751
X213.939Y2519.714
X213.943Y2519.678
X213.946Y2519.641
X213.948Y2519.604
X213.95Y2519.567
X213.95Y2519.531
Y2453.83
X213.95Y2453.794
X213.948Y2453.757
X213.946Y2453.72
X213.943Y2453.683
X213.939Y2453.647
X213.934Y2453.61
X213.928Y2453.574
X213.921Y2453.538
X213.914Y2453.502
X213.905Y2453.466
X213.896Y2453.43
X213.886Y2453.395
X213.874Y2453.36
X213.863Y2453.325
X213.85Y2453.291
X213.836Y2453.256
X213.821Y2453.222
X213.806Y2453.189
X213.79Y2453.156
X213.773Y2453.123
X213.755Y2453.091
X213.737Y2453.059
X213.717Y2453.028
X213.697Y2452.997
X213.677Y2452.967
X213.655Y2452.937
X213.633Y2452.908
X213.61Y2452.879
X213.586Y2452.851
X213.562Y2452.823
X213.537Y2452.796
X213.511Y2452.77
X213.484Y2452.744
X213.458Y2452.719
X213.43Y2452.695
X213.402Y2452.671
X213.373Y2452.648
X213.344Y2452.626
X213.314Y2452.604
X213.284Y2452.583
X213.253Y2452.563
X213.221Y2452.544
X213.19Y2452.525
X213.157Y2452.507
X213.125Y2452.491
X213.092Y2452.475
X213.058Y2452.459
X213.024Y2452.445
X212.99Y2452.431
X212.956Y2452.418
X212.921Y2452.406
X212.886Y2452.395
X212.85Y2452.385
X212.815Y2452.375
X212.779Y2452.367
X212.743Y2452.359
X212.707Y2452.353
X212.67Y2452.347
X212.634Y2452.342
X212.597Y2452.338
X212.561Y2452.335
X212.524Y2452.332
X212.487Y2452.331
X212.45Y2452.331
X163.95
Y2450.33
X212.45
X212.487Y2450.33
X212.524Y2450.329
X212.561Y2450.326
X212.597Y2450.323
X212.634Y2450.319
X212.67Y2450.314
X212.707Y2450.309
X212.743Y2450.302
X212.779Y2450.294
X212.815Y2450.286
X212.85Y2450.276
X212.886Y2450.266
X212.921Y2450.255
X212.956Y2450.243
X212.99Y2450.23
X213.024Y2450.217
X213.058Y2450.202
X213.092Y2450.186
X213.125Y2450.17
X213.157Y2450.154
X213.19Y2450.136
X213.221Y2450.117
X213.253Y2450.098
X213.284Y2450.078
X213.314Y2450.057
X213.344Y2450.035
X213.373Y2450.013
X213.402Y2449.99
X213.43Y2449.966
X213.458Y2449.942
X213.484Y2449.917
X213.511Y2449.891
X213.537Y2449.865
X213.562Y2449.838
X213.586Y2449.81
X213.61Y2449.782
X213.633Y2449.754
X213.655Y2449.724
X213.677Y2449.694
X213.697Y2449.664
X213.717Y2449.633
X213.737Y2449.602
X213.755Y2449.57
X213.773Y2449.538
X213.79Y2449.505
X213.806Y2449.472
X213.821Y2449.439
X213.836Y2449.405
X213.85Y2449.37
X213.863Y2449.336
X213.874Y2449.301
X213.886Y2449.266
X213.896Y2449.231
X213.905Y2449.195
X213.914Y2449.159
X213.921Y2449.123
X213.928Y2449.087
X213.934Y2449.051
X213.939Y2449.014
X213.943Y2448.978
X213.946Y2448.941
X213.948Y2448.904
X213.95Y2448.867
X213.95Y2448.831
Y2383.131
X213.95Y2383.094
X213.948Y2383.057
X213.946Y2383.02
X213.943Y2382.983
X213.939Y2382.947
X213.934Y2382.91
X213.928Y2382.874
X213.921Y2382.838
X213.914Y2382.802
X213.905Y2382.766
X213.896Y2382.73
X213.886Y2382.695
X213.874Y2382.66
X213.863Y2382.625
X213.85Y2382.591
X213.836Y2382.556
X213.821Y2382.523
X213.806Y2382.489
X213.79Y2382.456
X213.773Y2382.423
X213.755Y2382.391
X213.737Y2382.359
X213.717Y2382.328
X213.697Y2382.297
X213.677Y2382.267
X213.655Y2382.237
X213.633Y2382.208
X213.61Y2382.179
X213.586Y2382.151
X213.562Y2382.123
X213.537Y2382.096
X213.511Y2382.07
X213.484Y2382.044
X213.458Y2382.019
X213.43Y2381.995
X213.402Y2381.971
X213.373Y2381.948
X213.344Y2381.926
X213.314Y2381.904
X213.284Y2381.883
X213.253Y2381.863
X213.221Y2381.844
X213.19Y2381.825
X213.157Y2381.808
X213.125Y2381.791
X213.092Y2381.775
X213.058Y2381.759
X213.024Y2381.745
X212.99Y2381.731
X212.956Y2381.718
X212.921Y2381.706
X212.886Y2381.695
X212.85Y2381.685
X212.815Y2381.675
X212.779Y2381.667
X212.743Y2381.659
X212.707Y2381.653
X212.67Y2381.647
X212.634Y2381.642
X212.597Y2381.638
X212.561Y2381.635
X212.524Y2381.632
X212.487Y2381.631
X212.45Y2381.631
X163.95
Y2379.63
X212.45
X212.487Y2379.63
X212.524Y2379.629
X212.561Y2379.626
X212.597Y2379.623
X212.634Y2379.619
X212.67Y2379.614
X212.707Y2379.608
X212.743Y2379.602
X212.779Y2379.594
X212.815Y2379.585
X212.85Y2379.576
X212.886Y2379.566
X212.921Y2379.555
X212.956Y2379.543
X212.99Y2379.53
X213.024Y2379.516
X213.058Y2379.502
X213.092Y2379.486
X213.125Y2379.47
X213.157Y2379.453
X213.19Y2379.436
X213.221Y2379.417
X213.253Y2379.398
X213.284Y2379.378
X213.314Y2379.357
X213.344Y2379.335
X213.373Y2379.313
X213.402Y2379.29
X213.43Y2379.266
X213.458Y2379.242
X213.484Y2379.217
X213.511Y2379.191
X213.537Y2379.165
X213.562Y2379.138
X213.586Y2379.11
X213.61Y2379.082
X213.633Y2379.053
X213.655Y2379.024
X213.677Y2378.994
X213.697Y2378.964
X213.717Y2378.933
X213.737Y2378.901
X213.755Y2378.87
X213.773Y2378.838
X213.79Y2378.805
X213.806Y2378.772
X213.821Y2378.738
X213.836Y2378.705
X213.85Y2378.67
X213.863Y2378.636
X213.874Y2378.601
X213.886Y2378.566
X213.896Y2378.53
X213.905Y2378.495
X213.914Y2378.459
X213.921Y2378.423
X213.928Y2378.387
X213.934Y2378.35
X213.939Y2378.314
X213.943Y2378.278
X213.946Y2378.241
X213.948Y2378.204
X213.95Y2378.167
X213.95Y2378.13
Y2312.431
X213.95Y2312.394
X213.948Y2312.357
X213.946Y2312.32
X213.943Y2312.283
X213.939Y2312.247
X213.934Y2312.211
X213.928Y2312.174
X213.921Y2312.138
X213.914Y2312.102
X213.905Y2312.066
X213.896Y2312.031
X213.886Y2311.995
X213.874Y2311.96
X213.863Y2311.925
X213.85Y2311.891
X213.836Y2311.856
X213.821Y2311.823
X213.806Y2311.789
X213.79Y2311.756
X213.773Y2311.723
X213.755Y2311.691
X213.737Y2311.66
X213.717Y2311.628
X213.697Y2311.597
X213.677Y2311.567
X213.655Y2311.537
X213.633Y2311.508
X213.61Y2311.479
X213.586Y2311.451
X213.562Y2311.423
X213.537Y2311.396
X213.511Y2311.37
X213.484Y2311.344
X213.458Y2311.319
X213.43Y2311.295
X213.402Y2311.271
X213.373Y2311.248
X213.344Y2311.226
X213.314Y2311.204
X213.284Y2311.183
X213.253Y2311.163
X213.221Y2311.144
X213.19Y2311.125
X213.157Y2311.108
X213.125Y2311.091
X213.092Y2311.075
X213.058Y2311.059
X213.024Y2311.045
X212.99Y2311.031
X212.956Y2311.018
X212.921Y2311.006
X212.886Y2310.995
X212.85Y2310.985
X212.815Y2310.976
X212.779Y2310.967
X212.743Y2310.959
X212.707Y2310.953
X212.67Y2310.947
X212.634Y2310.942
X212.597Y2310.938
X212.561Y2310.935
X212.524Y2310.932
X212.487Y2310.931
X212.45Y2310.931
X163.95
Y2308.93
X212.45
X212.487Y2308.93
X212.524Y2308.929
X212.561Y2308.926
X212.597Y2308.923
X212.634Y2308.919
X212.67Y2308.914
X212.707Y2308.908
X212.743Y2308.902
X212.779Y2308.894
X212.815Y2308.886
X212.85Y2308.876
X212.886Y2308.866
X212.921Y2308.855
X212.956Y2308.843
X212.99Y2308.83
X213.024Y2308.816
X213.058Y2308.802
X213.092Y2308.786
X213.125Y2308.77
X213.157Y2308.753
X213.19Y2308.736
X213.221Y2308.717
X213.253Y2308.698
X213.284Y2308.678
X213.314Y2308.657
X213.344Y2308.635
X213.373Y2308.613
X213.402Y2308.59
X213.43Y2308.566
X213.458Y2308.542
X213.484Y2308.517
X213.511Y2308.491
X213.537Y2308.465
X213.562Y2308.438
X213.586Y2308.41
X213.61Y2308.382
X213.633Y2308.353
X213.655Y2308.324
X213.677Y2308.294
X213.697Y2308.264
X213.717Y2308.233
X213.737Y2308.202
X213.755Y2308.17
X213.773Y2308.138
X213.79Y2308.105
X213.806Y2308.072
X213.821Y2308.038
X213.836Y2308.005
X213.85Y2307.97
X213.863Y2307.936
X213.874Y2307.901
X213.886Y2307.866
X213.896Y2307.831
X213.905Y2307.795
X213.914Y2307.759
X213.921Y2307.723
X213.928Y2307.687
X213.934Y2307.651
X213.939Y2307.614
X213.943Y2307.578
X213.946Y2307.541
X213.948Y2307.504
X213.95Y2307.467
X213.95Y2307.43
Y2241.73
X213.95Y2241.694
X213.948Y2241.657
X213.946Y2241.62
X213.943Y2241.583
X213.939Y2241.547
X213.934Y2241.51
X213.928Y2241.474
X213.921Y2241.438
X213.914Y2241.402
X213.905Y2241.366
X213.896Y2241.33
X213.886Y2241.295
X213.874Y2241.26
X213.863Y2241.225
X213.85Y2241.191
X213.836Y2241.156
X213.821Y2241.122
X213.806Y2241.089
X213.79Y2241.056
X213.773Y2241.023
X213.755Y2240.991
X213.737Y2240.959
X213.717Y2240.928
X213.697Y2240.897
X213.677Y2240.867
X213.655Y2240.837
X213.633Y2240.808
X213.61Y2240.779
X213.586Y2240.751
X213.562Y2240.723
X213.537Y2240.696
X213.511Y2240.67
X213.484Y2240.644
X213.458Y2240.619
X213.43Y2240.595
X213.402Y2240.571
X213.373Y2240.548
X213.344Y2240.526
X213.314Y2240.504
X213.284Y2240.483
X213.253Y2240.463
X213.221Y2240.444
X213.19Y2240.425
X213.157Y2240.407
X213.125Y2240.391
X213.092Y2240.375
X213.058Y2240.359
X213.024Y2240.345
X212.99Y2240.331
X212.956Y2240.318
X212.921Y2240.306
X212.886Y2240.295
X212.85Y2240.285
X212.815Y2240.275
X212.779Y2240.267
X212.743Y2240.259
X212.707Y2240.252
X212.67Y2240.247
X212.634Y2240.242
X212.597Y2240.238
X212.561Y2240.235
X212.524Y2240.232
X212.487Y2240.231
X212.45Y2240.231
X163.95
Y2238.23
X212.45
X212.487Y2238.23
X212.524Y2238.229
X212.561Y2238.226
X212.597Y2238.223
X212.634Y2238.219
X212.67Y2238.214
X212.707Y2238.209
X212.743Y2238.202
X212.779Y2238.194
X212.815Y2238.186
X212.85Y2238.176
X212.886Y2238.166
X212.921Y2238.155
X212.956Y2238.143
X212.99Y2238.13
X213.024Y2238.116
X213.058Y2238.102
X213.092Y2238.086
X213.125Y2238.07
X213.157Y2238.054
X213.19Y2238.036
X213.221Y2238.017
X213.253Y2237.998
X213.284Y2237.978
X213.314Y2237.957
X213.344Y2237.935
X213.373Y2237.913
X213.402Y2237.89
X213.43Y2237.866
X213.458Y2237.842
X213.484Y2237.817
X213.511Y2237.791
X213.537Y2237.765
X213.562Y2237.738
X213.586Y2237.71
X213.61Y2237.682
X213.633Y2237.653
X213.655Y2237.624
X213.677Y2237.594
X213.697Y2237.564
X213.717Y2237.533
X213.737Y2237.502
X213.755Y2237.47
X213.773Y2237.438
X213.79Y2237.405
X213.806Y2237.372
X213.821Y2237.339
X213.836Y2237.305
X213.85Y2237.27
X213.863Y2237.236
X213.874Y2237.201
X213.886Y2237.166
X213.896Y2237.131
X213.905Y2237.095
X213.914Y2237.059
X213.921Y2237.023
X213.928Y2236.987
X213.934Y2236.951
X213.939Y2236.914
X213.943Y2236.878
X213.946Y2236.841
X213.948Y2236.804
X213.95Y2236.767
X213.95Y2236.731
Y2170.931
X213.95Y2170.894
X213.948Y2170.857
X213.946Y2170.82
X213.943Y2170.783
X213.939Y2170.747
X213.934Y2170.711
X213.928Y2170.674
X213.921Y2170.638
X213.914Y2170.602
X213.905Y2170.566
X213.896Y2170.531
X213.886Y2170.495
X213.874Y2170.46
X213.863Y2170.425
X213.85Y2170.391
X213.836Y2170.356
X213.821Y2170.323
X213.806Y2170.289
X213.79Y2170.256
X213.773Y2170.223
X213.755Y2170.191
X213.737Y2170.16
X213.717Y2170.128
X213.697Y2170.097
X213.677Y2170.067
X213.655Y2170.037
X213.633Y2170.008
X213.61Y2169.979
X213.586Y2169.951
X213.562Y2169.923
X213.537Y2169.896
X213.511Y2169.87
X213.484Y2169.844
X213.458Y2169.819
X213.43Y2169.795
X213.402Y2169.771
X213.373Y2169.748
X213.344Y2169.726
X213.314Y2169.704
X213.284Y2169.683
X213.253Y2169.663
X213.221Y2169.644
X213.19Y2169.625
X213.157Y2169.608
X213.125Y2169.591
X213.092Y2169.575
X213.058Y2169.559
X213.024Y2169.545
X212.99Y2169.531
X212.956Y2169.518
X212.921Y2169.506
X212.886Y2169.495
X212.85Y2169.485
X212.815Y2169.476
X212.779Y2169.467
X212.743Y2169.459
X212.707Y2169.453
X212.67Y2169.447
X212.634Y2169.442
X212.597Y2169.438
X212.561Y2169.435
X212.524Y2169.432
X212.487Y2169.431
X212.45Y2169.431
X198.95
Y2165.93
X198.95Y2165.894
X198.948Y2165.857
X198.946Y2165.82
X198.943Y2165.783
X198.939Y2165.747
X198.934Y2165.71
X198.928Y2165.674
X198.921Y2165.638
X198.914Y2165.602
X198.905Y2165.566
X198.896Y2165.53
X198.886Y2165.495
X198.874Y2165.46
X198.863Y2165.425
X198.85Y2165.391
X198.836Y2165.356
X198.822Y2165.323
X198.806Y2165.289
X198.79Y2165.256
X198.773Y2165.223
X198.755Y2165.191
X198.737Y2165.159
X198.717Y2165.128
X198.697Y2165.097
X198.677Y2165.067
X198.655Y2165.037
X198.633Y2165.008
X198.61Y2164.979
X198.586Y2164.951
X198.562Y2164.923
X198.537Y2164.896
X198.511Y2164.87
X198.485Y2164.844
X198.458Y2164.819
X198.43Y2164.795
X198.402Y2164.771
X198.373Y2164.748
X198.344Y2164.726
X198.314Y2164.704
X198.284Y2164.683
X198.253Y2164.663
X198.221Y2164.644
X198.19Y2164.625
X198.157Y2164.608
X198.125Y2164.591
X198.092Y2164.575
X198.058Y2164.559
X198.024Y2164.545
X197.99Y2164.531
X197.956Y2164.518
X197.921Y2164.506
X197.886Y2164.495
X197.85Y2164.485
X197.815Y2164.475
X197.779Y2164.467
X197.743Y2164.459
X197.707Y2164.453
X197.67Y2164.447
X197.634Y2164.442
X197.597Y2164.438
X197.561Y2164.435
X197.524Y2164.432
X197.487Y2164.431
X197.45Y2164.431
X187.45
X187.413Y2164.431
X187.377Y2164.432
X187.34Y2164.435
X187.303Y2164.438
X187.267Y2164.442
X187.23Y2164.447
X187.194Y2164.453
X187.158Y2164.459
X187.122Y2164.467
X187.086Y2164.475
X187.05Y2164.485
X187.015Y2164.495
X186.98Y2164.506
X186.945Y2164.518
X186.91Y2164.531
X186.876Y2164.545
X186.842Y2164.559
X186.809Y2164.575
X186.776Y2164.591
X186.743Y2164.608
X186.711Y2164.625
X186.679Y2164.644
X186.648Y2164.663
X186.617Y2164.683
X186.586Y2164.704
X186.557Y2164.726
X186.527Y2164.748
X186.499Y2164.771
X186.47Y2164.795
X186.443Y2164.819
X186.416Y2164.844
X186.39Y2164.87
X186.364Y2164.896
X186.339Y2164.923
X186.314Y2164.951
X186.291Y2164.979
X186.268Y2165.008
X186.245Y2165.037
X186.224Y2165.067
X186.203Y2165.097
X186.183Y2165.128
X186.164Y2165.159
X186.145Y2165.191
X186.127Y2165.223
X186.11Y2165.256
X186.094Y2165.289
X186.079Y2165.323
X186.064Y2165.356
X186.051Y2165.391
X186.038Y2165.425
X186.026Y2165.46
X186.015Y2165.495
X186.005Y2165.53
X185.995Y2165.566
X185.987Y2165.602
X185.979Y2165.638
X185.972Y2165.674
X185.966Y2165.71
X185.961Y2165.747
X185.957Y2165.783
X185.954Y2165.82
X185.952Y2165.857
X185.951Y2165.894
X185.95Y2165.93
Y2169.431
X138.95
Y2165.93
X138.95Y2165.894
X138.948Y2165.857
X138.946Y2165.82
X138.943Y2165.783
X138.939Y2165.747
X138.934Y2165.71
X138.928Y2165.674
X138.921Y2165.638
X138.914Y2165.602
X138.905Y2165.566
X138.896Y2165.53
X138.886Y2165.495
X138.874Y2165.46
X138.863Y2165.425
X138.85Y2165.391
X138.836Y2165.356
X138.822Y2165.323
X138.806Y2165.289
X138.79Y2165.256
X138.773Y2165.223
X138.755Y2165.191
X138.737Y2165.159
X138.717Y2165.128
X138.697Y2165.097
X138.677Y2165.067
X138.655Y2165.037
X138.633Y2165.008
X138.61Y2164.979
X138.586Y2164.951
X138.562Y2164.923
X138.537Y2164.896
X138.511Y2164.87
X138.485Y2164.844
X138.458Y2164.819
X138.43Y2164.795
X138.402Y2164.771
X138.373Y2164.748
X138.344Y2164.726
X138.314Y2164.704
X138.284Y2164.683
X138.253Y2164.663
X138.221Y2164.644
X138.19Y2164.625
X138.157Y2164.608
X138.125Y2164.591
X138.092Y2164.575
X138.058Y2164.559
X138.024Y2164.545
X137.99Y2164.531
X137.956Y2164.518
X137.921Y2164.506
X137.886Y2164.495
X137.85Y2164.485
X137.815Y2164.475
X137.779Y2164.467
X137.743Y2164.459
X137.707Y2164.453
X137.67Y2164.447
X137.634Y2164.442
X137.597Y2164.438
X137.561Y2164.435
X137.524Y2164.432
X137.487Y2164.431
X137.45Y2164.431
X127.45
X127.413Y2164.431
X127.377Y2164.432
X127.34Y2164.435
X127.303Y2164.438
X127.267Y2164.442
X127.23Y2164.447
X127.194Y2164.453
X127.158Y2164.459
X127.122Y2164.467
X127.086Y2164.475
X127.05Y2164.485
X127.015Y2164.495
X126.98Y2164.506
X126.945Y2164.518
X126.91Y2164.531
X126.876Y2164.545
X126.842Y2164.559
X126.809Y2164.575
X126.776Y2164.591
X126.743Y2164.608
X126.711Y2164.625
X126.679Y2164.644
X126.648Y2164.663
X126.617Y2164.683
X126.586Y2164.704
X126.557Y2164.726
X126.527Y2164.748
X126.499Y2164.771
X126.47Y2164.795
X126.443Y2164.819
X126.416Y2164.844
X126.39Y2164.87
X126.364Y2164.896
X126.339Y2164.923
X126.314Y2164.951
X126.291Y2164.979
X126.268Y2165.008
X126.245Y2165.037
X126.224Y2165.067
X126.203Y2165.097
X126.183Y2165.128
X126.164Y2165.159
X126.145Y2165.191
X126.127Y2165.223
X126.11Y2165.256
X126.094Y2165.289
X126.079Y2165.323
X126.064Y2165.356
X126.051Y2165.391
X126.038Y2165.425
X126.026Y2165.46
X126.015Y2165.495
X126.005Y2165.53
X125.995Y2165.566
X125.987Y2165.602
X125.979Y2165.638
X125.972Y2165.674
X125.966Y2165.71
X125.961Y2165.747
X125.957Y2165.783
X125.954Y2165.82
X125.952Y2165.857
X125.951Y2165.894
X125.95Y2165.93
Y2169.431
X112.45
X112.413Y2169.431
X112.377Y2169.432
X112.34Y2169.435
X112.303Y2169.438
X112.267Y2169.442
X112.23Y2169.447
X112.194Y2169.453
X112.158Y2169.459
X112.122Y2169.467
X112.086Y2169.476
X112.05Y2169.485
X112.015Y2169.495
X111.98Y2169.506
X111.945Y2169.518
X111.91Y2169.531
X111.876Y2169.545
X111.842Y2169.559
X111.809Y2169.575
X111.776Y2169.591
X111.743Y2169.608
X111.711Y2169.625
X111.679Y2169.644
X111.648Y2169.663
X111.617Y2169.683
X111.586Y2169.704
X111.557Y2169.726
X111.527Y2169.748
X111.499Y2169.771
X111.47Y2169.795
X111.443Y2169.819
X111.416Y2169.844
X111.39Y2169.87
X111.364Y2169.896
X111.339Y2169.923
X111.314Y2169.951
X111.291Y2169.979
X111.268Y2170.008
X111.245Y2170.037
X111.224Y2170.067
X111.203Y2170.097
X111.183Y2170.128
X111.164Y2170.16
X111.145Y2170.191
X111.127Y2170.223
X111.11Y2170.256
X111.094Y2170.289
X111.079Y2170.323
X111.064Y2170.356
X111.051Y2170.391
X111.038Y2170.425
X111.026Y2170.46
X111.015Y2170.495
X111.005Y2170.531
X110.995Y2170.566
X110.987Y2170.602
X110.979Y2170.638
X110.972Y2170.674
X110.966Y2170.711
X110.961Y2170.747
X110.957Y2170.783
X110.954Y2170.82
G0Z10
X225.95Y2170.931
G1Z-5F500
Y2660.931F1000
X225.951Y2660.967
X225.952Y2661.004
X225.954Y2661.041
X225.957Y2661.078
X225.961Y2661.114
X225.966Y2661.151
X225.972Y2661.187
X225.979Y2661.223
X225.987Y2661.259
X225.995Y2661.295
X226.005Y2661.331
X226.015Y2661.366
X226.026Y2661.401
X226.038Y2661.436
X226.051Y2661.47
X226.064Y2661.505
X226.079Y2661.539
X226.094Y2661.572
X226.11Y2661.605
X226.127Y2661.638
X226.145Y2661.67
X226.164Y2661.702
X226.183Y2661.733
X226.203Y2661.764
X226.224Y2661.794
X226.245Y2661.824
X226.268Y2661.854
X226.291Y2661.882
X226.314Y2661.91
X226.339Y2661.938
X226.364Y2661.965
X226.39Y2661.991
X226.416Y2662.017
X226.443Y2662.042
X226.47Y2662.066
X226.499Y2662.09
X226.527Y2662.113
X226.557Y2662.135
X226.586Y2662.157
X226.617Y2662.178
X226.648Y2662.198
X226.679Y2662.217
X226.711Y2662.236
X226.743Y2662.254
X226.776Y2662.271
X226.809Y2662.286
X226.842Y2662.302
X226.876Y2662.317
X226.91Y2662.33
X226.945Y2662.343
X226.98Y2662.355
X227.015Y2662.366
X227.05Y2662.376
X227.086Y2662.386
X227.122Y2662.394
X227.158Y2662.402
X227.194Y2662.409
X227.23Y2662.414
X227.267Y2662.419
X227.303Y2662.423
X227.34Y2662.426
X227.377Y2662.429
X227.413Y2662.43
X227.45Y2662.431
X240.95
Y2665.93
X240.951Y2665.967
X240.952Y2666.004
X240.954Y2666.041
X240.957Y2666.078
X240.961Y2666.114
X240.966Y2666.151
X240.972Y2666.187
X240.979Y2666.223
X240.987Y2666.259
X240.995Y2666.295
X241.005Y2666.331
X241.015Y2666.366
X241.026Y2666.401
X241.038Y2666.436
X241.051Y2666.47
X241.064Y2666.505
X241.079Y2666.538
X241.094Y2666.572
X241.11Y2666.605
X241.127Y2666.638
X241.145Y2666.67
X241.164Y2666.702
X241.183Y2666.733
X241.203Y2666.764
X241.224Y2666.794
X241.245Y2666.824
X241.268Y2666.853
X241.291Y2666.882
X241.314Y2666.91
X241.339Y2666.938
X241.364Y2666.965
X241.39Y2666.991
X241.416Y2667.017
X241.443Y2667.042
X241.47Y2667.066
X241.499Y2667.09
X241.527Y2667.113
X241.557Y2667.135
X241.586Y2667.157
X241.617Y2667.178
X241.648Y2667.198
X241.679Y2667.217
X241.711Y2667.236
X241.743Y2667.253
X241.776Y2667.27
X241.809Y2667.286
X241.842Y2667.302
X241.876Y2667.316
X241.91Y2667.33
X241.945Y2667.343
X241.98Y2667.355
X242.015Y2667.366
X242.05Y2667.376
X242.086Y2667.386
X242.122Y2667.394
X242.158Y2667.402
X242.194Y2667.408
X242.23Y2667.414
X242.267Y2667.419
X242.303Y2667.423
X242.34Y2667.426
X242.377Y2667.429
X242.413Y2667.43
X242.45Y2667.43
X252.45
X252.487Y2667.43
X252.524Y2667.429
X252.561Y2667.426
X252.597Y2667.423
X252.634Y2667.419
X252.67Y2667.414
X252.707Y2667.408
X252.743Y2667.402
X252.779Y2667.394
X252.815Y2667.386
X252.85Y2667.376
X252.886Y2667.366
X252.921Y2667.355
X252.956Y2667.343
X252.99Y2667.33
X253.024Y2667.316
X253.058Y2667.302
X253.092Y2667.286
X253.125Y2667.27
X253.157Y2667.253
X253.19Y2667.236
X253.221Y2667.217
X253.253Y2667.198
X253.284Y2667.178
X253.314Y2667.157
X253.344Y2667.135
X253.373Y2667.113
X253.402Y2667.09
X253.43Y2667.066
X253.458Y2667.042
X253.485Y2667.017
X253.511Y2666.991
X253.537Y2666.965
X253.562Y2666.938
X253.586Y2666.91
X253.61Y2666.882
X253.633Y2666.853
X253.655Y2666.824
X253.677Y2666.794
X253.697Y2666.764
X253.717Y2666.733
X253.737Y2666.702
X253.755Y2666.67
X253.773Y2666.638
X253.79Y2666.605
X253.806Y2666.572
X253.822Y2666.538
X253.836Y2666.505
X253.85Y2666.47
X253.863Y2666.436
X253.874Y2666.401
X253.886Y2666.366
X253.896Y2666.331
X253.905Y2666.295
X253.914Y2666.259
X253.921Y2666.223
X253.928Y2666.187
X253.934Y2666.151
X253.939Y2666.114
X253.943Y2666.078
X253.946Y2666.041
X253.948Y2666.004
X253.95Y2665.967
X253.95Y2665.93
Y2662.431
X300.95
Y2665.93
X300.951Y2665.967
X300.952Y2666.004
X300.954Y2666.041
X300.957Y2666.078
X300.961Y2666.114
X300.966Y2666.151
X300.972Y2666.187
X300.979Y2666.223
X300.987Y2666.259
X300.995Y2666.295
X301.005Y2666.331
X301.015Y2666.366
X301.026Y2666.401
X301.038Y2666.436
X301.051Y2666.47
X301.064Y2666.505
X301.079Y2666.538
X301.094Y2666.572
X301.11Y2666.605
X301.127Y2666.638
X301.145Y2666.67
X301.164Y2666.702
X301.183Y2666.733
X301.203Y2666.764
X301.224Y2666.794
X301.245Y2666.824
X301.268Y2666.853
X301.291Y2666.882
X301.314Y2666.91
X301.339Y2666.938
X301.364Y2666.965
X301.39Y2666.991
X301.416Y2667.017
X301.443Y2667.042
X301.47Y2667.066
X301.499Y2667.09
X301.527Y2667.113
X301.557Y2667.135
X301.586Y2667.157
X301.617Y2667.178
X301.648Y2667.198
X301.679Y2667.217
X301.711Y2667.236
X301.743Y2667.253
X301.776Y2667.27
X301.809Y2667.286
X301.842Y2667.302
X301.876Y2667.316
X301.91Y2667.33
X301.945Y2667.343
X301.98Y2667.355
X302.015Y2667.366
X302.05Y2667.376
X302.086Y2667.386
X302.122Y2667.394
X302.158Y2667.402
X302.194Y2667.408
X302.23Y2667.414
X302.267Y2667.419
X302.303Y2667.423
X302.34Y2667.426
X302.377Y2667.429
X302.413Y2667.43
X302.45Y2667.43
X312.45
X312.487Y2667.43
X312.524Y2667.429
X312.561Y2667.426
X312.597Y2667.423
X312.634Y2667.419
X312.67Y2667.414
X312.707Y2667.408
X312.743Y2667.402
X312.779Y2667.394
X312.815Y2667.386
X312.85Y2667.376
X312.886Y2667.366
X312.921Y2667.355
X312.956Y2667.343
X312.99Y2667.33
X313.024Y2667.316
X313.058Y2667.302
X313.092Y2667.286
X313.125Y2667.27
X313.157Y2667.253
X313.19Y2667.236
X313.221Y2667.217
X313.253Y2667.198
X313.284Y2667.178
X313.314Y2667.157
X313.344Y2667.135
X313.373Y2667.113
X313.402Y2667.09
X313.43Y2667.066
X313.458Y2667.042
X313.484Y2667.017
X313.511Y2666.991
X313.537Y2666.965
X313.562Y2666.938
X313.586Y2666.91
X313.61Y2666.882
X313.633Y2666.853
X313.655Y2666.824
X313.677Y2666.794
X313.697Y2666.764
X313.717Y2666.733
X313.737Y2666.702
X313.755Y2666.67
X313.773Y2666.638
X313.79Y2666.605
X313.806Y2666.572
X313.822Y2666.538
X313.836Y2666.505
X313.85Y2666.47
X313.862Y2666.436
X313.874Y2666.401
X313.886Y2666.366
X313.896Y2666.331
X313.905Y2666.295
X313.914Y2666.259
X313.921Y2666.223
X313.928Y2666.187
X313.934Y2666.151
X313.939Y2666.114
X313.943Y2666.078
X313.946Y2666.041
X313.948Y2666.004
X313.95Y2665.967
X313.95Y2665.93
Y2662.431
X327.45
X327.487Y2662.43
X327.524Y2662.429
X327.561Y2662.426
X327.597Y2662.423
X327.634Y2662.419
X327.67Y2662.414
X327.707Y2662.409
X327.743Y2662.402
X327.779Y2662.394
X327.815Y2662.386
X327.85Y2662.376
X327.886Y2662.366
X327.921Y2662.355
X327.956Y2662.343
X327.99Y2662.33
X328.024Y2662.317
X328.058Y2662.302
X328.092Y2662.286
X328.125Y2662.271
X328.157Y2662.254
X328.19Y2662.236
X328.221Y2662.217
X328.253Y2662.198
X328.284Y2662.178
X328.314Y2662.157
X328.344Y2662.135
X328.373Y2662.113
X328.402Y2662.09
X328.43Y2662.066
X328.458Y2662.042
X328.485Y2662.017
X328.511Y2661.991
X328.537Y2661.965
X328.562Y2661.938
X328.586Y2661.91
X328.61Y2661.882
X328.633Y2661.854
X328.655Y2661.824
X328.677Y2661.794
X328.697Y2661.764
X328.717Y2661.733
X328.737Y2661.702
X328.755Y2661.67
X328.773Y2661.638
X328.79Y2661.605
X328.806Y2661.572
X328.822Y2661.539
X328.836Y2661.505
X328.85Y2661.47
X328.862Y2661.436
X328.874Y2661.401
X328.886Y2661.366
X328.896Y2661.331
X328.905Y2661.295
X328.914Y2661.259
X328.921Y2661.223
X328.928Y2661.187
X328.934Y2661.151
X328.939Y2661.114
X328.943Y2661.078
X328.946Y2661.041
X328.948Y2661.004
X328.95Y2660.967
X328.95Y2660.931
Y2595.231
X328.95Y2595.194
X328.948Y2595.157
X328.946Y2595.12
X328.943Y2595.083
X328.939Y2595.047
X328.934Y2595.01
X328.928Y2594.974
X328.921Y2594.938
X328.914Y2594.902
X328.905Y2594.866
X328.896Y2594.83
X328.886Y2594.795
X328.874Y2594.76
X328.862Y2594.725
X328.85Y2594.691
X328.836Y2594.656
X328.822Y2594.623
X328.806Y2594.589
X328.79Y2594.556
X328.773Y2594.523
X328.755Y2594.491
X328.737Y2594.46
X328.717Y2594.428
X328.697Y2594.397
X328.677Y2594.367
X328.655Y2594.337
X328.633Y2594.308
X328.61Y2594.279
X328.586Y2594.251
X328.562Y2594.223
X328.537Y2594.196
X328.511Y2594.17
X328.485Y2594.144
X328.458Y2594.119
X328.43Y2594.095
X328.402Y2594.071
X328.373Y2594.048
X328.344Y2594.026
X328.314Y2594.004
X328.284Y2593.983
X328.253Y2593.963
X328.221Y2593.944
X328.19Y2593.925
X328.157Y2593.908
X328.125Y2593.891
X328.092Y2593.875
X328.058Y2593.859
X328.024Y2593.845
X327.99Y2593.831
X327.956Y2593.818
X327.921Y2593.806
X327.886Y2593.795
X327.85Y2593.785
X327.815Y2593.775
X327.779Y2593.767
X327.743Y2593.759
X327.707Y2593.753
X327.67Y2593.747
X327.634Y2593.742
X327.597Y2593.738
X327.561Y2593.735
X327.524Y2593.732
X327.487Y2593.731
X327.45Y2593.731
X278.95
Y2591.73
X327.45
X327.487Y2591.73
X327.524Y2591.729
X327.561Y2591.726
X327.597Y2591.723
X327.634Y2591.719
X327.67Y2591.714
X327.707Y2591.708
X327.743Y2591.702
X327.779Y2591.694
X327.815Y2591.686
X327.85Y2591.676
X327.886Y2591.666
X327.921Y2591.655
X327.956Y2591.643
X327.99Y2591.63
X328.024Y2591.616
X328.058Y2591.602
X328.092Y2591.586
X328.125Y2591.57
X328.157Y2591.553
X328.19Y2591.536
X328.221Y2591.517
X328.253Y2591.498
X328.284Y2591.478
X328.314Y2591.457
X328.344Y2591.435
X328.373Y2591.413
X328.402Y2591.39
X328.43Y2591.366
X328.458Y2591.342
X328.485Y2591.317
X328.511Y2591.291
X328.537Y2591.265
X328.562Y2591.238
X328.586Y2591.21
X328.61Y2591.182
X328.633Y2591.153
X328.655Y2591.124
X328.677Y2591.094
X328.697Y2591.064
X328.717Y2591.033
X328.737Y2591.001
X328.755Y2590.97
X328.773Y2590.938
X328.79Y2590.905
X328.806Y2590.872
X328.822Y2590.838
X328.836Y2590.805
X328.85Y2590.77
X328.862Y2590.736
X328.874Y2590.701
X328.886Y2590.666
X328.896Y2590.631
X328.905Y2590.595
X328.914Y2590.559
X328.921Y2590.523
X328.928Y2590.487
X328.934Y2590.451
X328.939Y2590.414
X328.943Y2590.378
X328.946Y2590.341
X328.948Y2590.304
X328.95Y2590.267
X328.95Y2590.23
Y2524.53
X328.95Y2524.494
X328.948Y2524.457
X328.946Y2524.42
X328.943Y2524.383
X328.939Y2524.347
X328.934Y2524.31
X328.928Y2524.274
X328.921Y2524.238
X328.914Y2524.202
X328.905Y2524.166
X328.896Y2524.13
X328.886Y2524.095
X328.874Y2524.06
X328.862Y2524.025
X328.85Y2523.991
X328.836Y2523.956
X328.822Y2523.922
X328.806Y2523.889
X328.79Y2523.856
X328.773Y2523.823
X328.755Y2523.791
X328.737Y2523.759
X328.717Y2523.728
X328.697Y2523.697
X328.677Y2523.667
X328.655Y2523.637
X328.633Y2523.607
X328.61Y2523.579
X328.586Y2523.551
X328.562Y2523.523
X328.537Y2523.496
X328.511Y2523.47
X328.485Y2523.444
X328.458Y2523.419
X328.43Y2523.395
X328.402Y2523.371
X328.373Y2523.348
X328.344Y2523.326
X328.314Y2523.304
X328.284Y2523.283
X328.253Y2523.263
X328.221Y2523.244
X328.19Y2523.225
X328.157Y2523.207
X328.125Y2523.19
X328.092Y2523.175
X328.058Y2523.159
X328.024Y2523.144
X327.99Y2523.131
X327.956Y2523.118
X327.921Y2523.106
X327.886Y2523.095
X327.85Y2523.085
X327.815Y2523.075
X327.779Y2523.067
X327.743Y2523.059
X327.707Y2523.052
X327.67Y2523.047
X327.634Y2523.042
X327.597Y2523.038
X327.561Y2523.035
X327.524Y2523.032
X327.487Y2523.031
X327.45Y2523.03
X278.95
Y2521.03
X327.45
X327.487Y2521.03
X327.524Y2521.029
X327.561Y2521.026
X327.597Y2521.023
X327.634Y2521.019
X327.67Y2521.014
X327.707Y2521.008
X327.743Y2521.002
X327.779Y2520.994
X327.815Y2520.986
X327.85Y2520.976
X327.886Y2520.966
X327.921Y2520.955
X327.956Y2520.943
X327.99Y2520.93
X328.024Y2520.916
X328.058Y2520.902
X328.092Y2520.886
X328.125Y2520.87
X328.157Y2520.853
X328.19Y2520.836
X328.221Y2520.817
X328.253Y2520.798
X328.284Y2520.778
X328.314Y2520.757
X328.344Y2520.735
X328.373Y2520.713
X328.402Y2520.69
X328.43Y2520.666
X328.458Y2520.642
X328.485Y2520.617
X328.511Y2520.591
X328.537Y2520.565
X328.562Y2520.538
X328.586Y2520.51
X328.61Y2520.482
X328.633Y2520.453
X328.655Y2520.424
X328.677Y2520.394
X328.697Y2520.364
X328.717Y2520.333
X328.737Y2520.302
X328.755Y2520.27
X328.773Y2520.238
X328.79Y2520.205
X328.806Y2520.172
X328.822Y2520.138
X328.836Y2520.105
X328.85Y2520.07
X328.862Y2520.036
X328.874Y2520.001
X328.886Y2519.966
X328.896Y2519.931
X328.905Y2519.895
X328.914Y2519.859
X328.921Y2519.823
X328.928Y2519.787
X328.934Y2519.751
X328.939Y2519.714
X328.943Y2519.678
X328.946Y2519.641
X328.948Y2519.604
X328.95Y2519.567
X328.95Y2519.531
Y2453.83
X328.95Y2453.794
X328.948Y2453.757
X328.946Y2453.72
X328.943Y2453.683
X328.939Y2453.647
X328.934Y2453.61
X328.928Y2453.574
X328.921Y2453.538
X328.914Y2453.502
X328.905Y2453.466
X328.896Y2453.43
X328.886Y2453.395
X328.874Y2453.36
X328.862Y2453.325
X328.85Y2453.291
X328.836Y2453.256
X328.822Y2453.222
X328.806Y2453.189
X328.79Y2453.156
X328.773Y2453.123
X328.755Y2453.091
X328.737Y2453.059
X328.717Y2453.028
X328.697Y2452.997
X328.677Y2452.967
X328.655Y2452.937
X328.633Y2452.908
X328.61Y2452.879
X328.586Y2452.851
X328.562Y2452.823
X328.537Y2452.796
X328.511Y2452.77
X328.485Y2452.744
X328.458Y2452.719
X328.43Y2452.695
X328.402Y2452.671
X328.373Y2452.648
X328.344Y2452.626
X328.314Y2452.604
X328.284Y2452.583
X328.253Y2452.563
X328.221Y2452.544
X328.19Y2452.525
X328.157Y2452.507
X328.125Y2452.491
X328.092Y2452.475
X328.058Y2452.459
X328.024Y2452.445
X327.99Y2452.431
X327.956Y2452.418
X327.921Y2452.406
X327.886Y2452.395
X327.85Y2452.385
X327.815Y2452.375
X327.779Y2452.367
X327.743Y2452.359
X327.707Y2452.353
X327.67Y2452.347
X327.634Y2452.342
X327.597Y2452.338
X327.561Y2452.335
X327.524Y2452.332
X327.487Y2452.331
X327.45Y2452.331
X278.95
Y2450.33
X327.45
X327.487Y2450.33
X327.524Y2450.329
X327.561Y2450.326
X327.597Y2450.323
X327.634Y2450.319
X327.67Y2450.314
X327.707Y2450.309
X327.743Y2450.302
X327.779Y2450.294
X327.815Y2450.286
X327.85Y2450.276
X327.886Y2450.266
X327.921Y2450.255
X327.956Y2450.243
X327.99Y2450.23
X328.024Y2450.217
X328.058Y2450.202
X328.092Y2450.186
X328.125Y2450.17
X328.157Y2450.154
X328.19Y2450.136
X328.221Y2450.117
X328.253Y2450.098
X328.284Y2450.078
X328.314Y2450.057
X328.344Y2450.035
X328.373Y2450.013
X328.402Y2449.99
X328.43Y2449.966
X328.458Y2449.942
X328.485Y2449.917
X328.511Y2449.891
X328.537Y2449.865
X328.562Y2449.838
X328.586Y2449.81
X328.61Y2449.782
X328.633Y2449.754
X328.655Y2449.724
X328.677Y2449.694
X328.697Y2449.664
X328.717Y2449.633
X328.737Y2449.602
X328.755Y2449.57
X328.773Y2449.538
X328.79Y2449.505
X328.806Y2449.472
X328.822Y2449.439
X328.836Y2449.405
X328.85Y2449.37
X328.862Y2449.336
X328.874Y2449.301
X328.886Y2449.266
X328.896Y2449.231
X328.905Y2449.195
X328.914Y2449.159
X328.921Y2449.123
X328.928Y2449.087
X328.934Y2449.051
X328.939Y2449.014
X328.943Y2448.978
X328.946Y2448.941
X328.948Y2448.904
X328.95Y2448.867
X328.95Y2448.831
Y2383.131
X328.95Y2383.094
X328.948Y2383.057
X328.946Y2383.02
X328.943Y2382.983
X328.939Y2382.947
X328.934Y2382.91
X328.928Y2382.874
X328.921Y2382.838
X328.914Y2382.802
X328.905Y2382.766
X328.896Y2382.73
X328.886Y2382.695
X328.874Y2382.66
X328.862Y2382.625
X328.85Y2382.591
X328.836Y2382.556
X328.822Y2382.523
X328.806Y2382.489
X328.79Y2382.456
X328.773Y2382.423
X328.755Y2382.391
X328.737Y2382.359
X328.717Y2382.328
X328.697Y2382.297
X328.677Y2382.267
X328.655Y2382.237
X328.633Y2382.208
X328.61Y2382.179
X328.586Y2382.151
X328.562Y2382.123
X328.537Y2382.096
X328.511Y2382.07
X328.485Y2382.044
X328.458Y2382.019
X328.43Y2381.995
X328.402Y2381.971
X328.373Y2381.948
X328.344Y2381.926
X328.314Y2381.904
X328.284Y2381.883
X328.253Y2381.863
X328.221Y2381.844
X328.19Y2381.825
X328.157Y2381.808
X328.125Y2381.791
X328.092Y2381.775
X328.058Y2381.759
X328.024Y2381.745
X327.99Y2381.731
X327.956Y2381.718
X327.921Y2381.706
X327.886Y2381.695
X327.85Y2381.685
X327.815Y2381.675
X327.779Y2381.667
X327.743Y2381.659
X327.707Y2381.653
X327.67Y2381.647
X327.634Y2381.642
X327.597Y2381.638
X327.561Y2381.635
X327.524Y2381.632
X327.487Y2381.631
X327.45Y2381.631
X278.95
Y2379.63
X327.45
X327.487Y2379.63
X327.524Y2379.629
X327.561Y2379.626
X327.597Y2379.623
X327.634Y2379.619
X327.67Y2379.614
X327.707Y2379.608
X327.743Y2379.602
X327.779Y2379.594
X327.815Y2379.585
X327.85Y2379.576
X327.886Y2379.566
X327.921Y2379.555
X327.956Y2379.543
X327.99Y2379.53
X328.024Y2379.516
X328.058Y2379.502
X328.092Y2379.486
X328.125Y2379.47
X328.157Y2379.453
X328.19Y2379.436
X328.221Y2379.417
X328.253Y2379.398
X328.284Y2379.378
X328.314Y2379.357
X328.344Y2379.335
X328.373Y2379.313
X328.402Y2379.29
X328.43Y2379.266
X328.458Y2379.242
X328.485Y2379.217
X328.511Y2379.191
X328.537Y2379.165
X328.562Y2379.138
X328.586Y2379.11
X328.61Y2379.082
X328.633Y2379.053
X328.655Y2379.024
X328.677Y2378.994
X328.697Y2378.964
X328.717Y2378.933
X328.737Y2378.901
X328.755Y2378.87
X328.773Y2378.838
X328.79Y2378.805
X328.806Y2378.772
X328.822Y2378.738
X328.836Y2378.705
X328.85Y2378.67
X328.862Y2378.636
X328.874Y2378.601
X328.886Y2378.566
X328.896Y2378.53
X328.905Y2378.495
X328.914Y2378.459
X328.921Y2378.423
X328.928Y2378.387
X328.934Y2378.35
X328.939Y2378.314
X328.943Y2378.278
X328.946Y2378.241
X328.948Y2378.204
X328.95Y2378.167
X328.95Y2378.13
Y2312.431
X328.95Y2312.394
X328.948Y2312.357
X328.946Y2312.32
X328.943Y2312.283
X328.939Y2312.247
X328.934Y2312.211
X328.928Y2312.174
X328.921Y2312.138
X328.914Y2312.102
X328.905Y2312.066
X328.896Y2312.031
X328.886Y2311.995
X328.874Y2311.96
X328.862Y2311.925
X328.85Y2311.891
X328.836Y2311.856
X328.822Y2311.823
X328.806Y2311.789
X328.79Y2311.756
X328.773Y2311.723
X328.755Y2311.691
X328.737Y2311.66
X328.717Y2311.628
X328.697Y2311.597
X328.677Y2311.567
X328.655Y2311.537
X328.633Y2311.508
X328.61Y2311.479
X328.586Y2311.451
X328.562Y2311.423
X328.537Y2311.396
X328.511Y2311.37
X328.485Y2311.344
X328.458Y2311.319
X328.43Y2311.295
X328.402Y2311.271
X328.373Y2311.248
X328.344Y2311.226
X328.314Y2311.204
X328.284Y2311.183
X328.253Y2311.163
X328.221Y2311.144
X328.19Y2311.125
X328.157Y2311.108
X328.125Y2311.091
X328.092Y2311.075
X328.058Y2311.059
X328.024Y2311.045
X327.99Y2311.031
X327.956Y2311.018
X327.921Y2311.006
X327.886Y2310.995
X327.85Y2310.985
X327.815Y2310.976
X327.779Y2310.967
X327.743Y2310.959
X327.707Y2310.953
X327.67Y2310.947
X327.634Y2310.942
X327.597Y2310.938
X327.561Y2310.935
X327.524Y2310.932
X327.487Y2310.931
X327.45Y2310.931
X278.95
Y2308.93
X327.45
X327.487Y2308.93
X327.524Y2308.929
X327.561Y2308.926
X327.597Y2308.923
X327.634Y2308.919
X327.67Y2308.914
X327.707Y2308.908
X327.743Y2308.902
X327.779Y2308.894
X327.815Y2308.886
X327.85Y2308.876
X327.886Y2308.866
X327.921Y2308.855
X327.956Y2308.843
X327.99Y2308.83
X328.024Y2308.816
X328.058Y2308.802
X328.092Y2308.786
X328.125Y2308.77
X328.157Y2308.753
X328.19Y2308.736
X328.221Y2308.717
X328.253Y2308.698
X328.284Y2308.678
X328.314Y2308.657
X328.344Y2308.635
X328.373Y2308.613
X328.402Y2308.59
X328.43Y2308.566
X328.458Y2308.542
X328.485Y2308.517
X328.511Y2308.491
X328.537Y2308.465
X328.562Y2308.438
X328.586Y2308.41
X328.61Y2308.382
X328.633Y2308.353
X328.655Y2308.324
X328.677Y2308.294
X328.697Y2308.264
X328.717Y2308.233
X328.737Y2308.202
X328.755Y2308.17
X328.773Y2308.138
X328.79Y2308.105
X328.806Y2308.072
X328.822Y2308.038
X328.836Y2308.005
X328.85Y2307.97
X328.862Y2307.936
X328.874Y2307.901
X328.886Y2307.866
X328.896Y2307.831
X328.905Y2307.795
X328.914Y2307.759
X328.921Y2307.723
X328.928Y2307.687
X328.934Y2307.651
X328.939Y2307.614
X328.943Y2307.578
X328.946Y2307.541
X328.948Y2307.504
X328.95Y2307.467
X328.95Y2307.43
Y2241.73
X328.95Y2241.694
X328.948Y2241.657
X328.946Y2241.62
X328.943Y2241.583
X328.939Y2241.547
X328.934Y2241.51
X328.928Y2241.474
X328.921Y2241.438
X328.914Y2241.402
X328.905Y2241.366
X328.896Y2241.33
X328.886Y2241.295
X328.874Y2241.26
X328.862Y2241.225
X328.85Y2241.191
X328.836Y2241.156
X328.822Y2241.122
X328.806Y2241.089
X328.79Y2241.056
X328.773Y2241.023
X328.755Y2240.991
X328.737Y2240.959
X328.717Y2240.928
X328.697Y2240.897
X328.677Y2240.867
X328.655Y2240.837
X328.633Y2240.808
X328.61Y2240.779
X328.586Y2240.751
X328.562Y2240.723
X328.537Y2240.696
X328.511Y2240.67
X328.485Y2240.644
X328.458Y2240.619
X328.43Y2240.595
X328.402Y2240.571
X328.373Y2240.548
X328.344Y2240.526
X328.314Y2240.504
X328.284Y2240.483
X328.253Y2240.463
X328.221Y2240.444
X328.19Y2240.425
X328.157Y2240.407
X328.125Y2240.391
X328.092Y2240.375
X328.058Y2240.359
X328.024Y2240.345
X327.99Y2240.331
X327.956Y2240.318
X327.921Y2240.306
X327.886Y2240.295
X327.85Y2240.285
X327.815Y2240.275
X327.779Y2240.267
X327.743Y2240.259
X327.707Y2240.252
X327.67Y2240.247
X327.634Y2240.242
X327.597Y2240.238
X327.561Y2240.235
X327.524Y2240.232
X327.487Y2240.231
X327.45Y2240.231
X278.95
Y2238.23
X327.45
X327.487Y2238.23
X327.524Y2238.229
X327.561Y2238.226
X327.597Y2238.223
X327.634Y2238.219
X327.67Y2238.214
X327.707Y2238.209
X327.743Y2238.202
X327.779Y2238.194
X327.815Y2238.186
X327.85Y2238.176
X327.886Y2238.166
X327.921Y2238.155
X327.956Y2238.143
X327.99Y2238.13
X328.024Y2238.116
X328.058Y2238.102
X328.092Y2238.086
X328.125Y2238.07
X328.157Y2238.054
X328.19Y2238.036
X328.221Y2238.017
X328.253Y2237.998
X328.284Y2237.978
X328.314Y2237.957
X328.344Y2237.935
X328.373Y2237.913
X328.402Y2237.89
X328.43Y2237.866
X328.458Y2237.842
X328.485Y2237.817
X328.511Y2237.791
X328.537Y2237.765
X328.562Y2237.738
X328.586Y2237.71
X328.61Y2237.682
X328.633Y2237.653
X328.655Y2237.624
X328.677Y2237.594
X328.697Y2237.564
X328.717Y2237.533
X328.737Y2237.502
X328.755Y2237.47
X328.773Y2237.438
X328.79Y2237.405
X328.806Y2237.372
X328.822Y2237.339
X328.836Y2237.305
X328.85Y2237.27
X328.862Y2237.236
X328.874Y2237.201
X328.886Y2237.166
X328.896Y2237.131
X328.905Y2237.095
X328.914Y2237.059
X328.921Y2237.023
X328.928Y2236.987
X328.934Y2236.951
X328.939Y2236.914
X328.943Y2236.878
X328.946Y2236.841
X328.948Y2236.804
X328.95Y2236.767
X328.95Y2236.731
Y2170.931
X328.95Y2170.894
X328.948Y2170.857
X328.946Y2170.82
X328.943Y2170.783
X328.939Y2170.747
X328.934Y2170.711
X328.928Y2170.674
X328.921Y2170.638
X328.914Y2170.602
X328.905Y2170.566
X328.896Y2170.531
X328.886Y2170.495
X328.874Y2170.46
X328.862Y2170.425
X328.85Y2170.391
X328.836Y2170.356
X328.822Y2170.323
X328.806Y2170.289
X328.79Y2170.256
X328.773Y2170.223
X328.755Y2170.191
X328.737Y2170.16
X328.717Y2170.128
X328.697Y2170.097
X328.677Y2170.067
X328.655Y2170.037
X328.633Y2170.008
X328.61Y2169.979
X328.586Y2169.951
X328.562Y2169.923
X328.537Y2169.896
X328.511Y2169.87
X328.485Y2169.844
X328.458Y2169.819
X328.43Y2169.795
X328.402Y2169.771
X328.373Y2169.748
X328.344Y2169.726
X328.314Y2169.704
X328.284Y2169.683
X328.253Y2169.663
X328.221Y2169.644
X328.19Y2169.625
X328.157Y2169.608
X328.125Y2169.591
X328.092Y2169.575
X328.058Y2169.559
X328.024Y2169.545
X327.99Y2169.531
X327.956Y2169.518
X327.921Y2169.506
X327.886Y2169.495
X327.85Y2169.485
X327.815Y2169.476
X327.779Y2169.467
X327.743Y2169.459
X327.707Y2169.453
X327.67Y2169.447
X327.634Y2169.442
X327.597Y2169.438
X327.561Y2169.435
X327.524Y2169.432
X327.487Y2169.431
X327.45Y2169.431
X313.95
Y2165.93
X313.95Y2165.894
X313.948Y2165.857
X313.946Y2165.82
X313.943Y2165.783
X313.939Y2165.747
X313.934Y2165.71
X313.928Y2165.674
X313.921Y2165.638
X313.914Y2165.602
X313.905Y2165.566
X313.896Y2165.53
X313.886Y2165.495
X313.874Y2165.46
X313.862Y2165.425
X313.85Y2165.391
X313.836Y2165.356
X313.822Y2165.323
X313.806Y2165.289
X313.79Y2165.256
X313.773Y2165.223
X313.755Y2165.191
X313.737Y2165.159
X313.717Y2165.128
X313.697Y2165.097
X313.677Y2165.067
X313.655Y2165.037
X313.633Y2165.008
X313.61Y2164.979
X313.586Y2164.951
X313.562Y2164.923
X313.537Y2164.896
X313.511Y2164.87
X313.484Y2164.844
X313.458Y2164.819
X313.43Y2164.795
X313.402Y2164.771
X313.373Y2164.748
X313.344Y2164.726
X313.314Y2164.704
X313.284Y2164.683
X313.253Y2164.663
X313.221Y2164.644
X313.19Y2164.625
X313.157Y2164.608
X313.125Y2164.591
X313.092Y2164.575
X313.058Y2164.559
X313.024Y2164.545
X312.99Y2164.531
X312.956Y2164.518
X312.921Y2164.506
X312.886Y2164.495
X312.85Y2164.485
X312.815Y2164.475
X312.779Y2164.467
X312.743Y2164.459
X312.707Y2164.453
X312.67Y2164.447
X312.634Y2164.442
X312.597Y2164.438
X312.561Y2164.435
X312.524Y2164.432
X312.487Y2164.431
X312.45Y2164.431
X302.45
X302.413Y2164.431
X302.377Y2164.432
X302.34Y2164.435
X302.303Y2164.438
X302.267Y2164.442
X302.23Y2164.447
X302.194Y2164.453
X302.158Y2164.459
X302.122Y2164.467
X302.086Y2164.475
X302.05Y2164.485
X302.015Y2164.495
X301.98Y2164.506
X301.945Y2164.518
X301.91Y2164.531
X301.876Y2164.545
X301.842Y2164.559
X301.809Y2164.575
X301.776Y2164.591
X301.743Y2164.608
X301.711Y2164.625
X301.679Y2164.644
X301.648Y2164.663
X301.617Y2164.683
X301.586Y2164.704
X301.557Y2164.726
X301.527Y2164.748
X301.499Y2164.771
X301.47Y2164.795
X301.443Y2164.819
X301.416Y2164.844
X301.39Y2164.87
X301.364Y2164.896
X301.339Y2164.923
X301.314Y2164.951
X301.291Y2164.979
X301.268Y2165.008
X301.245Y2165.037
X301.224Y2165.067
X301.203Y2165.097
X301.183Y2165.128
X301.164Y2165.159
X301.145Y2165.191
X301.127Y2165.223
X301.11Y2165.256
X301.094Y2165.289
X301.079Y2165.323
X301.064Y2165.356
X301.051Y2165.391
X301.038Y2165.425
X301.026Y2165.46
X301.015Y2165.495
X301.005Y2165.53
X300.995Y2165.566
X300.987Y2165.602
X300.979Y2165.638
X300.972Y2165.674
X300.966Y2165.71
X300.961Y2165.747
X300.957Y2165.783
X300.954Y2165.82
X300.952Y2165.857
X300.951Y2165.894
X300.95Y2165.93
Y2169.431
X253.95
Y2165.93
X253.95Y2165.894
X253.948Y2165.857
X253.946Y2165.82
X253.943Y2165.783
X253.939Y2165.747
X253.934Y2165.71
X253.928Y2165.674
X253.921Y2165.638
X253.914Y2165.602
X253.905Y2165.566
X253.896Y2165.53
X253.886Y2165.495
X253.874Y2165.46
X253.863Y2165.425
X253.85Y2165.391
X253.836Y2165.356
X253.822Y2165.323
X253.806Y2165.289
X253.79Y2165.256
X253.773Y2165.223
X253.755Y2165.191
X253.737Y2165.159
X253.717Y2165.128
X253.697Y2165.097
X253.677Y2165.067
X253.655Y2165.037
X253.633Y2165.008
X253.61Y2164.979
X253.586Y2164.951
X253.562Y2164.923
X253.537Y2164.896
X253.511Y2164.87
X253.485Y2164.844
X253.458Y2164.819
X253.43Y2164.795
X253.402Y2164.771
X253.373Y2164.748
X253.344Y2164.726
X253.314Y2164.704
X253.284Y2164.683
X253.253Y2164.663
X253.221Y2164.644
X253.19Y2164.625
X253.157Y2164.608
X253.125Y2164.591
X253.092Y2164.575
X253.058Y2164.559
X253.024Y2164.545
X252.99Y2164.531
X252.956Y2164.518
X252.921Y2164.506
X252.886Y2164.495
X252.85Y2164.485
X252.815Y2164.475
X252.779Y2164.467
X252.743Y2164.459
X252.707Y2164.453
X252.67Y2164.447
X252.634Y2164.442
X252.597Y2164.438
X252.561Y2164.435
X252.524Y2164.432
X252.487Y2164.431
X252.45Y2164.431
X242.45
X242.413Y2164.431
X242.377Y2164.432
X242.34Y2164.435
X242.303Y2164.438
X242.267Y2164.442
X242.23Y2164.447
X242.194Y2164.453
X242.158Y2164.459
X242.122Y2164.467
X242.086Y2164.475
X242.05Y2164.485
X242.015Y2164.495
X241.98Y2164.506
X241.945Y2164.518
X241.91Y2164.531
X241.876Y2164.545
X241.842Y2164.559
X241.809Y2164.575
X241.776Y2164.591
X241.743Y2164.608
X241.711Y2164.625
X241.679Y2164.644
X241.648Y2164.663
X241.617Y2164.683
X241.586Y2164.704
X241.557Y2164.726
X241.527Y2164.748
X241.499Y2164.771
X241.47Y2164.795
X241.443Y2164.819
X241.416Y2164.844
X241.39Y2164.87
X241.364Y2164.896
X241.339Y2164.923
X241.314Y2164.951
X241.291Y2164.979
X241.268Y2165.008
X241.245Y2165.037
X241.224Y2165.067
X241.203Y2165.097
X241.183Y2165.128
X241.164Y2165.159
X241.145Y2165.191
X241.127Y2165.223
X241.11Y2165.256
X241.094Y2165.289
X241.079Y2165.323
X241.064Y2165.356
X241.051Y2165.391
X241.038Y2165.425
X241.026Y2165.46
X241.015Y2165.495
X241.005Y2165.53
X240.995Y2165.566
X240.987Y2165.602
X240.979Y2165.638
X240.972Y2165.674
X240.966Y2165.71
X240.961Y2165.747
X240.957Y2165.783
X240.954Y2165.82
X240.952Y2165.857
X240.951Y2165.894
X240.95Y2165.93
Y2169.431
X227.45
X227.413Y2169.431
X227.377Y2169.432
X227.34Y2169.435
X227.303Y2169.438
X227.267Y2169.442
X227.23Y2169.447
X227.194Y2169.453
X227.158Y2169.459
X227.122Y2169.467
X227.086Y2169.476
X227.05Y2169.485
X227.015Y2169.495
X226.98Y2169.506
X226.945Y2169.518
X226.91Y2169.531
X226.876Y2169.545
X226.842Y2169.559
X226.809Y2169.575
X226.776Y2169.591
X226.743Y2169.608
X226.711Y2169.625
X226.679Y2169.644
X226.648Y2169.663
X226.617Y2169.683
X226.586Y2169.704
X226.557Y2169.726
X226.527Y2169.748
X226.499Y2169.771
X226.47Y2169.795
X226.443Y2169.819
X226.416Y2169.844
X226.39Y2169.87
X226.364Y2169.896
X226.339Y2169.923
X226.314Y2169.951
X226.291Y2169.979
X226.268Y2170.008
X226.245Y2170.037
X226.224Y2170.067
X226.203Y2170.097
X226.183Y2170.128
X226.164Y2170.16
X226.145Y2170.191
X226.127Y2170.223
X226.11Y2170.256
X226.094Y2170.289
X226.079Y2170.323
X226.064Y2170.356
X226.051Y2170.391
X226.038Y2170.425
X226.026Y2170.46
X226.015Y2170.495
X226.005Y2170.531
X225.995Y2170.566
X225.987Y2170.602
X225.979Y2170.638
X225.972Y2170.674
X225.966Y2170.711
X225.961Y2170.747
X225.957Y2170.783
X225.954Y2170.82
X225.952Y2170.857
X225.951Y2170.894
X225.95Y2170.931
G0Z10
X340.95
G1Z-5F500
Y2660.931F1000
X340.951Y2660.967
X340.952Y2661.004
X340.954Y2661.041
X340.957Y2661.078
X340.961Y2661.114
X340.966Y2661.151
X340.972Y2661.187
X340.979Y2661.223
X340.987Y2661.259
X340.995Y2661.295
X341.005Y2661.331
X341.015Y2661.366
X341.026Y2661.401
X341.038Y2661.436
X341.051Y2661.47
X341.064Y2661.505
X341.079Y2661.539
X341.094Y2661.572
X341.11Y2661.605
X341.127Y2661.638
X341.145Y2661.67
X341.164Y2661.702
X341.183Y2661.733
X341.203Y2661.764
X341.224Y2661.794
X341.245Y2661.824
X341.268Y2661.854
X341.291Y2661.882
X341.314Y2661.91
X341.339Y2661.938
X341.364Y2661.965
X341.39Y2661.991
X341.416Y2662.017
X341.443Y2662.042
X341.47Y2662.066
X341.499Y2662.09
X341.527Y2662.113
X341.557Y2662.135
X341.586Y2662.157
X341.617Y2662.178
X341.648Y2662.198
X341.679Y2662.217
X341.711Y2662.236
X341.743Y2662.254
X341.776Y2662.271
X341.809Y2662.286
X341.842Y2662.302
X341.876Y2662.317
X341.91Y2662.33
X341.945Y2662.343
X341.98Y2662.355
X342.015Y2662.366
X342.05Y2662.376
X342.086Y2662.386
X342.122Y2662.394
X342.158Y2662.402
X342.194Y2662.409
X342.23Y2662.414
X342.267Y2662.419
X342.303Y2662.423
X342.34Y2662.426
X342.377Y2662.429
X342.413Y2662.43
X342.45Y2662.431
X355.95
Y2665.93
X355.951Y2665.967
X355.952Y2666.004
X355.954Y2666.041
X355.957Y2666.078
X355.961Y2666.114
X355.966Y2666.151
X355.972Y2666.187
X355.979Y2666.223
X355.987Y2666.259
X355.995Y2666.295
X356.005Y2666.331
X356.015Y2666.366
X356.026Y2666.401
X356.038Y2666.436
X356.051Y2666.47
X356.064Y2666.505
X356.079Y2666.538
X356.094Y2666.572
X356.11Y2666.605
X356.127Y2666.638
X356.145Y2666.67
X356.164Y2666.702
X356.183Y2666.733
X356.203Y2666.764
X356.224Y2666.794
X356.245Y2666.824
X356.268Y2666.853
X356.291Y2666.882
X356.314Y2666.91
X356.339Y2666.938
X356.364Y2666.965
X356.39Y2666.991
X356.416Y2667.017
X356.443Y2667.042
X356.47Y2667.066
X356.499Y2667.09
X356.527Y2667.113
X356.557Y2667.135
X356.586Y2667.157
X356.617Y2667.178
X356.648Y2667.198
X356.679Y2667.217
X356.711Y2667.236
X356.743Y2667.253
X356.776Y2667.27
X356.809Y2667.286
X356.842Y2667.302
X356.876Y2667.316
X356.91Y2667.33
X356.945Y2667.343
X356.98Y2667.355
X357.015Y2667.366
X357.05Y2667.376
X357.086Y2667.386
X357.122Y2667.394
X357.158Y2667.402
X357.194Y2667.408
X357.23Y2667.414
X357.267Y2667.419
X357.303Y2667.423
X357.34Y2667.426
X357.377Y2667.429
X357.413Y2667.43
X357.45Y2667.43
X367.45
X367.487Y2667.43
X367.524Y2667.429
X367.561Y2667.426
X367.597Y2667.423
X367.634Y2667.419
X367.67Y2667.414
X367.707Y2667.408
X367.743Y2667.402
X367.779Y2667.394
X367.815Y2667.386
X367.85Y2667.376
X367.886Y2667.366
X367.921Y2667.355
X367.956Y2667.343
X367.99Y2667.33
X368.024Y2667.316
X368.058Y2667.302
X368.092Y2667.286
X368.125Y2667.27
X368.157Y2667.253
X368.19Y2667.236
X368.221Y2667.217
X368.253Y2667.198
X368.284Y2667.178
X368.314Y2667.157
X368.344Y2667.135
X368.373Y2667.113
X368.402Y2667.09
X368.43Y2667.066
X368.458Y2667.042
X368.485Y2667.017
X368.511Y2666.991
X368.537Y2666.965
X368.562Y2666.938
X368.586Y2666.91
X368.61Y2666.882
X368.633Y2666.853
X368.655Y2666.824
X368.677Y2666.794
X368.697Y2666.764
X368.717Y2666.733
X368.737Y2666.702
X368.755Y2666.67
X368.773Y2666.638
X368.79Y2666.605
X368.806Y2666.572
X368.822Y2666.538
X368.836Y2666.505
X368.85Y2666.47
X368.862Y2666.436
X368.874Y2666.401
X368.886Y2666.366
X368.896Y2666.331
X368.905Y2666.295
X368.914Y2666.259
X368.921Y2666.223
X368.928Y2666.187
X368.934Y2666.151
X368.939Y2666.114
X368.943Y2666.078
X368.946Y2666.041
X368.948Y2666.004
X368.95Y2665.967
X368.95Y2665.93
Y2662.431
X415.95
Y2665.93
X415.951Y2665.967
X415.952Y2666.004
X415.954Y2666.041
X415.957Y2666.078
X415.961Y2666.114
X415.966Y2666.151
X415.972Y2666.187
X415.979Y2666.223
X415.987Y2666.259
X415.995Y2666.295
X416.005Y2666.331
X416.015Y2666.366
X416.026Y2666.401
X416.038Y2666.436
X416.051Y2666.47
X416.064Y2666.505
X416.079Y2666.538
X416.094Y2666.572
X416.11Y2666.605
X416.127Y2666.638
X416.145Y2666.67
X416.164Y2666.702
X416.183Y2666.733
X416.203Y2666.764
X416.224Y2666.794
X416.245Y2666.824
X416.268Y2666.853
X416.291Y2666.882
X416.314Y2666.91
X416.339Y2666.938
X416.364Y2666.965
X416.39Y2666.991
X416.416Y2667.017
X416.443Y2667.042
X416.47Y2667.066
X416.499Y2667.09
X416.527Y2667.113
X416.557Y2667.135
X416.586Y2667.157
X416.617Y2667.178
X416.648Y2667.198
X416.679Y2667.217
X416.711Y2667.236
X416.743Y2667.253
X416.776Y2667.27
X416.809Y2667.286
X416.842Y2667.302
X416.876Y2667.316
X416.91Y2667.33
X416.945Y2667.343
X416.98Y2667.355
X417.015Y2667.366
X417.05Y2667.376
X417.086Y2667.386
X417.122Y2667.394
X417.158Y2667.402
X417.194Y2667.408
X417.23Y2667.414
X417.267Y2667.419
X417.303Y2667.423
X417.34Y2667.426
X417.377Y2667.429
X417.413Y2667.43
X417.45Y2667.43
X427.45
X427.487Y2667.43
X427.524Y2667.429
X427.561Y2667.426
X427.597Y2667.423
X427.634Y2667.419
X427.67Y2667.414
X427.707Y2667.408
X427.743Y2667.402
X427.779Y2667.394
X427.815Y2667.386
X427.85Y2667.376
X427.886Y2667.366
X427.921Y2667.355
X427.956Y2667.343
X427.99Y2667.33
X428.024Y2667.316
X428.058Y2667.302
X428.092Y2667.286
X428.125Y2667.27
X428.157Y2667.253
X428.19Y2667.236
X428.221Y2667.217
X428.253Y2667.198
X428.284Y2667.178
X428.314Y2667.157
X428.344Y2667.135
X428.373Y2667.113
X428.402Y2667.09
X428.43Y2667.066
X428.458Y2667.042
X428.485Y2667.017
X428.511Y2666.991
X428.537Y2666.965
X428.562Y2666.938
X428.586Y2666.91
X428.61Y2666.882
X428.633Y2666.853
X428.655Y2666.824
X428.677Y2666.794
X428.697Y2666.764
X428.717Y2666.733
X428.737Y2666.702
X428.755Y2666.67
X428.773Y2666.638
X428.79Y2666.605
X428.806Y2666.572
X428.822Y2666.538
X428.836Y2666.505
X428.85Y2666.47
X428.862Y2666.436
X428.874Y2666.401
X428.886Y2666.366
X428.896Y2666.331
X428.905Y2666.295
X428.914Y2666.259
X428.921Y2666.223
X428.928Y2666.187
X428.934Y2666.151
X428.939Y2666.114
X428.943Y2666.078
X428.946Y2666.041
X428.948Y2666.004
X428.95Y2665.967
X428.95Y2665.93
Y2662.431
X442.45
X442.487Y2662.43
X442.524Y2662.429
X442.561Y2662.426
X442.597Y2662.423
X442.634Y2662.419
X442.67Y2662.414
X442.707Y2662.409
X442.743Y2662.402
X442.779Y2662.394
X442.815Y2662.386
X442.85Y2662.376
X442.886Y2662.366
X442.921Y2662.355
X442.956Y2662.343
X442.99Y2662.33
X443.024Y2662.317
X443.058Y2662.302
X443.092Y2662.286
X443.125Y2662.271
X443.157Y2662.254
X443.19Y2662.236
X443.221Y2662.217
X443.253Y2662.198
X443.284Y2662.178
X443.314Y2662.157
X443.344Y2662.135
X443.373Y2662.113
X443.402Y2662.09
X443.43Y2662.066
X443.458Y2662.042
X443.484Y2662.017
X443.511Y2661.991
X443.537Y2661.965
X443.562Y2661.938
X443.586Y2661.91
X443.61Y2661.882
X443.633Y2661.854
X443.655Y2661.824
X443.677Y2661.794
X443.697Y2661.764
X443.717Y2661.733
X443.737Y2661.702
X443.755Y2661.67
X443.773Y2661.638
X443.79Y2661.605
X443.806Y2661.572
X443.821Y2661.539
X443.836Y2661.505
X443.85Y2661.47
X443.862Y2661.436
X443.874Y2661.401
X443.886Y2661.366
X443.896Y2661.331
X443.905Y2661.295
X443.914Y2661.259
X443.921Y2661.223
X443.928Y2661.187
X443.934Y2661.151
X443.939Y2661.114
X443.943Y2661.078
X443.946Y2661.041
X443.948Y2661.004
X443.95Y2660.967
X443.95Y2660.931
Y2595.231
X443.95Y2595.194
X443.948Y2595.157
X443.946Y2595.12
X443.943Y2595.083
X443.939Y2595.047
X443.934Y2595.01
X443.928Y2594.974
X443.921Y2594.938
X443.914Y2594.902
X443.905Y2594.866
X443.896Y2594.83
X443.886Y2594.795
X443.874Y2594.76
X443.862Y2594.725
X443.85Y2594.691
X443.836Y2594.656
X443.821Y2594.623
X443.806Y2594.589
X443.79Y2594.556
X443.773Y2594.523
X443.755Y2594.491
X443.737Y2594.46
X443.717Y2594.428
X443.697Y2594.397
X443.677Y2594.367
X443.655Y2594.337
X443.633Y2594.308
X443.61Y2594.279
X443.586Y2594.251
X443.562Y2594.223
X443.537Y2594.196
X443.511Y2594.17
X443.484Y2594.144
X443.458Y2594.119
X443.43Y2594.095
X443.402Y2594.071
X443.373Y2594.048
X443.344Y2594.026
X443.314Y2594.004
X443.284Y2593.983
X443.253Y2593.963
X443.221Y2593.944
X443.19Y2593.925
X443.157Y2593.908
X443.125Y2593.891
X443.092Y2593.875
X443.058Y2593.859
X443.024Y2593.845
X442.99Y2593.831
X442.956Y2593.818
X442.921Y2593.806
X442.886Y2593.795
X442.85Y2593.785
X442.815Y2593.775
X442.779Y2593.767
X442.743Y2593.759
X442.707Y2593.753
X442.67Y2593.747
X442.634Y2593.742
X442.597Y2593.738
X442.561Y2593.735
X442.524Y2593.732
X442.487Y2593.731
X442.45Y2593.731
X393.95
Y2591.73
X442.45
X442.487Y2591.73
X442.524Y2591.729
X442.561Y2591.726
X442.597Y2591.723
X442.634Y2591.719
X442.67Y2591.714
X442.707Y2591.708
X442.743Y2591.702
X442.779Y2591.694
X442.815Y2591.686
X442.85Y2591.676
X442.886Y2591.666
X442.921Y2591.655
X442.956Y2591.643
X442.99Y2591.63
X443.024Y2591.616
X443.058Y2591.602
X443.092Y2591.586
X443.125Y2591.57
X443.157Y2591.553
X443.19Y2591.536
X443.221Y2591.517
X443.253Y2591.498
X443.284Y2591.478
X443.314Y2591.457
X443.344Y2591.435
X443.373Y2591.413
X443.402Y2591.39
X443.43Y2591.366
X443.458Y2591.342
X443.484Y2591.317
X443.511Y2591.291
X443.537Y2591.265
X443.562Y2591.238
X443.586Y2591.21
X443.61Y2591.182
X443.633Y2591.153
X443.655Y2591.124
X443.677Y2591.094
X443.697Y2591.064
X443.717Y2591.033
X443.737Y2591.001
X443.755Y2590.97
X443.773Y2590.938
X443.79Y2590.905
X443.806Y2590.872
X443.821Y2590.838
X443.836Y2590.805
X443.85Y2590.77
X443.862Y2590.736
X443.874Y2590.701
X443.886Y2590.666
X443.896Y2590.631
X443.905Y2590.595
X443.914Y2590.559
X443.921Y2590.523
X443.928Y2590.487
X443.934Y2590.451
X443.939Y2590.414
X443.943Y2590.378
X443.946Y2590.341
X443.948Y2590.304
X443.95Y2590.267
X443.95Y2590.23
Y2524.53
X443.95Y2524.494
X443.948Y2524.457
X443.946Y2524.42
X443.943Y2524.383
X443.939Y2524.347
X443.934Y2524.31
X443.928Y2524.274
X443.921Y2524.238
X443.914Y2524.202
X443.905Y2524.166
X443.896Y2524.13
X443.886Y2524.095
X443.874Y2524.06
X443.862Y2524.025
X443.85Y2523.991
X443.836Y2523.956
X443.821Y2523.922
X443.806Y2523.889
X443.79Y2523.856
X443.773Y2523.823
X443.755Y2523.791
X443.737Y2523.759
X443.717Y2523.728
X443.697Y2523.697
X443.677Y2523.667
X443.655Y2523.637
X443.633Y2523.607
X443.61Y2523.579
X443.586Y2523.551
X443.562Y2523.523
X443.537Y2523.496
X443.511Y2523.47
X443.484Y2523.444
X443.458Y2523.419
X443.43Y2523.395
X443.402Y2523.371
X443.373Y2523.348
X443.344Y2523.326
X443.314Y2523.304
X443.284Y2523.283
X443.253Y2523.263
X443.221Y2523.244
X443.19Y2523.225
X443.157Y2523.207
X443.125Y2523.19
X443.092Y2523.175
X443.058Y2523.159
X443.024Y2523.144
X442.99Y2523.131
X442.956Y2523.118
X442.921Y2523.106
X442.886Y2523.095
X442.85Y2523.085
X442.815Y2523.075
X442.779Y2523.067
X442.743Y2523.059
X442.707Y2523.052
X442.67Y2523.047
X442.634Y2523.042
X442.597Y2523.038
X442.561Y2523.035
X442.524Y2523.032
X442.487Y2523.031
X442.45Y2523.03
X393.95
Y2521.03
X442.45
X442.487Y2521.03
X442.524Y2521.029
X442.561Y2521.026
X442.597Y2521.023
X442.634Y2521.019
X442.67Y2521.014
X442.707Y2521.008
X442.743Y2521.002
X442.779Y2520.994
X442.815Y2520.986
X442.85Y2520.976
X442.886Y2520.966
X442.921Y2520.955
X442.956Y2520.943
X442.99Y2520.93
X443.024Y2520.916
X443.058Y2520.902
X443.092Y2520.886
X443.125Y2520.87
X443.157Y2520.853
X443.19Y2520.836
X443.221Y2520.817
X443.253Y2520.798
X443.284Y2520.778
X443.314Y2520.757
X443.344Y2520.735
X443.373Y2520.713
X443.402Y2520.69
X443.43Y2520.666
X443.458Y2520.642
X443.484Y2520.617
X443.511Y2520.591
X443.537Y2520.565
X443.562Y2520.538
X443.586Y2520.51
X443.61Y2520.482
X443.633Y2520.453
X443.655Y2520.424
X443.677Y2520.394
X443.697Y2520.364
X443.717Y2520.333
X443.737Y2520.302
X443.755Y2520.27
X443.773Y2520.238
X443.79Y2520.205
X443.806Y2520.172
X443.821Y2520.138
X443.836Y2520.105
X443.85Y2520.07
X443.862Y2520.036
X443.874Y2520.001
X443.886Y2519.966
X443.896Y2519.931
X443.905Y2519.895
X443.914Y2519.859
X443.921Y2519.823
X443.928Y2519.787
X443.934Y2519.751
X443.939Y2519.714
X443.943Y2519.678
X443.946Y2519.641
X443.948Y2519.604
X443.95Y2519.567
X443.95Y2519.531
Y2453.83
X443.95Y2453.794
X443.948Y2453.757
X443.946Y2453.72
X443.943Y2453.683
X443.939Y2453.647
X443.934Y2453.61
X443.928Y2453.574
X443.921Y2453.538
X443.914Y2453.502
X443.905Y2453.466
X443.896Y2453.43
X443.886Y2453.395
X443.874Y2453.36
X443.862Y2453.325
X443.85Y2453.291
X443.836Y2453.256
X443.821Y2453.222
X443.806Y2453.189
X443.79Y2453.156
X443.773Y2453.123
X443.755Y2453.091
X443.737Y2453.059
X443.717Y2453.028
X443.697Y2452.997
X443.677Y2452.967
X443.655Y2452.937
X443.633Y2452.908
X443.61Y2452.879
X443.586Y2452.851
X443.562Y2452.823
X443.537Y2452.796
X443.511Y2452.77
X443.484Y2452.744
X443.458Y2452.719
X443.43Y2452.695
X443.402Y2452.671
X443.373Y2452.648
X443.344Y2452.626
X443.314Y2452.604
X443.284Y2452.583
X443.253Y2452.563
X443.221Y2452.544
X443.19Y2452.525
X443.157Y2452.507
X443.125Y2452.491
X443.092Y2452.475
X443.058Y2452.459
X443.024Y2452.445
X442.99Y2452.431
X442.956Y2452.418
X442.921Y2452.406
X442.886Y2452.395
X442.85Y2452.385
X442.815Y2452.375
X442.779Y2452.367
X442.743Y2452.359
X442.707Y2452.353
X442.67Y2452.347
X442.634Y2452.342
X442.597Y2452.338
X442.561Y2452.335
X442.524Y2452.332
X442.487Y2452.331
X442.45Y2452.331
X393.95
Y2450.33
X442.45
X442.487Y2450.33
X442.524Y2450.329
X442.561Y2450.326
X442.597Y2450.323
X442.634Y2450.319
X442.67Y2450.314
X442.707Y2450.309
X442.743Y2450.302
X442.779Y2450.294
X442.815Y2450.286
X442.85Y2450.276
X442.886Y2450.266
X442.921Y2450.255
X442.956Y2450.243
X442.99Y2450.23
X443.024Y2450.217
X443.058Y2450.202
X443.092Y2450.186
X443.125Y2450.17
X443.157Y2450.154
X443.19Y2450.136
X443.221Y2450.117
X443.253Y2450.098
X443.284Y2450.078
X443.314Y2450.057
X443.344Y2450.035
X443.373Y2450.013
X443.402Y2449.99
X443.43Y2449.966
X443.458Y2449.942
X443.484Y2449.917
X443.511Y2449.891
X443.537Y2449.865
X443.562Y2449.838
X443.586Y2449.81
X443.61Y2449.782
X443.633Y2449.754
X443.655Y2449.724
X443.677Y2449.694
X443.697Y2449.664
X443.717Y2449.633
X443.737Y2449.602
X443.755Y2449.57
X443.773Y2449.538
X443.79Y2449.505
X443.806Y2449.472
X443.821Y2449.439
X443.836Y2449.405
X443.85Y2449.37
X443.862Y2449.336
X443.874Y2449.301
X443.886Y2449.266
X443.896Y2449.231
X443.905Y2449.195
X443.914Y2449.159
X443.921Y2449.123
X443.928Y2449.087
X443.934Y2449.051
X443.939Y2449.014
X443.943Y2448.978
X443.946Y2448.941
X443.948Y2448.904
X443.95Y2448.867
X443.95Y2448.831
Y2383.131
X443.95Y2383.094
X443.948Y2383.057
X443.946Y2383.02
X443.943Y2382.983
X443.939Y2382.947
X443.934Y2382.91
X443.928Y2382.874
X443.921Y2382.838
X443.914Y2382.802
X443.905Y2382.766
X443.896Y2382.73
X443.886Y2382.695
X443.874Y2382.66
X443.862Y2382.625
X443.85Y2382.591
X443.836Y2382.556
X443.821Y2382.523
X443.806Y2382.489
X443.79Y2382.456
X443.773Y2382.423
X443.755Y2382.391
X443.737Y2382.359
X443.717Y2382.328
X443.697Y2382.297
X443.677Y2382.267
X443.655Y2382.237
X443.633Y2382.208
X443.61Y2382.179
X443.586Y2382.151
X443.562Y2382.123
X443.537Y2382.096
X443.511Y2382.07
X443.484Y2382.044
X443.458Y2382.019
X443.43Y2381.995
X443.402Y2381.971
X443.373Y2381.948
X443.344Y2381.926
X443.314Y2381.904
X443.284Y2381.883
X443.253Y2381.863
X443.221Y2381.844
X443.19Y2381.825
X443.157Y2381.808
X443.125Y2381.791
X443.092Y2381.775
X443.058Y2381.759
X443.024Y2381.745
X442.99Y2381.731
X442.956Y2381.718
X442.921Y2381.706
X442.886Y2381.695
X442.85Y2381.685
X442.815Y2381.675
X442.779Y2381.667
X442.743Y2381.659
X442.707Y2381.653
X442.67Y2381.647
X442.634Y2381.642
X442.597Y2381.638
X442.561Y2381.635
X442.524Y2381.632
X442.487Y2381.631
X442.45Y2381.631
X393.95
Y2379.63
X442.45
X442.487Y2379.63
X442.524Y2379.629
X442.561Y2379.626
X442.597Y2379.623
X442.634Y2379.619
X442.67Y2379.614
X442.707Y2379.608
X442.743Y2379.602
X442.779Y2379.594
X442.815Y2379.585
X442.85Y2379.576
X442.886Y2379.566
X442.921Y2379.555
X442.956Y2379.543
X442.99Y2379.53
X443.024Y2379.516
X443.058Y2379.502
X443.092Y2379.486
X443.125Y2379.47
X443.157Y2379.453
X443.19Y2379.436
X443.221Y2379.417
X443.253Y2379.398
X443.284Y2379.378
X443.314Y2379.357
X443.344Y2379.335
X443.373Y2379.313
X443.402Y2379.29
X443.43Y2379.266
X443.458Y2379.242
X443.484Y2379.217
X443.511Y2379.191
X443.537Y2379.165
X443.562Y2379.138
X443.586Y2379.11
X443.61Y2379.082
X443.633Y2379.053
X443.655Y2379.024
X443.677Y2378.994
X443.697Y2378.964
X443.717Y2378.933
X443.737Y2378.901
X443.755Y2378.87
X443.773Y2378.838
X443.79Y2378.805
X443.806Y2378.772
X443.821Y2378.738
X443.836Y2378.705
X443.85Y2378.67
X443.862Y2378.636
X443.874Y2378.601
X443.886Y2378.566
X443.896Y2378.53
X443.905Y2378.495
X443.914Y2378.459
X443.921Y2378.423
X443.928Y2378.387
X443.934Y2378.35
X443.939Y2378.314
X443.943Y2378.278
X443.946Y2378.241
X443.948Y2378.204
X443.95Y2378.167
X443.95Y2378.13
Y2312.431
X443.95Y2312.394
X443.948Y2312.357
X443.946Y2312.32
X443.943Y2312.283
X443.939Y2312.247
X443.934Y2312.211
X443.928Y2312.174
X443.921Y2312.138
X443.914Y2312.102
X443.905Y2312.066
X443.896Y2312.031
X443.886Y2311.995
X443.874Y2311.96
X443.862Y2311.925
X443.85Y2311.891
X443.836Y2311.856
X443.821Y2311.823
X443.806Y2311.789
X443.79Y2311.756
X443.773Y2311.723
X443.755Y2311.691
X443.737Y2311.66
X443.717Y2311.628
X443.697Y2311.597
X443.677Y2311.567
X443.655Y2311.537
X443.633Y2311.508
X443.61Y2311.479
X443.586Y2311.451
X443.562Y2311.423
X443.537Y2311.396
X443.511Y2311.37
X443.484Y2311.344
X443.458Y2311.319
X443.43Y2311.295
X443.402Y2311.271
X443.373Y2311.248
X443.344Y2311.226
X443.314Y2311.204
X443.284Y2311.183
X443.253Y2311.163
X443.221Y2311.144
X443.19Y2311.125
X443.157Y2311.108
X443.125Y2311.091
X443.092Y2311.075
X443.058Y2311.059
X443.024Y2311.045
X442.99Y2311.031
X442.956Y2311.018
X442.921Y2311.006
X442.886Y2310.995
X442.85Y2310.985
X442.815Y2310.976
X442.779Y2310.967
X442.743Y2310.959
X442.707Y2310.953
X442.67Y2310.947
X442.634Y2310.942
X442.597Y2310.938
X442.561Y2310.935
X442.524Y2310.932
X442.487Y2310.931
X442.45Y2310.931
X393.95
Y2308.93
X442.45
X442.487Y2308.93
X442.524Y2308.929
X442.561Y2308.926
X442.597Y2308.923
X442.634Y2308.919
X442.67Y2308.914
X442.707Y2308.908
X442.743Y2308.902
X442.779Y2308.894
X442.815Y2308.886
X442.85Y2308.876
X442.886Y2308.866
X442.921Y2308.855
X442.956Y2308.843
X442.99Y2308.83
X443.024Y2308.816
X443.058Y2308.802
X443.092Y2308.786
X443.125Y2308.77
X443.157Y2308.753
X443.19Y2308.736
X443.221Y2308.717
X443.253Y2308.698
X443.284Y2308.678
X443.314Y2308.657
X443.344Y2308.635
X443.373Y2308.613
X443.402Y2308.59
X443.43Y2308.566
X443.458Y2308.542
X443.484Y2308.517
X443.511Y2308.491
X443.537Y2308.465
X443.562Y2308.438
X443.586Y2308.41
X443.61Y2308.382
X443.633Y2308.353
X443.655Y2308.324
X443.677Y2308.294
X443.697Y2308.264
X443.717Y2308.233
X443.737Y2308.202
X443.755Y2308.17
X443.773Y2308.138
X443.79Y2308.105
X443.806Y2308.072
X443.821Y2308.038
X443.836Y2308.005
X443.85Y2307.97
X443.862Y2307.936
X443.874Y2307.901
X443.886Y2307.866
X443.896Y2307.831
X443.905Y2307.795
X443.914Y2307.759
X443.921Y2307.723
X443.928Y2307.687
X443.934Y2307.651
X443.939Y2307.614
