(Created with grbl post processor 2023/07/30 18:26)
G21
(G-code generated with BlenderCAM and NC library)
G17G90
S12000M03
G00 Z10.0

G0X0Y0Z10
Y3.5
G1Z-5F500
X-0.036Y3.5F1000
X-0.073Y3.501
X-0.11Y3.504
X-0.147Y3.507
X-0.183Y3.511
X-0.22Y3.516
X-0.256Y3.522
X-0.292Y3.528
X-0.328Y3.536
X-0.364Y3.544
X-0.4Y3.554
X-0.435Y3.564
X-0.47Y3.575
X-0.505Y3.587
X-0.539Y3.6
X-0.574Y3.614
X-0.607Y3.628
X-0.641Y3.644
X-0.674Y3.66
X-0.707Y3.677
X-0.739Y3.694
X-0.771Y3.713
X-0.802Y3.732
X-0.833Y3.752
X-0.863Y3.773
X-0.893Y3.795
X-0.922Y3.817
X-0.951Y3.84
X-0.979Y3.864
X-1.007Y3.888
X-1.034Y3.913
X-1.06Y3.939
X-1.086Y3.965
X-1.111Y3.992
X-1.135Y4.02
X-1.159Y4.048
X-1.182Y4.077
X-1.204Y4.106
X-1.226Y4.136
X-1.247Y4.166
X-1.267Y4.197
X-1.286Y4.228
X-1.305Y4.26
X-1.322Y4.292
X-1.339Y4.325
X-1.355Y4.358
X-1.371Y4.392
X-1.385Y4.425
X-1.399Y4.46
X-1.412Y4.494
X-1.424Y4.529
X-1.435Y4.564
X-1.445Y4.599
X-1.455Y4.635
X-1.463Y4.671
X-1.471Y4.707
X-1.477Y4.743
X-1.483Y4.779
X-1.488Y4.816
X-1.492Y4.852
X-1.495Y4.889
X-1.498Y4.926
X-1.499Y4.963
X-1.5Y5
Y495
X-1.499Y495.036
X-1.498Y495.073
X-1.495Y495.11
X-1.492Y495.147
X-1.488Y495.183
X-1.483Y495.22
X-1.477Y495.256
X-1.471Y495.292
X-1.463Y495.328
X-1.455Y495.364
X-1.445Y495.4
X-1.435Y495.435
X-1.424Y495.47
X-1.412Y495.505
X-1.399Y495.539
X-1.385Y495.574
X-1.371Y495.607
X-1.355Y495.641
X-1.339Y495.674
X-1.322Y495.707
X-1.305Y495.739
X-1.286Y495.771
X-1.267Y495.802
X-1.247Y495.833
X-1.226Y495.863
X-1.204Y495.893
X-1.182Y495.922
X-1.159Y495.951
X-1.135Y495.979
X-1.111Y496.007
X-1.086Y496.034
X-1.06Y496.06
X-1.034Y496.086
X-1.007Y496.111
X-0.979Y496.135
X-0.951Y496.159
X-0.922Y496.182
X-0.893Y496.204
X-0.863Y496.226
X-0.833Y496.247
X-0.802Y496.267
X-0.771Y496.286
X-0.739Y496.305
X-0.707Y496.322
X-0.674Y496.339
X-0.641Y496.355
X-0.607Y496.371
X-0.574Y496.385
X-0.539Y496.399
X-0.505Y496.412
X-0.47Y496.424
X-0.435Y496.435
X-0.4Y496.445
X-0.364Y496.455
X-0.328Y496.463
X-0.292Y496.471
X-0.256Y496.477
X-0.22Y496.483
X-0.183Y496.488
X-0.147Y496.492
X-0.11Y496.495
X-0.073Y496.498
X-0.036Y496.499
X0Y496.5
X13.499
Y500
X13.5Y500.036
X13.501Y500.073
X13.504Y500.11
X13.507Y500.147
X13.511Y500.183
X13.516Y500.22
X13.522Y500.256
X13.528Y500.292
X13.536Y500.328
X13.544Y500.364
X13.554Y500.4
X13.564Y500.435
X13.575Y500.47
X13.587Y500.505
X13.6Y500.539
X13.614Y500.574
X13.628Y500.607
X13.644Y500.641
X13.66Y500.674
X13.677Y500.707
X13.694Y500.739
X13.713Y500.771
X13.732Y500.802
X13.752Y500.833
X13.773Y500.863
X13.795Y500.893
X13.817Y500.922
X13.84Y500.951
X13.864Y500.979
X13.888Y501.007
X13.913Y501.034
X13.939Y501.06
X13.965Y501.086
X13.992Y501.111
X14.02Y501.135
X14.048Y501.159
X14.077Y501.182
X14.106Y501.204
X14.136Y501.226
X14.166Y501.247
X14.197Y501.267
X14.228Y501.286
X14.26Y501.305
X14.292Y501.322
X14.325Y501.339
X14.358Y501.356
X14.392Y501.371
X14.425Y501.385
X14.46Y501.399
X14.494Y501.412
X14.529Y501.424
X14.564Y501.435
X14.599Y501.445
X14.635Y501.455
X14.671Y501.463
X14.707Y501.471
X14.743Y501.477
X14.779Y501.483
X14.816Y501.488
X14.852Y501.492
X14.889Y501.495
X14.926Y501.498
X14.963Y501.499
X15Y501.5
X24.999
X25.036Y501.499
X25.073Y501.498
X25.11Y501.495
X25.147Y501.492
X25.183Y501.488
X25.22Y501.483
X25.256Y501.477
X25.292Y501.471
X25.328Y501.463
X25.364Y501.455
X25.4Y501.445
X25.435Y501.435
X25.47Y501.424
X25.505Y501.412
X25.539Y501.399
X25.574Y501.385
X25.607Y501.371
X25.641Y501.356
X25.674Y501.339
X25.707Y501.322
X25.739Y501.305
X25.771Y501.286
X25.802Y501.267
X25.833Y501.247
X25.863Y501.226
X25.893Y501.204
X25.922Y501.182
X25.951Y501.159
X25.979Y501.135
X26.007Y501.111
X26.034Y501.086
X26.06Y501.06
X26.086Y501.034
X26.111Y501.007
X26.135Y500.979
X26.159Y500.951
X26.182Y500.922
X26.204Y500.893
X26.226Y500.863
X26.247Y500.833
X26.267Y500.802
X26.286Y500.771
X26.305Y500.739
X26.322Y500.707
X26.339Y500.674
X26.355Y500.641
X26.371Y500.607
X26.385Y500.574
X26.399Y500.539
X26.412Y500.505
X26.424Y500.47
X26.435Y500.435
X26.445Y500.4
X26.455Y500.364
X26.463Y500.328
X26.471Y500.292
X26.477Y500.256
X26.483Y500.22
X26.488Y500.183
X26.492Y500.147
X26.495Y500.11
X26.498Y500.073
X26.499Y500.036
X26.499Y500
Y496.5
X73.5
Y500
X73.5Y500.036
X73.501Y500.073
X73.504Y500.11
X73.507Y500.147
X73.511Y500.183
X73.516Y500.22
X73.522Y500.256
X73.528Y500.292
X73.536Y500.328
X73.544Y500.364
X73.554Y500.4
X73.564Y500.435
X73.575Y500.47
X73.587Y500.505
X73.6Y500.539
X73.614Y500.574
X73.628Y500.607
X73.644Y500.641
X73.66Y500.674
X73.677Y500.707
X73.694Y500.739
X73.713Y500.771
X73.732Y500.802
X73.752Y500.833
X73.773Y500.863
X73.795Y500.893
X73.817Y500.922
X73.84Y500.951
X73.864Y500.979
X73.888Y501.007
X73.913Y501.034
X73.939Y501.06
X73.965Y501.086
X73.992Y501.111
X74.02Y501.135
X74.048Y501.159
X74.077Y501.182
X74.106Y501.204
X74.136Y501.226
X74.166Y501.247
X74.197Y501.267
X74.228Y501.286
X74.26Y501.305
X74.292Y501.322
X74.325Y501.339
X74.358Y501.356
X74.392Y501.371
X74.425Y501.385
X74.46Y501.399
X74.494Y501.412
X74.529Y501.424
X74.564Y501.435
X74.599Y501.445
X74.635Y501.455
X74.671Y501.463
X74.707Y501.471
X74.743Y501.477
X74.779Y501.483
X74.816Y501.488
X74.852Y501.492
X74.889Y501.495
X74.926Y501.498
X74.963Y501.499
X75Y501.5
X85
X85.036Y501.499
X85.073Y501.498
X85.11Y501.495
X85.147Y501.492
X85.183Y501.488
X85.22Y501.483
X85.256Y501.477
X85.292Y501.471
X85.328Y501.463
X85.364Y501.455
X85.4Y501.445
X85.435Y501.435
X85.47Y501.424
X85.505Y501.412
X85.539Y501.399
X85.574Y501.385
X85.607Y501.371
X85.641Y501.356
X85.674Y501.339
X85.707Y501.322
X85.739Y501.305
X85.771Y501.286
X85.802Y501.267
X85.833Y501.247
X85.863Y501.226
X85.893Y501.204
X85.922Y501.182
X85.951Y501.159
X85.979Y501.135
X86.007Y501.111
X86.034Y501.086
X86.06Y501.06
X86.086Y501.034
X86.111Y501.007
X86.135Y500.979
X86.159Y500.951
X86.182Y500.922
X86.204Y500.893
X86.226Y500.863
X86.247Y500.833
X86.267Y500.802
X86.286Y500.771
X86.305Y500.739
X86.322Y500.707
X86.339Y500.674
X86.355Y500.641
X86.371Y500.607
X86.385Y500.574
X86.399Y500.539
X86.412Y500.505
X86.424Y500.47
X86.435Y500.435
X86.445Y500.4
X86.455Y500.364
X86.463Y500.328
X86.471Y500.292
X86.477Y500.256
X86.483Y500.22
X86.488Y500.183
X86.492Y500.147
X86.495Y500.11
X86.498Y500.073
X86.499Y500.036
X86.5Y500
Y496.5
X100
X100.036Y496.499
X100.073Y496.498
X100.11Y496.495
X100.147Y496.492
X100.183Y496.488
X100.22Y496.483
X100.256Y496.477
X100.292Y496.471
X100.328Y496.463
X100.364Y496.455
X100.4Y496.445
X100.435Y496.435
X100.47Y496.424
X100.505Y496.412
X100.539Y496.399
X100.574Y496.385
X100.607Y496.371
X100.641Y496.355
X100.674Y496.339
X100.707Y496.322
X100.739Y496.305
X100.771Y496.286
X100.802Y496.267
X100.833Y496.247
X100.863Y496.226
X100.893Y496.204
X100.922Y496.182
X100.951Y496.159
X100.979Y496.135
X101.007Y496.111
X101.034Y496.086
X101.06Y496.06
X101.086Y496.034
X101.111Y496.007
X101.135Y495.979
X101.159Y495.951
X101.182Y495.922
X101.204Y495.893
X101.226Y495.863
X101.247Y495.833
X101.267Y495.802
X101.286Y495.771
X101.305Y495.739
X101.322Y495.707
X101.339Y495.674
X101.355Y495.641
X101.371Y495.607
X101.385Y495.574
X101.399Y495.539
X101.412Y495.505
X101.424Y495.47
X101.435Y495.435
X101.445Y495.4
X101.455Y495.364
X101.463Y495.328
X101.471Y495.292
X101.477Y495.256
X101.483Y495.22
X101.488Y495.183
X101.492Y495.147
X101.495Y495.11
X101.498Y495.073
X101.499Y495.036
X101.5Y495
Y422.814
X101.499Y422.777
X101.498Y422.74
X101.495Y422.703
X101.492Y422.667
X101.488Y422.63
X101.483Y422.594
X101.477Y422.557
X101.471Y422.521
X101.463Y422.485
X101.455Y422.449
X101.445Y422.414
X101.435Y422.378
X101.424Y422.343
X101.412Y422.308
X101.399Y422.274
X101.385Y422.24
X101.371Y422.206
X101.355Y422.172
X101.339Y422.139
X101.322Y422.107
X101.305Y422.074
X101.286Y422.043
X101.267Y422.011
X101.247Y421.98
X101.226Y421.95
X101.204Y421.92
X101.182Y421.891
X101.159Y421.862
X101.135Y421.834
X101.111Y421.806
X101.086Y421.779
X101.06Y421.753
X101.034Y421.727
X101.007Y421.702
X100.979Y421.678
X100.951Y421.654
X100.922Y421.631
X100.893Y421.609
X100.863Y421.587
X100.833Y421.567
X100.802Y421.546
X100.771Y421.527
X100.739Y421.509
X100.707Y421.491
X100.674Y421.474
X100.641Y421.458
X100.607Y421.442
X100.574Y421.428
X100.539Y421.414
X100.505Y421.401
X100.47Y421.389
X100.435Y421.378
X100.4Y421.368
X100.364Y421.359
X100.328Y421.35
X100.292Y421.343
X100.256Y421.336
X100.22Y421.33
X100.183Y421.325
X100.147Y421.321
X100.11Y421.318
X100.073Y421.316
X100.036Y421.314
X100Y421.314
X51.5
Y419.314
X100
X100.036Y419.313
X100.073Y419.312
X100.11Y419.31
X100.147Y419.307
X100.183Y419.303
X100.22Y419.298
X100.256Y419.292
X100.292Y419.285
X100.328Y419.277
X100.364Y419.269
X100.4Y419.259
X100.435Y419.249
X100.47Y419.238
X100.505Y419.226
X100.539Y419.213
X100.574Y419.2
X100.607Y419.185
X100.641Y419.17
X100.674Y419.154
X100.707Y419.137
X100.739Y419.119
X100.771Y419.1
X100.802Y419.081
X100.833Y419.061
X100.863Y419.04
X100.893Y419.019
X100.922Y418.996
X100.951Y418.973
X100.979Y418.95
X101.007Y418.925
X101.034Y418.9
X101.06Y418.874
X101.086Y418.848
X101.111Y418.821
X101.135Y418.794
X101.159Y418.765
X101.182Y418.737
X101.204Y418.707
X101.226Y418.677
X101.247Y418.647
X101.267Y418.616
X101.286Y418.585
X101.305Y418.553
X101.322Y418.521
X101.339Y418.488
X101.355Y418.455
X101.371Y418.422
X101.385Y418.388
X101.399Y418.354
X101.412Y418.319
X101.424Y418.284
X101.435Y418.249
X101.445Y418.214
X101.455Y418.178
X101.463Y418.142
X101.471Y418.106
X101.477Y418.07
X101.483Y418.034
X101.488Y417.997
X101.492Y417.961
X101.495Y417.924
X101.498Y417.887
X101.499Y417.851
X101.5Y417.814
Y350.628
X101.499Y350.591
X101.498Y350.554
X101.495Y350.518
X101.492Y350.481
X101.488Y350.444
X101.483Y350.408
X101.477Y350.372
X101.471Y350.335
X101.463Y350.299
X101.455Y350.264
X101.445Y350.228
X101.435Y350.193
X101.424Y350.158
X101.412Y350.123
X101.399Y350.088
X101.385Y350.054
X101.371Y350.02
X101.355Y349.987
X101.339Y349.954
X101.322Y349.921
X101.305Y349.889
X101.286Y349.857
X101.267Y349.826
X101.247Y349.795
X101.226Y349.764
X101.204Y349.735
X101.182Y349.705
X101.159Y349.676
X101.135Y349.648
X101.111Y349.621
X101.086Y349.594
X101.06Y349.567
X101.034Y349.542
X101.007Y349.517
X100.979Y349.492
X100.951Y349.469
X100.922Y349.446
X100.893Y349.423
X100.863Y349.402
X100.833Y349.381
X100.802Y349.361
X100.771Y349.341
X100.739Y349.323
X100.707Y349.305
X100.674Y349.288
X100.641Y349.272
X100.607Y349.257
X100.574Y349.242
X100.539Y349.229
X100.505Y349.216
X100.47Y349.204
X100.435Y349.193
X100.4Y349.182
X100.364Y349.173
X100.328Y349.165
X100.292Y349.157
X100.256Y349.15
X100.22Y349.144
X100.183Y349.139
X100.147Y349.135
X100.11Y349.132
X100.073Y349.13
X100.036Y349.129
X100Y349.128
X51.5
Y347.128
X100
X100.036Y347.128
X100.073Y347.126
X100.11Y347.124
X100.147Y347.121
X100.183Y347.117
X100.22Y347.112
X100.256Y347.106
X100.292Y347.099
X100.328Y347.092
X100.364Y347.083
X100.4Y347.074
X100.435Y347.063
X100.47Y347.052
X100.505Y347.04
X100.539Y347.028
X100.574Y347.014
X100.607Y346.999
X100.641Y346.984
X100.674Y346.968
X100.707Y346.951
X100.739Y346.933
X100.771Y346.915
X100.802Y346.895
X100.833Y346.875
X100.863Y346.854
X100.893Y346.833
X100.922Y346.811
X100.951Y346.788
X100.979Y346.764
X101.007Y346.739
X101.034Y346.714
X101.06Y346.689
X101.086Y346.662
X101.111Y346.635
X101.135Y346.608
X101.159Y346.58
X101.182Y346.551
X101.204Y346.522
X101.226Y346.492
X101.247Y346.461
X101.267Y346.431
X101.286Y346.399
X101.305Y346.367
X101.322Y346.335
X101.339Y346.302
X101.355Y346.269
X101.371Y346.236
X101.385Y346.202
X101.399Y346.168
X101.412Y346.133
X101.424Y346.099
X101.435Y346.064
X101.445Y346.028
X101.455Y345.993
X101.463Y345.957
X101.471Y345.921
X101.477Y345.885
X101.483Y345.848
X101.488Y345.812
X101.492Y345.775
X101.495Y345.738
X101.498Y345.702
X101.499Y345.665
X101.5Y345.628
Y278.442
X101.499Y278.406
X101.498Y278.369
X101.495Y278.332
X101.492Y278.295
X101.488Y278.259
X101.483Y278.222
X101.477Y278.186
X101.471Y278.15
X101.463Y278.114
X101.455Y278.078
X101.445Y278.042
X101.435Y278.007
X101.424Y277.972
X101.412Y277.937
X101.399Y277.903
X101.385Y277.868
X101.371Y277.835
X101.355Y277.801
X101.339Y277.768
X101.322Y277.735
X101.305Y277.703
X101.286Y277.671
X101.267Y277.64
X101.247Y277.609
X101.226Y277.579
X101.204Y277.549
X101.182Y277.52
X101.159Y277.491
X101.135Y277.463
X101.111Y277.435
X101.086Y277.408
X101.06Y277.382
X101.034Y277.356
X101.007Y277.331
X100.979Y277.307
X100.951Y277.283
X100.922Y277.26
X100.893Y277.238
X100.863Y277.216
X100.833Y277.195
X100.802Y277.175
X100.771Y277.156
X100.739Y277.137
X100.707Y277.119
X100.674Y277.103
X100.641Y277.086
X100.607Y277.071
X100.574Y277.057
X100.539Y277.043
X100.505Y277.03
X100.47Y277.018
X100.435Y277.007
X100.4Y276.997
X100.364Y276.987
X100.328Y276.979
X100.292Y276.971
X100.256Y276.964
X100.22Y276.959
X100.183Y276.954
X100.147Y276.95
X100.11Y276.946
X100.073Y276.944
X100.036Y276.943
X100Y276.942
X51.5
Y274.942
X100
X100.036Y274.942
X100.073Y274.941
X100.11Y274.938
X100.147Y274.935
X100.183Y274.931
X100.22Y274.926
X100.256Y274.92
X100.292Y274.914
X100.328Y274.906
X100.364Y274.897
X100.4Y274.888
X100.435Y274.878
X100.47Y274.867
X100.505Y274.855
X100.539Y274.842
X100.574Y274.828
X100.607Y274.814
X100.641Y274.798
X100.674Y274.782
X100.707Y274.765
X100.739Y274.747
X100.771Y274.729
X100.802Y274.71
X100.833Y274.69
X100.863Y274.669
X100.893Y274.647
X100.922Y274.625
X100.951Y274.602
X100.979Y274.578
X101.007Y274.554
X101.034Y274.529
X101.06Y274.503
X101.086Y274.477
X101.111Y274.45
X101.135Y274.422
X101.159Y274.394
X101.182Y274.365
X101.204Y274.336
X101.226Y274.306
X101.247Y274.276
X101.267Y274.245
X101.286Y274.214
X101.305Y274.182
X101.322Y274.149
X101.339Y274.117
X101.355Y274.084
X101.371Y274.05
X101.385Y274.016
X101.399Y273.982
X101.412Y273.948
X101.424Y273.913
X101.435Y273.878
X101.445Y273.842
X101.455Y273.807
X101.463Y273.771
X101.471Y273.735
X101.477Y273.699
X101.483Y273.662
X101.488Y273.626
X101.492Y273.589
X101.495Y273.553
X101.498Y273.516
X101.499Y273.479
X101.5Y273.442
Y206.257
X101.499Y206.22
X101.498Y206.183
X101.495Y206.146
X101.492Y206.11
X101.488Y206.073
X101.483Y206.037
X101.477Y206
X101.471Y205.964
X101.463Y205.928
X101.455Y205.892
X101.445Y205.857
X101.435Y205.821
X101.424Y205.786
X101.412Y205.751
X101.399Y205.717
X101.385Y205.683
X101.371Y205.649
X101.355Y205.615
X101.339Y205.582
X101.322Y205.55
X101.305Y205.517
X101.286Y205.485
X101.267Y205.454
X101.247Y205.423
X101.226Y205.393
X101.204Y205.363
X101.182Y205.334
X101.159Y205.305
X101.135Y205.277
X101.111Y205.249
X101.086Y205.222
X101.06Y205.196
X101.034Y205.17
X101.007Y205.145
X100.979Y205.121
X100.951Y205.097
X100.922Y205.074
X100.893Y205.052
X100.863Y205.03
X100.833Y205.009
X100.802Y204.989
X100.771Y204.97
X100.739Y204.952
X100.707Y204.934
X100.674Y204.917
X100.641Y204.901
X100.607Y204.885
X100.574Y204.871
X100.539Y204.857
X100.505Y204.844
X100.47Y204.832
X100.435Y204.821
X100.4Y204.811
X100.364Y204.802
X100.328Y204.793
X100.292Y204.785
X100.256Y204.779
X100.22Y204.773
X100.183Y204.768
X100.147Y204.764
X100.11Y204.761
X100.073Y204.758
X100.036Y204.757
X100Y204.757
X51.5
Y202.757
X100
X100.036Y202.756
X100.073Y202.755
X100.11Y202.753
X100.147Y202.749
X100.183Y202.745
X100.22Y202.74
X100.256Y202.735
X100.292Y202.728
X100.328Y202.72
X100.364Y202.712
X100.4Y202.702
X100.435Y202.692
X100.47Y202.681
X100.505Y202.669
X100.539Y202.656
X100.574Y202.642
X100.607Y202.628
X100.641Y202.613
X100.674Y202.596
X100.707Y202.58
X100.739Y202.562
X100.771Y202.543
X100.802Y202.524
X100.833Y202.504
X100.863Y202.483
X100.893Y202.461
X100.922Y202.439
X100.951Y202.416
X100.979Y202.392
X101.007Y202.368
X101.034Y202.343
X101.06Y202.317
X101.086Y202.291
X101.111Y202.264
X101.135Y202.236
X101.159Y202.208
X101.182Y202.179
X101.204Y202.15
X101.226Y202.12
X101.247Y202.09
X101.267Y202.059
X101.286Y202.028
X101.305Y201.996
X101.322Y201.964
X101.339Y201.931
X101.355Y201.898
X101.371Y201.865
X101.385Y201.831
X101.399Y201.796
X101.412Y201.762
X101.424Y201.727
X101.435Y201.692
X101.445Y201.657
X101.455Y201.621
X101.463Y201.585
X101.471Y201.549
X101.477Y201.513
X101.483Y201.477
X101.488Y201.44
X101.492Y201.404
X101.495Y201.367
X101.498Y201.33
X101.499Y201.293
X101.5Y201.257
Y134.071
X101.499Y134.034
X101.498Y133.997
X101.495Y133.961
X101.492Y133.924
X101.488Y133.887
X101.483Y133.851
X101.477Y133.814
X101.471Y133.778
X101.463Y133.742
X101.455Y133.706
X101.445Y133.671
X101.435Y133.635
X101.424Y133.6
X101.412Y133.566
X101.399Y133.531
X101.385Y133.497
X101.371Y133.463
X101.355Y133.43
X101.339Y133.397
X101.322Y133.364
X101.305Y133.332
X101.286Y133.3
X101.267Y133.268
X101.247Y133.238
X101.226Y133.207
X101.204Y133.177
X101.182Y133.148
X101.159Y133.119
X101.135Y133.091
X101.111Y133.064
X101.086Y133.037
X101.06Y133.01
X101.034Y132.985
X101.007Y132.959
X100.979Y132.935
X100.951Y132.911
X100.922Y132.888
X100.893Y132.866
X100.863Y132.845
X100.833Y132.824
X100.802Y132.804
X100.771Y132.784
X100.739Y132.766
X100.707Y132.748
X100.674Y132.731
X100.641Y132.715
X100.607Y132.7
X100.574Y132.685
X100.539Y132.671
X100.505Y132.659
X100.47Y132.647
X100.435Y132.636
X100.4Y132.625
X100.364Y132.616
X100.328Y132.607
X100.292Y132.6
X100.256Y132.593
X100.22Y132.587
X100.183Y132.582
X100.147Y132.578
X100.11Y132.575
X100.073Y132.573
X100.036Y132.571
X100Y132.571
X51.5
Y130.571
X100
X100.036Y130.57
X100.073Y130.569
X100.11Y130.567
X100.147Y130.564
X100.183Y130.56
X100.22Y130.555
X100.256Y130.549
X100.292Y130.542
X100.328Y130.534
X100.364Y130.526
X100.4Y130.517
X100.435Y130.506
X100.47Y130.495
X100.505Y130.483
X100.539Y130.47
X100.574Y130.457
X100.607Y130.442
X100.641Y130.427
X100.674Y130.411
X100.707Y130.394
X100.739Y130.376
X100.771Y130.358
X100.802Y130.338
X100.833Y130.318
X100.863Y130.297
X100.893Y130.276
X100.922Y130.253
X100.951Y130.23
X100.979Y130.207
X101.007Y130.182
X101.034Y130.157
X101.06Y130.132
X101.086Y130.105
X101.111Y130.078
X101.135Y130.051
X101.159Y130.023
X101.182Y129.994
X101.204Y129.964
X101.226Y129.935
X101.247Y129.904
X101.267Y129.873
X101.286Y129.842
X101.305Y129.81
X101.322Y129.778
X101.339Y129.745
X101.355Y129.712
X101.371Y129.679
X101.385Y129.645
X101.399Y129.611
X101.412Y129.576
X101.424Y129.541
X101.435Y129.506
X101.445Y129.471
X101.455Y129.435
X101.463Y129.4
X101.471Y129.364
X101.477Y129.327
X101.483Y129.291
X101.488Y129.255
X101.492Y129.218
X101.495Y129.181
X101.498Y129.145
X101.499Y129.108
X101.5Y129.071
Y61.885
X101.499Y61.848
X101.498Y61.812
X101.495Y61.775
X101.492Y61.738
X101.488Y61.702
X101.483Y61.665
X101.477Y61.629
X101.471Y61.593
X101.463Y61.557
X101.455Y61.521
X101.445Y61.485
X101.435Y61.45
X101.424Y61.415
X101.412Y61.38
X101.399Y61.345
X101.385Y61.311
X101.371Y61.277
X101.355Y61.244
X101.339Y61.211
X101.322Y61.178
X101.305Y61.146
X101.286Y61.114
X101.267Y61.083
X101.247Y61.052
X101.226Y61.022
X101.204Y60.992
X101.182Y60.962
X101.159Y60.934
X101.135Y60.905
X101.111Y60.878
X101.086Y60.851
X101.06Y60.825
X101.034Y60.799
X101.007Y60.774
X100.979Y60.749
X100.951Y60.726
X100.922Y60.703
X100.893Y60.68
X100.863Y60.659
X100.833Y60.638
X100.802Y60.618
X100.771Y60.599
X100.739Y60.58
X100.707Y60.562
X100.674Y60.545
X100.641Y60.529
X100.607Y60.514
X100.574Y60.499
X100.539Y60.486
X100.505Y60.473
X100.47Y60.461
X100.435Y60.45
X100.4Y60.44
X100.364Y60.43
X100.328Y60.422
X100.292Y60.414
X100.256Y60.407
X100.22Y60.401
X100.183Y60.396
X100.147Y60.392
X100.11Y60.389
X100.073Y60.387
X100.036Y60.386
X100Y60.385
X51.5
Y58.385
X100
X100.036Y58.385
X100.073Y58.383
X100.11Y58.381
X100.147Y58.378
X100.183Y58.374
X100.22Y58.369
X100.256Y58.363
X100.292Y58.356
X100.328Y58.349
X100.364Y58.34
X100.4Y58.331
X100.435Y58.321
X100.47Y58.31
X100.505Y58.298
X100.539Y58.285
X100.574Y58.271
X100.607Y58.257
X100.641Y58.241
X100.674Y58.225
X100.707Y58.208
X100.739Y58.19
X100.771Y58.172
X100.802Y58.152
X100.833Y58.132
X100.863Y58.112
X100.893Y58.09
X100.922Y58.068
X100.951Y58.045
X100.979Y58.021
X101.007Y57.997
X101.034Y57.972
X101.06Y57.946
X101.086Y57.92
X101.111Y57.893
X101.135Y57.865
X101.159Y57.837
X101.182Y57.808
X101.204Y57.779
X101.226Y57.749
X101.247Y57.719
X101.267Y57.688
X101.286Y57.656
X101.305Y57.625
X101.322Y57.592
X101.339Y57.56
X101.355Y57.527
X101.371Y57.493
X101.385Y57.459
X101.399Y57.425
X101.412Y57.391
X101.424Y57.356
X101.435Y57.321
X101.445Y57.285
X101.455Y57.25
X101.463Y57.214
X101.471Y57.178
X101.477Y57.142
X101.483Y57.105
X101.488Y57.069
X101.492Y57.032
X101.495Y56.996
X101.498Y56.959
X101.499Y56.922
X101.5Y56.885
Y5
X101.499Y4.963
X101.498Y4.926
X101.495Y4.889
X101.492Y4.852
X101.488Y4.816
X101.483Y4.779
X101.477Y4.743
X101.471Y4.707
X101.463Y4.671
X101.455Y4.635
X101.445Y4.599
X101.435Y4.564
X101.424Y4.529
X101.412Y4.494
X101.399Y4.46
X101.385Y4.425
X101.371Y4.392
X101.355Y4.358
X101.339Y4.325
X101.322Y4.292
X101.305Y4.26
X101.286Y4.228
X101.267Y4.197
X101.247Y4.166
X101.226Y4.136
X101.204Y4.106
X101.182Y4.077
X101.159Y4.048
X101.135Y4.02
X101.111Y3.992
X101.086Y3.965
X101.06Y3.939
X101.034Y3.913
X101.007Y3.888
X100.979Y3.864
X100.951Y3.84
X100.922Y3.817
X100.893Y3.795
X100.863Y3.773
X100.833Y3.752
X100.802Y3.732
X100.771Y3.713
X100.739Y3.694
X100.707Y3.677
X100.674Y3.66
X100.641Y3.644
X100.607Y3.628
X100.574Y3.614
X100.539Y3.6
X100.505Y3.587
X100.47Y3.575
X100.435Y3.564
X100.4Y3.554
X100.364Y3.544
X100.328Y3.536
X100.292Y3.528
X100.256Y3.522
X100.22Y3.516
X100.183Y3.511
X100.147Y3.507
X100.11Y3.504
X100.073Y3.501
X100.036Y3.5
X100Y3.5
X86.5
Y0
X86.499Y-0.036
X86.498Y-0.073
X86.495Y-0.11
X86.492Y-0.147
X86.488Y-0.183
X86.483Y-0.22
X86.477Y-0.256
X86.471Y-0.292
X86.463Y-0.328
X86.455Y-0.364
X86.445Y-0.4
X86.435Y-0.435
X86.424Y-0.47
X86.412Y-0.505
X86.399Y-0.539
X86.385Y-0.574
X86.371Y-0.607
X86.355Y-0.641
X86.339Y-0.674
X86.322Y-0.707
X86.305Y-0.739
X86.286Y-0.771
X86.267Y-0.802
X86.247Y-0.833
X86.226Y-0.863
X86.204Y-0.893
X86.182Y-0.922
X86.159Y-0.951
X86.135Y-0.979
X86.111Y-1.007
X86.086Y-1.034
X86.06Y-1.06
X86.034Y-1.086
X86.007Y-1.111
X85.979Y-1.135
X85.951Y-1.159
X85.922Y-1.182
X85.893Y-1.204
X85.863Y-1.226
X85.833Y-1.247
X85.802Y-1.267
X85.771Y-1.286
X85.739Y-1.305
X85.707Y-1.322
X85.674Y-1.339
X85.641Y-1.355
X85.607Y-1.371
X85.574Y-1.385
X85.539Y-1.399
X85.505Y-1.412
X85.47Y-1.424
X85.435Y-1.435
X85.4Y-1.445
X85.364Y-1.455
X85.328Y-1.463
X85.292Y-1.471
X85.256Y-1.477
X85.22Y-1.483
X85.183Y-1.488
X85.147Y-1.492
X85.11Y-1.495
X85.073Y-1.498
X85.036Y-1.499
X85Y-1.5
X75
X74.963Y-1.499
X74.926Y-1.498
X74.889Y-1.495
X74.852Y-1.492
X74.816Y-1.488
X74.779Y-1.483
X74.743Y-1.477
X74.707Y-1.471
X74.671Y-1.463
X74.635Y-1.455
X74.599Y-1.445
X74.564Y-1.435
X74.529Y-1.424
X74.494Y-1.412
X74.46Y-1.399
X74.425Y-1.385
X74.392Y-1.371
X74.358Y-1.355
X74.325Y-1.339
X74.292Y-1.322
X74.26Y-1.305
X74.228Y-1.286
X74.197Y-1.267
X74.166Y-1.247
X74.136Y-1.226
X74.106Y-1.204
X74.077Y-1.182
X74.048Y-1.159
X74.02Y-1.135
X73.992Y-1.111
X73.965Y-1.086
X73.939Y-1.06
X73.913Y-1.034
X73.888Y-1.007
X73.864Y-0.979
X73.84Y-0.951
X73.817Y-0.922
X73.795Y-0.893
X73.773Y-0.863
X73.752Y-0.833
X73.732Y-0.802
X73.713Y-0.771
X73.694Y-0.739
X73.677Y-0.707
X73.66Y-0.674
X73.644Y-0.641
X73.628Y-0.607
X73.614Y-0.574
X73.6Y-0.539
X73.587Y-0.505
X73.575Y-0.47
X73.564Y-0.435
X73.554Y-0.4
X73.544Y-0.364
X73.536Y-0.328
X73.528Y-0.292
X73.522Y-0.256
X73.516Y-0.22
X73.511Y-0.183
X73.507Y-0.147
X73.504Y-0.11
X73.501Y-0.073
X73.5Y-0.036
X73.5Y0
Y3.5
X26.499
Y0
X26.499Y-0.036
X26.498Y-0.073
X26.495Y-0.11
X26.492Y-0.147
X26.488Y-0.183
X26.483Y-0.22
X26.477Y-0.256
X26.471Y-0.292
X26.463Y-0.328
X26.455Y-0.364
X26.445Y-0.4
X26.435Y-0.435
X26.424Y-0.47
X26.412Y-0.505
X26.399Y-0.539
X26.385Y-0.574
X26.371Y-0.607
X26.355Y-0.641
X26.339Y-0.674
X26.322Y-0.707
X26.305Y-0.739
X26.286Y-0.771
X26.267Y-0.802
X26.247Y-0.833
X26.226Y-0.863
X26.204Y-0.893
X26.182Y-0.922
X26.159Y-0.951
X26.135Y-0.979
X26.111Y-1.007
X26.086Y-1.034
X26.06Y-1.06
X26.034Y-1.086
X26.007Y-1.111
X25.979Y-1.135
X25.951Y-1.159
X25.922Y-1.182
X25.893Y-1.204
X25.863Y-1.226
X25.833Y-1.247
X25.802Y-1.267
X25.771Y-1.286
X25.739Y-1.305
X25.707Y-1.322
X25.674Y-1.339
X25.641Y-1.355
X25.607Y-1.371
X25.574Y-1.385
X25.539Y-1.399
X25.505Y-1.412
X25.47Y-1.424
X25.435Y-1.435
X25.4Y-1.445
X25.364Y-1.455
X25.328Y-1.463
X25.292Y-1.471
X25.256Y-1.477
X25.22Y-1.483
X25.183Y-1.488
X25.147Y-1.492
X25.11Y-1.495
X25.073Y-1.498
X25.036Y-1.499
X24.999Y-1.5
X15
X14.963Y-1.499
X14.926Y-1.498
X14.889Y-1.495
X14.852Y-1.492
X14.816Y-1.488
X14.779Y-1.483
X14.743Y-1.477
X14.707Y-1.471
X14.671Y-1.463
X14.635Y-1.455
X14.599Y-1.445
X14.564Y-1.435
X14.529Y-1.424
X14.494Y-1.412
X14.46Y-1.399
X14.425Y-1.385
X14.392Y-1.371
X14.358Y-1.355
X14.325Y-1.339
X14.292Y-1.322
X14.26Y-1.305
X14.228Y-1.286
X14.197Y-1.267
X14.166Y-1.247
X14.136Y-1.226
X14.106Y-1.204
X14.077Y-1.182
X14.048Y-1.159
X14.02Y-1.135
X13.992Y-1.111
X13.965Y-1.086
X13.939Y-1.06
X13.913Y-1.034
X13.888Y-1.007
X13.864Y-0.979
X13.84Y-0.951
X13.817Y-0.922
X13.795Y-0.893
X13.773Y-0.863
X13.752Y-0.833
X13.732Y-0.802
X13.713Y-0.771
X13.694Y-0.739
X13.677Y-0.707
X13.66Y-0.674
X13.644Y-0.641
X13.628Y-0.607
X13.614Y-0.574
X13.6Y-0.539
X13.587Y-0.505
X13.575Y-0.47
X13.564Y-0.435
X13.554Y-0.4
X13.544Y-0.364
X13.536Y-0.328
X13.528Y-0.292
X13.522Y-0.256
X13.516Y-0.22
X13.511Y-0.183
X13.507Y-0.147
X13.504Y-0.11
X13.501Y-0.073
X13.5Y-0.036
X13.499Y0
Y3.5
X0
G0Z10
X113.5Y4.963
G1Z-5F500
X113.499Y5F1000
Y495
X113.5Y495.036
X113.501Y495.073
X113.504Y495.11
X113.507Y495.147
X113.511Y495.183
X113.516Y495.22
X113.522Y495.256
X113.528Y495.292
X113.536Y495.328
X113.544Y495.364
X113.554Y495.4
X113.564Y495.435
X113.575Y495.47
X113.587Y495.505
X113.6Y495.539
X113.614Y495.574
X113.628Y495.607
X113.644Y495.641
X113.66Y495.674
X113.677Y495.707
X113.694Y495.739
X113.713Y495.771
X113.732Y495.802
X113.752Y495.833
X113.773Y495.863
X113.795Y495.893
X113.817Y495.922
X113.84Y495.951
X113.864Y495.979
X113.888Y496.007
X113.913Y496.034
X113.939Y496.06
X113.965Y496.086
X113.992Y496.111
X114.02Y496.135
X114.048Y496.159
X114.077Y496.182
X114.106Y496.204
X114.136Y496.226
X114.166Y496.247
X114.197Y496.267
X114.228Y496.286
X114.26Y496.305
X114.292Y496.322
X114.325Y496.339
X114.358Y496.355
X114.392Y496.371
X114.425Y496.385
X114.46Y496.399
X114.494Y496.412
X114.529Y496.424
X114.564Y496.435
X114.599Y496.445
X114.635Y496.455
X114.671Y496.463
X114.707Y496.471
X114.743Y496.477
X114.779Y496.483
X114.816Y496.488
X114.852Y496.492
X114.889Y496.495
X114.926Y496.498
X114.963Y496.499
X115Y496.5
X128.5
Y500
X128.5Y500.036
X128.501Y500.073
X128.504Y500.11
X128.507Y500.147
X128.511Y500.183
X128.516Y500.22
X128.522Y500.256
X128.528Y500.292
X128.536Y500.328
X128.544Y500.364
X128.554Y500.4
X128.564Y500.435
X128.575Y500.47
X128.587Y500.505
X128.6Y500.539
X128.614Y500.574
X128.628Y500.607
X128.644Y500.641
X128.66Y500.674
X128.677Y500.707
X128.694Y500.739
X128.713Y500.771
X128.732Y500.802
X128.752Y500.833
X128.773Y500.863
X128.795Y500.893
X128.817Y500.922
X128.84Y500.951
X128.864Y500.979
X128.888Y501.007
X128.913Y501.034
X128.939Y501.06
X128.965Y501.086
X128.992Y501.111
X129.02Y501.135
X129.048Y501.159
X129.077Y501.182
X129.106Y501.204
X129.136Y501.226
X129.166Y501.247
X129.197Y501.267
X129.228Y501.286
X129.26Y501.305
X129.292Y501.322
X129.325Y501.339
X129.358Y501.356
X129.392Y501.371
X129.425Y501.385
X129.46Y501.399
X129.494Y501.412
X129.529Y501.424
X129.564Y501.435
X129.599Y501.445
X129.635Y501.455
X129.671Y501.463
X129.707Y501.471
X129.743Y501.477
X129.779Y501.483
X129.816Y501.488
X129.852Y501.492
X129.889Y501.495
X129.926Y501.498
X129.963Y501.499
X129.999Y501.5
X140
X140.036Y501.499
X140.073Y501.498
X140.11Y501.495
X140.147Y501.492
X140.183Y501.488
X140.22Y501.483
X140.256Y501.477
X140.292Y501.471
X140.328Y501.463
X140.364Y501.455
X140.4Y501.445
X140.435Y501.435
X140.47Y501.424
X140.505Y501.412
X140.539Y501.399
X140.574Y501.385
X140.607Y501.371
X140.641Y501.356
X140.674Y501.339
X140.707Y501.322
X140.739Y501.305
X140.771Y501.286
X140.802Y501.267
X140.833Y501.247
X140.863Y501.226
X140.893Y501.204
X140.922Y501.182
X140.951Y501.159
X140.979Y501.135
X141.007Y501.111
X141.034Y501.086
X141.06Y501.06
X141.086Y501.034
X141.111Y501.007
X141.135Y500.979
X141.159Y500.951
X141.182Y500.922
X141.204Y500.893
X141.226Y500.863
X141.247Y500.833
X141.267Y500.802
X141.286Y500.771
X141.305Y500.739
X141.322Y500.707
X141.339Y500.674
X141.355Y500.641
X141.371Y500.607
X141.385Y500.574
X141.399Y500.539
X141.412Y500.505
X141.424Y500.47
X141.435Y500.435
X141.445Y500.4
X141.455Y500.364
X141.463Y500.328
X141.471Y500.292
X141.477Y500.256
X141.483Y500.22
X141.488Y500.183
X141.492Y500.147
X141.495Y500.11
X141.498Y500.073
X141.499Y500.036
X141.499Y500
Y496.5
X188.5
Y500
X188.5Y500.036
X188.501Y500.073
X188.504Y500.11
X188.507Y500.147
X188.511Y500.183
X188.516Y500.22
X188.522Y500.256
X188.528Y500.292
X188.536Y500.328
X188.544Y500.364
X188.554Y500.4
X188.564Y500.435
X188.575Y500.47
X188.587Y500.505
X188.6Y500.539
X188.614Y500.574
X188.628Y500.607
X188.644Y500.641
X188.66Y500.674
X188.677Y500.707
X188.694Y500.739
X188.713Y500.771
X188.732Y500.802
X188.752Y500.833
X188.773Y500.863
X188.795Y500.893
X188.817Y500.922
X188.84Y500.951
X188.864Y500.979
X188.888Y501.007
X188.913Y501.034
X188.939Y501.06
X188.965Y501.086
X188.992Y501.111
X189.02Y501.135
X189.048Y501.159
X189.077Y501.182
X189.106Y501.204
X189.136Y501.226
X189.166Y501.247
X189.197Y501.267
X189.228Y501.286
X189.26Y501.305
X189.292Y501.322
X189.325Y501.339
X189.358Y501.356
X189.392Y501.371
X189.425Y501.385
X189.46Y501.399
X189.494Y501.412
X189.529Y501.424
X189.564Y501.435
X189.599Y501.445
X189.635Y501.455
X189.671Y501.463
X189.707Y501.471
X189.743Y501.477
X189.779Y501.483
X189.816Y501.488
X189.852Y501.492
X189.889Y501.495
X189.926Y501.498
X189.963Y501.499
X189.999Y501.5
X200
X200.036Y501.499
X200.073Y501.498
X200.11Y501.495
X200.147Y501.492
X200.183Y501.488
X200.22Y501.483
X200.256Y501.477
X200.292Y501.471
X200.328Y501.463
X200.364Y501.455
X200.4Y501.445
X200.435Y501.435
X200.47Y501.424
X200.505Y501.412
X200.539Y501.399
X200.574Y501.385
X200.607Y501.371
X200.641Y501.356
X200.674Y501.339
X200.707Y501.322
X200.739Y501.305
X200.771Y501.286
X200.802Y501.267
X200.833Y501.247
X200.863Y501.226
X200.893Y501.204
X200.922Y501.182
X200.951Y501.159
X200.979Y501.135
X201.007Y501.111
X201.034Y501.086
X201.06Y501.06
X201.086Y501.034
X201.111Y501.007
X201.135Y500.979
X201.159Y500.951
X201.182Y500.922
X201.204Y500.893
X201.226Y500.863
X201.247Y500.833
X201.267Y500.802
X201.286Y500.771
X201.305Y500.739
X201.322Y500.707
X201.339Y500.674
X201.355Y500.641
X201.371Y500.607
X201.385Y500.574
X201.399Y500.539
X201.412Y500.505
X201.424Y500.47
X201.435Y500.435
X201.445Y500.4
X201.455Y500.364
X201.463Y500.328
X201.471Y500.292
X201.477Y500.256
X201.483Y500.22
X201.488Y500.183
X201.492Y500.147
X201.495Y500.11
X201.498Y500.073
X201.499Y500.036
X201.499Y500
Y496.5
X215
X215.036Y496.499
X215.073Y496.498
X215.11Y496.495
X215.147Y496.492
X215.183Y496.488
X215.22Y496.483
X215.256Y496.477
X215.292Y496.471
X215.328Y496.463
X215.364Y496.455
X215.4Y496.445
X215.435Y496.435
X215.47Y496.424
X215.505Y496.412
X215.539Y496.399
X215.574Y496.385
X215.607Y496.371
X215.641Y496.355
X215.674Y496.339
X215.707Y496.322
X215.739Y496.305
X215.771Y496.286
X215.802Y496.267
X215.833Y496.247
X215.863Y496.226
X215.893Y496.204
X215.922Y496.182
X215.951Y496.159
X215.979Y496.135
X216.007Y496.111
X216.034Y496.086
X216.06Y496.06
X216.086Y496.034
X216.111Y496.007
X216.135Y495.979
X216.159Y495.951
X216.182Y495.922
X216.204Y495.893
X216.226Y495.863
X216.247Y495.833
X216.267Y495.802
X216.286Y495.771
X216.305Y495.739
X216.322Y495.707
X216.339Y495.674
X216.355Y495.641
X216.371Y495.607
X216.385Y495.574
X216.399Y495.539
X216.412Y495.505
X216.424Y495.47
X216.435Y495.435
X216.445Y495.4
X216.455Y495.364
X216.463Y495.328
X216.471Y495.292
X216.477Y495.256
X216.483Y495.22
X216.488Y495.183
X216.492Y495.147
X216.495Y495.11
X216.498Y495.073
X216.499Y495.036
X216.499Y495
Y422.814
X216.499Y422.777
X216.498Y422.74
X216.495Y422.703
X216.492Y422.667
X216.488Y422.63
X216.483Y422.594
X216.477Y422.557
X216.471Y422.521
X216.463Y422.485
X216.455Y422.449
X216.445Y422.414
X216.435Y422.378
X216.424Y422.343
X216.412Y422.308
X216.399Y422.274
X216.385Y422.24
X216.371Y422.206
X216.355Y422.172
X216.339Y422.139
X216.322Y422.107
X216.305Y422.074
X216.286Y422.043
X216.267Y422.011
X216.247Y421.98
X216.226Y421.95
X216.204Y421.92
X216.182Y421.891
X216.159Y421.862
X216.135Y421.834
X216.111Y421.806
X216.086Y421.779
X216.06Y421.753
X216.034Y421.727
X216.007Y421.702
X215.979Y421.678
X215.951Y421.654
X215.922Y421.631
X215.893Y421.609
X215.863Y421.587
X215.833Y421.567
X215.802Y421.546
X215.771Y421.527
X215.739Y421.509
X215.707Y421.491
X215.674Y421.474
X215.641Y421.458
X215.607Y421.442
X215.574Y421.428
X215.539Y421.414
X215.505Y421.401
X215.47Y421.389
X215.435Y421.378
X215.4Y421.368
X215.364Y421.359
X215.328Y421.35
X215.292Y421.343
X215.256Y421.336
X215.22Y421.33
X215.183Y421.325
X215.147Y421.321
X215.11Y421.318
X215.073Y421.316
X215.036Y421.314
X215Y421.314
X166.5
Y419.314
X215
X215.036Y419.313
X215.073Y419.312
X215.11Y419.31
X215.147Y419.307
X215.183Y419.303
X215.22Y419.298
X215.256Y419.292
X215.292Y419.285
X215.328Y419.277
X215.364Y419.269
X215.4Y419.259
X215.435Y419.249
X215.47Y419.238
X215.505Y419.226
X215.539Y419.213
X215.574Y419.2
X215.607Y419.185
X215.641Y419.17
X215.674Y419.154
X215.707Y419.137
X215.739Y419.119
X215.771Y419.1
X215.802Y419.081
X215.833Y419.061
X215.863Y419.04
X215.893Y419.019
X215.922Y418.996
X215.951Y418.973
X215.979Y418.95
X216.007Y418.925
X216.034Y418.9
X216.06Y418.874
X216.086Y418.848
X216.111Y418.821
X216.135Y418.794
X216.159Y418.765
X216.182Y418.737
X216.204Y418.707
X216.226Y418.677
X216.247Y418.647
X216.267Y418.616
X216.286Y418.585
X216.305Y418.553
X216.322Y418.521
X216.339Y418.488
X216.355Y418.455
X216.371Y418.422
X216.385Y418.388
X216.399Y418.354
X216.412Y418.319
X216.424Y418.284
X216.435Y418.249
X216.445Y418.214
X216.455Y418.178
X216.463Y418.142
X216.471Y418.106
X216.477Y418.07
X216.483Y418.034
X216.488Y417.997
X216.492Y417.961
X216.495Y417.924
X216.498Y417.887
X216.499Y417.851
X216.499Y417.814
Y350.628
X216.499Y350.591
X216.498Y350.554
X216.495Y350.518
X216.492Y350.481
X216.488Y350.444
X216.483Y350.408
X216.477Y350.372
X216.471Y350.335
X216.463Y350.299
X216.455Y350.264
X216.445Y350.228
X216.435Y350.193
X216.424Y350.158
X216.412Y350.123
X216.399Y350.088
X216.385Y350.054
X216.371Y350.02
X216.355Y349.987
X216.339Y349.954
X216.322Y349.921
X216.305Y349.889
X216.286Y349.857
X216.267Y349.826
X216.247Y349.795
X216.226Y349.764
X216.204Y349.735
X216.182Y349.705
X216.159Y349.676
X216.135Y349.648
X216.111Y349.621
X216.086Y349.594
X216.06Y349.567
X216.034Y349.542
X216.007Y349.517
X215.979Y349.492
X215.951Y349.469
X215.922Y349.446
X215.893Y349.423
X215.863Y349.402
X215.833Y349.381
X215.802Y349.361
X215.771Y349.341
X215.739Y349.323
X215.707Y349.305
X215.674Y349.288
X215.641Y349.272
X215.607Y349.257
X215.574Y349.242
X215.539Y349.229
X215.505Y349.216
X215.47Y349.204
X215.435Y349.193
X215.4Y349.182
X215.364Y349.173
X215.328Y349.165
X215.292Y349.157
X215.256Y349.15
X215.22Y349.144
X215.183Y349.139
X215.147Y349.135
X215.11Y349.132
X215.073Y349.13
X215.036Y349.129
X215Y349.128
X166.5
Y347.128
X215
X215.036Y347.128
X215.073Y347.126
X215.11Y347.124
X215.147Y347.121
X215.183Y347.117
X215.22Y347.112
X215.256Y347.106
X215.292Y347.099
X215.328Y347.092
X215.364Y347.083
X215.4Y347.074
X215.435Y347.063
X215.47Y347.052
X215.505Y347.04
X215.539Y347.028
X215.574Y347.014
X215.607Y346.999
X215.641Y346.984
X215.674Y346.968
X215.707Y346.951
X215.739Y346.933
X215.771Y346.915
X215.802Y346.895
X215.833Y346.875
X215.863Y346.854
X215.893Y346.833
X215.922Y346.811
X215.951Y346.788
X215.979Y346.764
X216.007Y346.739
X216.034Y346.714
X216.06Y346.689
X216.086Y346.662
X216.111Y346.635
X216.135Y346.608
X216.159Y346.58
X216.182Y346.551
X216.204Y346.522
X216.226Y346.492
X216.247Y346.461
X216.267Y346.431
X216.286Y346.399
X216.305Y346.367
X216.322Y346.335
X216.339Y346.302
X216.355Y346.269
X216.371Y346.236
X216.385Y346.202
X216.399Y346.168
X216.412Y346.133
X216.424Y346.099
X216.435Y346.064
X216.445Y346.028
X216.455Y345.993
X216.463Y345.957
X216.471Y345.921
X216.477Y345.885
X216.483Y345.848
X216.488Y345.812
X216.492Y345.775
X216.495Y345.738
X216.498Y345.702
X216.499Y345.665
X216.499Y345.628
Y278.442
X216.499Y278.406
X216.498Y278.369
X216.495Y278.332
X216.492Y278.295
X216.488Y278.259
X216.483Y278.222
X216.477Y278.186
X216.471Y278.15
X216.463Y278.114
X216.455Y278.078
X216.445Y278.042
X216.435Y278.007
X216.424Y277.972
X216.412Y277.937
X216.399Y277.903
X216.385Y277.868
X216.371Y277.835
X216.355Y277.801
X216.339Y277.768
X216.322Y277.735
X216.305Y277.703
X216.286Y277.671
X216.267Y277.64
X216.247Y277.609
X216.226Y277.579
X216.204Y277.549
X216.182Y277.52
X216.159Y277.491
X216.135Y277.463
X216.111Y277.435
X216.086Y277.408
X216.06Y277.382
X216.034Y277.356
X216.007Y277.331
X215.979Y277.307
X215.951Y277.283
X215.922Y277.26
X215.893Y277.238
X215.863Y277.216
X215.833Y277.195
X215.802Y277.175
X215.771Y277.156
X215.739Y277.137
X215.707Y277.119
X215.674Y277.103
X215.641Y277.086
X215.607Y277.071
X215.574Y277.057
X215.539Y277.043
X215.505Y277.03
X215.47Y277.018
X215.435Y277.007
X215.4Y276.997
X215.364Y276.987
X215.328Y276.979
X215.292Y276.971
X215.256Y276.964
X215.22Y276.959
X215.183Y276.954
X215.147Y276.95
X215.11Y276.946
X215.073Y276.944
X215.036Y276.943
X215Y276.942
X166.5
Y274.942
X215
X215.036Y274.942
X215.073Y274.941
X215.11Y274.938
X215.147Y274.935
X215.183Y274.931
X215.22Y274.926
X215.256Y274.92
X215.292Y274.914
X215.328Y274.906
X215.364Y274.897
X215.4Y274.888
X215.435Y274.878
X215.47Y274.867
X215.505Y274.855
X215.539Y274.842
X215.574Y274.828
X215.607Y274.814
X215.641Y274.798
X215.674Y274.782
X215.707Y274.765
X215.739Y274.747
X215.771Y274.729
X215.802Y274.71
X215.833Y274.69
X215.863Y274.669
X215.893Y274.647
X215.922Y274.625
X215.951Y274.602
X215.979Y274.578
X216.007Y274.554
X216.034Y274.529
X216.06Y274.503
X216.086Y274.477
X216.111Y274.45
X216.135Y274.422
X216.159Y274.394
X216.182Y274.365
X216.204Y274.336
X216.226Y274.306
X216.247Y274.276
X216.267Y274.245
X216.286Y274.214
X216.305Y274.182
X216.322Y274.149
X216.339Y274.117
X216.355Y274.084
X216.371Y274.05
X216.385Y274.016
X216.399Y273.982
X216.412Y273.948
X216.424Y273.913
X216.435Y273.878
X216.445Y273.842
X216.455Y273.807
X216.463Y273.771
X216.471Y273.735
X216.477Y273.699
X216.483Y273.662
X216.488Y273.626
X216.492Y273.589
X216.495Y273.553
X216.498Y273.516
X216.499Y273.479
X216.499Y273.442
Y206.257
X216.499Y206.22
X216.498Y206.183
X216.495Y206.146
X216.492Y206.11
X216.488Y206.073
X216.483Y206.037
X216.477Y206
X216.471Y205.964
X216.463Y205.928
X216.455Y205.892
X216.445Y205.857
X216.435Y205.821
X216.424Y205.786
X216.412Y205.751
X216.399Y205.717
X216.385Y205.683
X216.371Y205.649
X216.355Y205.615
X216.339Y205.582
X216.322Y205.55
X216.305Y205.517
X216.286Y205.485
X216.267Y205.454
X216.247Y205.423
X216.226Y205.393
X216.204Y205.363
X216.182Y205.334
X216.159Y205.305
X216.135Y205.277
X216.111Y205.249
X216.086Y205.222
X216.06Y205.196
X216.034Y205.17
X216.007Y205.145
X215.979Y205.121
X215.951Y205.097
X215.922Y205.074
X215.893Y205.052
X215.863Y205.03
X215.833Y205.009
X215.802Y204.989
X215.771Y204.97
X215.739Y204.952
X215.707Y204.934
X215.674Y204.917
X215.641Y204.901
X215.607Y204.885
X215.574Y204.871
X215.539Y204.857
X215.505Y204.844
X215.47Y204.832
X215.435Y204.821
X215.4Y204.811
X215.364Y204.802
X215.328Y204.793
X215.292Y204.785
X215.256Y204.779
X215.22Y204.773
X215.183Y204.768
X215.147Y204.764
X215.11Y204.761
X215.073Y204.758
X215.036Y204.757
X215Y204.757
X166.5
Y202.757
X215
X215.036Y202.756
X215.073Y202.755
X215.11Y202.753
X215.147Y202.749
X215.183Y202.745
X215.22Y202.74
X215.256Y202.735
X215.292Y202.728
X215.328Y202.72
X215.364Y202.712
X215.4Y202.702
X215.435Y202.692
X215.47Y202.681
X215.505Y202.669
X215.539Y202.656
X215.574Y202.642
X215.607Y202.628
X215.641Y202.613
X215.674Y202.596
X215.707Y202.58
X215.739Y202.562
X215.771Y202.543
X215.802Y202.524
X215.833Y202.504
X215.863Y202.483
X215.893Y202.461
X215.922Y202.439
X215.951Y202.416
X215.979Y202.392
X216.007Y202.368
X216.034Y202.343
X216.06Y202.317
X216.086Y202.291
X216.111Y202.264
X216.135Y202.236
X216.159Y202.208
X216.182Y202.179
X216.204Y202.15
X216.226Y202.12
X216.247Y202.09
X216.267Y202.059
X216.286Y202.028
X216.305Y201.996
X216.322Y201.964
X216.339Y201.931
X216.355Y201.898
X216.371Y201.865
X216.385Y201.831
X216.399Y201.796
X216.412Y201.762
X216.424Y201.727
X216.435Y201.692
X216.445Y201.657
X216.455Y201.621
X216.463Y201.585
X216.471Y201.549
X216.477Y201.513
X216.483Y201.477
X216.488Y201.44
X216.492Y201.404
X216.495Y201.367
X216.498Y201.33
X216.499Y201.293
X216.499Y201.257
Y134.071
X216.499Y134.034
X216.498Y133.997
X216.495Y133.961
X216.492Y133.924
X216.488Y133.887
X216.483Y133.851
X216.477Y133.814
X216.471Y133.778
X216.463Y133.742
X216.455Y133.706
X216.445Y133.671
X216.435Y133.635
X216.424Y133.6
X216.412Y133.566
X216.399Y133.531
X216.385Y133.497
X216.371Y133.463
X216.355Y133.43
X216.339Y133.397
X216.322Y133.364
X216.305Y133.332
X216.286Y133.3
X216.267Y133.268
X216.247Y133.238
X216.226Y133.207
X216.204Y133.177
X216.182Y133.148
X216.159Y133.119
X216.135Y133.091
X216.111Y133.064
X216.086Y133.037
X216.06Y133.01
X216.034Y132.985
X216.007Y132.959
X215.979Y132.935
X215.951Y132.911
X215.922Y132.888
X215.893Y132.866
X215.863Y132.845
X215.833Y132.824
X215.802Y132.804
X215.771Y132.784
X215.739Y132.766
X215.707Y132.748
X215.674Y132.731
X215.641Y132.715
X215.607Y132.7
X215.574Y132.685
X215.539Y132.671
X215.505Y132.659
X215.47Y132.647
X215.435Y132.636
X215.4Y132.625
X215.364Y132.616
X215.328Y132.607
X215.292Y132.6
X215.256Y132.593
X215.22Y132.587
X215.183Y132.582
X215.147Y132.578
X215.11Y132.575
X215.073Y132.573
X215.036Y132.571
X215Y132.571
X166.5
Y130.571
X215
X215.036Y130.57
X215.073Y130.569
X215.11Y130.567
X215.147Y130.564
X215.183Y130.56
X215.22Y130.555
X215.256Y130.549
X215.292Y130.542
X215.328Y130.534
X215.364Y130.526
X215.4Y130.517
X215.435Y130.506
X215.47Y130.495
X215.505Y130.483
X215.539Y130.47
X215.574Y130.457
X215.607Y130.442
X215.641Y130.427
X215.674Y130.411
X215.707Y130.394
X215.739Y130.376
X215.771Y130.358
X215.802Y130.338
X215.833Y130.318
X215.863Y130.297
X215.893Y130.276
X215.922Y130.253
X215.951Y130.23
X215.979Y130.207
X216.007Y130.182
X216.034Y130.157
X216.06Y130.132
X216.086Y130.105
X216.111Y130.078
X216.135Y130.051
X216.159Y130.023
X216.182Y129.994
X216.204Y129.964
X216.226Y129.935
X216.247Y129.904
X216.267Y129.873
X216.286Y129.842
X216.305Y129.81
X216.322Y129.778
X216.339Y129.745
X216.355Y129.712
X216.371Y129.679
X216.385Y129.645
X216.399Y129.611
X216.412Y129.576
X216.424Y129.541
X216.435Y129.506
X216.445Y129.471
X216.455Y129.435
X216.463Y129.4
X216.471Y129.364
X216.477Y129.327
X216.483Y129.291
X216.488Y129.255
X216.492Y129.218
X216.495Y129.181
X216.498Y129.145
X216.499Y129.108
X216.499Y129.071
Y61.885
X216.499Y61.848
X216.498Y61.812
X216.495Y61.775
X216.492Y61.738
X216.488Y61.702
X216.483Y61.665
X216.477Y61.629
X216.471Y61.593
X216.463Y61.557
X216.455Y61.521
X216.445Y61.485
X216.435Y61.45
X216.424Y61.415
X216.412Y61.38
X216.399Y61.345
X216.385Y61.311
X216.371Y61.277
X216.355Y61.244
X216.339Y61.211
X216.322Y61.178
X216.305Y61.146
X216.286Y61.114
X216.267Y61.083
X216.247Y61.052
X216.226Y61.022
X216.204Y60.992
X216.182Y60.962
X216.159Y60.934
X216.135Y60.905
X216.111Y60.878
X216.086Y60.851
X216.06Y60.825
X216.034Y60.799
X216.007Y60.774
X215.979Y60.749
X215.951Y60.726
X215.922Y60.703
X215.893Y60.68
X215.863Y60.659
X215.833Y60.638
X215.802Y60.618
X215.771Y60.599
X215.739Y60.58
X215.707Y60.562
X215.674Y60.545
X215.641Y60.529
X215.607Y60.514
X215.574Y60.499
X215.539Y60.486
X215.505Y60.473
X215.47Y60.461
X215.435Y60.45
X215.4Y60.44
X215.364Y60.43
X215.328Y60.422
X215.292Y60.414
X215.256Y60.407
X215.22Y60.401
X215.183Y60.396
X215.147Y60.392
X215.11Y60.389
X215.073Y60.387
X215.036Y60.386
X215Y60.385
X166.5
Y58.385
X215
X215.036Y58.385
X215.073Y58.383
X215.11Y58.381
X215.147Y58.378
X215.183Y58.374
X215.22Y58.369
X215.256Y58.363
X215.292Y58.356
X215.328Y58.349
X215.364Y58.34
X215.4Y58.331
X215.435Y58.321
X215.47Y58.31
X215.505Y58.298
X215.539Y58.285
X215.574Y58.271
X215.607Y58.257
X215.641Y58.241
X215.674Y58.225
X215.707Y58.208
X215.739Y58.19
X215.771Y58.172
X215.802Y58.152
X215.833Y58.132
X215.863Y58.112
X215.893Y58.09
X215.922Y58.068
X215.951Y58.045
X215.979Y58.021
X216.007Y57.997
X216.034Y57.972
X216.06Y57.946
X216.086Y57.92
X216.111Y57.893
X216.135Y57.865
X216.159Y57.837
X216.182Y57.808
X216.204Y57.779
X216.226Y57.749
X216.247Y57.719
X216.267Y57.688
X216.286Y57.656
X216.305Y57.625
X216.322Y57.592
X216.339Y57.56
X216.355Y57.527
X216.371Y57.493
X216.385Y57.459
X216.399Y57.425
X216.412Y57.391
X216.424Y57.356
X216.435Y57.321
X216.445Y57.285
X216.455Y57.25
X216.463Y57.214
X216.471Y57.178
X216.477Y57.142
X216.483Y57.105
X216.488Y57.069
X216.492Y57.032
X216.495Y56.996
X216.498Y56.959
X216.499Y56.922
X216.499Y56.885
Y5
X216.499Y4.963
X216.498Y4.926
X216.495Y4.889
X216.492Y4.852
X216.488Y4.816
X216.483Y4.779
X216.477Y4.743
X216.471Y4.707
X216.463Y4.671
X216.455Y4.635
X216.445Y4.599
X216.435Y4.564
X216.424Y4.529
X216.412Y4.494
X216.399Y4.46
X216.385Y4.425
X216.371Y4.392
X216.355Y4.358
X216.339Y4.325
X216.322Y4.292
X216.305Y4.26
X216.286Y4.228
X216.267Y4.197
X216.247Y4.166
X216.226Y4.136
X216.204Y4.106
X216.182Y4.077
X216.159Y4.048
X216.135Y4.02
X216.111Y3.992
X216.086Y3.965
X216.06Y3.939
X216.034Y3.913
X216.007Y3.888
X215.979Y3.864
X215.951Y3.84
X215.922Y3.817
X215.893Y3.795
X215.863Y3.773
X215.833Y3.752
X215.802Y3.732
X215.771Y3.713
X215.739Y3.694
X215.707Y3.677
X215.674Y3.66
X215.641Y3.644
X215.607Y3.628
X215.574Y3.614
X215.539Y3.6
X215.505Y3.587
X215.47Y3.575
X215.435Y3.564
X215.4Y3.554
X215.364Y3.544
X215.328Y3.536
X215.292Y3.528
X215.256Y3.522
X215.22Y3.516
X215.183Y3.511
X215.147Y3.507
X215.11Y3.504
X215.073Y3.501
X215.036Y3.5
X215Y3.5
X201.499
Y0
X201.499Y-0.036
X201.498Y-0.073
X201.495Y-0.11
X201.492Y-0.147
X201.488Y-0.183
X201.483Y-0.22
X201.477Y-0.256
X201.471Y-0.292
X201.463Y-0.328
X201.455Y-0.364
X201.445Y-0.4
X201.435Y-0.435
X201.424Y-0.47
X201.412Y-0.505
X201.399Y-0.539
X201.385Y-0.574
X201.371Y-0.607
X201.355Y-0.641
X201.339Y-0.674
X201.322Y-0.707
X201.305Y-0.739
X201.286Y-0.771
X201.267Y-0.802
X201.247Y-0.833
X201.226Y-0.863
X201.204Y-0.893
X201.182Y-0.922
X201.159Y-0.951
X201.135Y-0.979
X201.111Y-1.007
X201.086Y-1.034
X201.06Y-1.06
X201.034Y-1.086
X201.007Y-1.111
X200.979Y-1.135
X200.951Y-1.159
X200.922Y-1.182
X200.893Y-1.204
X200.863Y-1.226
X200.833Y-1.247
X200.802Y-1.267
X200.771Y-1.286
X200.739Y-1.305
X200.707Y-1.322
X200.674Y-1.339
X200.641Y-1.355
X200.607Y-1.371
X200.574Y-1.385
X200.539Y-1.399
X200.505Y-1.412
X200.47Y-1.424
X200.435Y-1.435
X200.4Y-1.445
X200.364Y-1.455
X200.328Y-1.463
X200.292Y-1.471
X200.256Y-1.477
X200.22Y-1.483
X200.183Y-1.488
X200.147Y-1.492
X200.11Y-1.495
X200.073Y-1.498
X200.036Y-1.499
X200Y-1.5
X189.999
X189.963Y-1.499
X189.926Y-1.498
X189.889Y-1.495
X189.852Y-1.492
X189.816Y-1.488
X189.779Y-1.483
X189.743Y-1.477
X189.707Y-1.471
X189.671Y-1.463
X189.635Y-1.455
X189.599Y-1.445
X189.564Y-1.435
X189.529Y-1.424
X189.494Y-1.412
X189.46Y-1.399
X189.425Y-1.385
X189.392Y-1.371
X189.358Y-1.355
X189.325Y-1.339
X189.292Y-1.322
X189.26Y-1.305
X189.228Y-1.286
X189.197Y-1.267
X189.166Y-1.247
X189.136Y-1.226
X189.106Y-1.204
X189.077Y-1.182
X189.048Y-1.159
X189.02Y-1.135
X188.992Y-1.111
X188.965Y-1.086
X188.939Y-1.06
X188.913Y-1.034
X188.888Y-1.007
X188.864Y-0.979
X188.84Y-0.951
X188.817Y-0.922
X188.795Y-0.893
X188.773Y-0.863
X188.752Y-0.833
X188.732Y-0.802
X188.713Y-0.771
X188.694Y-0.739
X188.677Y-0.707
X188.66Y-0.674
X188.644Y-0.641
X188.628Y-0.607
X188.614Y-0.574
X188.6Y-0.539
X188.587Y-0.505
X188.575Y-0.47
X188.564Y-0.435
X188.554Y-0.4
X188.544Y-0.364
X188.536Y-0.328
X188.528Y-0.292
X188.522Y-0.256
X188.516Y-0.22
X188.511Y-0.183
X188.507Y-0.147
X188.504Y-0.11
X188.501Y-0.073
X188.5Y-0.036
X188.5Y0
Y3.5
X141.499
Y0
X141.499Y-0.036
X141.498Y-0.073
X141.495Y-0.11
X141.492Y-0.147
X141.488Y-0.183
X141.483Y-0.22
X141.477Y-0.256
X141.471Y-0.292
X141.463Y-0.328
X141.455Y-0.364
X141.445Y-0.4
X141.435Y-0.435
X141.424Y-0.47
X141.412Y-0.505
X141.399Y-0.539
X141.385Y-0.574
X141.371Y-0.607
X141.355Y-0.641
X141.339Y-0.674
X141.322Y-0.707
X141.305Y-0.739
X141.286Y-0.771
X141.267Y-0.802
X141.247Y-0.833
X141.226Y-0.863
X141.204Y-0.893
X141.182Y-0.922
X141.159Y-0.951
X141.135Y-0.979
X141.111Y-1.007
X141.086Y-1.034
X141.06Y-1.06
X141.034Y-1.086
X141.007Y-1.111
X140.979Y-1.135
X140.951Y-1.159
X140.922Y-1.182
X140.893Y-1.204
X140.863Y-1.226
X140.833Y-1.247
X140.802Y-1.267
X140.771Y-1.286
X140.739Y-1.305
X140.707Y-1.322
X140.674Y-1.339
X140.641Y-1.355
X140.607Y-1.371
X140.574Y-1.385
X140.539Y-1.399
X140.505Y-1.412
X140.47Y-1.424
X140.435Y-1.435
X140.4Y-1.445
X140.364Y-1.455
X140.328Y-1.463
X140.292Y-1.471
X140.256Y-1.477
X140.22Y-1.483
X140.183Y-1.488
X140.147Y-1.492
X140.11Y-1.495
X140.073Y-1.498
X140.036Y-1.499
X140Y-1.5
X129.999
X129.963Y-1.499
X129.926Y-1.498
X129.889Y-1.495
X129.852Y-1.492
X129.816Y-1.488
X129.779Y-1.483
X129.743Y-1.477
X129.707Y-1.471
X129.671Y-1.463
X129.635Y-1.455
X129.599Y-1.445
X129.564Y-1.435
X129.529Y-1.424
X129.494Y-1.412
X129.46Y-1.399
X129.425Y-1.385
X129.392Y-1.371
X129.358Y-1.355
X129.325Y-1.339
X129.292Y-1.322
X129.26Y-1.305
X129.228Y-1.286
X129.197Y-1.267
X129.166Y-1.247
X129.136Y-1.226
X129.106Y-1.204
X129.077Y-1.182
X129.048Y-1.159
X129.02Y-1.135
X128.992Y-1.111
X128.965Y-1.086
X128.939Y-1.06
X128.913Y-1.034
X128.888Y-1.007
X128.864Y-0.979
X128.84Y-0.951
X128.817Y-0.922
X128.795Y-0.893
X128.773Y-0.863
X128.752Y-0.833
X128.732Y-0.802
X128.713Y-0.771
X128.694Y-0.739
X128.677Y-0.707
X128.66Y-0.674
X128.644Y-0.641
X128.628Y-0.607
X128.614Y-0.574
X128.6Y-0.539
X128.587Y-0.505
X128.575Y-0.47
X128.564Y-0.435
X128.554Y-0.4
X128.544Y-0.364
X128.536Y-0.328
X128.528Y-0.292
X128.522Y-0.256
X128.516Y-0.22
X128.511Y-0.183
X128.507Y-0.147
X128.504Y-0.11
X128.501Y-0.073
X128.5Y-0.036
X128.5Y0
Y3.5
X115
X114.963Y3.5
X114.926Y3.501
X114.889Y3.504
X114.852Y3.507
X114.816Y3.511
X114.779Y3.516
X114.743Y3.522
X114.707Y3.528
X114.671Y3.536
X114.635Y3.544
X114.599Y3.554
X114.564Y3.564
X114.529Y3.575
X114.494Y3.587
X114.46Y3.6
X114.425Y3.614
X114.392Y3.628
X114.358Y3.644
X114.325Y3.66
X114.292Y3.677
X114.26Y3.694
X114.228Y3.713
X114.197Y3.732
X114.166Y3.752
X114.136Y3.773
X114.106Y3.795
X114.077Y3.817
X114.048Y3.84
X114.02Y3.864
X113.992Y3.888
X113.965Y3.913
X113.939Y3.939
X113.913Y3.965
X113.888Y3.992
X113.864Y4.02
X113.84Y4.048
X113.817Y4.077
X113.795Y4.106
X113.773Y4.136
X113.752Y4.166
X113.732Y4.197
X113.713Y4.228
X113.694Y4.26
X113.677Y4.292
X113.66Y4.325
X113.644Y4.358
X113.628Y4.392
X113.614Y4.425
X113.6Y4.46
X113.587Y4.494
X113.575Y4.529
X113.564Y4.564
X113.554Y4.599
X113.544Y4.635
X113.536Y4.671
X113.528Y4.707
X113.522Y4.743
X113.516Y4.779
X113.511Y4.816
X113.507Y4.852
X113.504Y4.889
X113.501Y4.926
X113.5Y4.963
G0Z10
X228.5Y5
G1Z-5F500
Y495F1000
X228.5Y495.036
X228.501Y495.073
X228.504Y495.11
X228.507Y495.147
X228.511Y495.183
X228.516Y495.22
X228.522Y495.256
X228.528Y495.292
X228.536Y495.328
X228.544Y495.364
X228.554Y495.4
X228.564Y495.435
X228.575Y495.47
X228.587Y495.505
X228.6Y495.539
X228.614Y495.574
X228.628Y495.607
X228.644Y495.641
X228.66Y495.674
X228.677Y495.707
X228.694Y495.739
X228.713Y495.771
X228.732Y495.802
X228.752Y495.833
X228.773Y495.863
X228.795Y495.893
X228.817Y495.922
X228.84Y495.951
X228.864Y495.979
X228.888Y496.007
X228.913Y496.034
X228.939Y496.06
X228.965Y496.086
X228.992Y496.111
X229.02Y496.135
X229.048Y496.159
X229.077Y496.182
X229.106Y496.204
X229.136Y496.226
X229.166Y496.247
X229.197Y496.267
X229.228Y496.286
X229.26Y496.305
X229.292Y496.322
X229.325Y496.339
X229.358Y496.355
X229.392Y496.371
X229.425Y496.385
X229.46Y496.399
X229.494Y496.412
X229.529Y496.424
X229.564Y496.435
X229.599Y496.445
X229.635Y496.455
X229.671Y496.463
X229.707Y496.471
X229.743Y496.477
X229.779Y496.483
X229.816Y496.488
X229.852Y496.492
X229.889Y496.495
X229.926Y496.498
X229.963Y496.499
X230Y496.5
X243.5
Y500
X243.5Y500.036
X243.501Y500.073
X243.504Y500.11
X243.507Y500.147
X243.511Y500.183
X243.516Y500.22
X243.522Y500.256
X243.528Y500.292
X243.536Y500.328
X243.544Y500.364
X243.554Y500.4
X243.564Y500.435
X243.575Y500.47
X243.587Y500.505
X243.6Y500.539
X243.614Y500.574
X243.628Y500.607
X243.644Y500.641
X243.66Y500.674
X243.677Y500.707
X243.694Y500.739
X243.713Y500.771
X243.732Y500.802
X243.752Y500.833
X243.773Y500.863
X243.795Y500.893
X243.817Y500.922
X243.84Y500.951
X243.864Y500.979
X243.888Y501.007
X243.913Y501.034
X243.939Y501.06
X243.965Y501.086
X243.992Y501.111
X244.02Y501.135
X244.048Y501.159
X244.077Y501.182
X244.106Y501.204
X244.136Y501.226
X244.166Y501.247
X244.197Y501.267
X244.228Y501.286
X244.26Y501.305
X244.292Y501.322
X244.325Y501.339
X244.358Y501.356
X244.392Y501.371
X244.425Y501.385
X244.46Y501.399
X244.494Y501.412
X244.529Y501.424
X244.564Y501.435
X244.599Y501.445
X244.635Y501.455
X244.671Y501.463
X244.707Y501.471
X244.743Y501.477
X244.779Y501.483
X244.816Y501.488
X244.852Y501.492
X244.889Y501.495
X244.926Y501.498
X244.963Y501.499
X245Y501.5
X254.999
X255.036Y501.499
X255.073Y501.498
X255.11Y501.495
X255.147Y501.492
X255.183Y501.488
X255.22Y501.483
X255.256Y501.477
X255.292Y501.471
X255.328Y501.463
X255.364Y501.455
X255.4Y501.445
X255.435Y501.435
X255.47Y501.424
X255.505Y501.412
X255.539Y501.399
X255.574Y501.385
X255.607Y501.371
X255.641Y501.356
X255.674Y501.339
X255.707Y501.322
X255.739Y501.305
X255.771Y501.286
X255.802Y501.267
X255.833Y501.247
X255.863Y501.226
X255.893Y501.204
X255.922Y501.182
X255.951Y501.159
X255.979Y501.135
X256.007Y501.111
X256.034Y501.086
X256.06Y501.06
X256.086Y501.034
X256.111Y501.007
X256.135Y500.979
X256.159Y500.951
X256.182Y500.922
X256.204Y500.893
X256.226Y500.863
X256.247Y500.833
X256.267Y500.802
X256.286Y500.771
X256.305Y500.739
X256.322Y500.707
X256.339Y500.674
X256.355Y500.641
X256.371Y500.607
X256.385Y500.574
X256.399Y500.539
X256.412Y500.505
X256.424Y500.47
X256.435Y500.435
X256.445Y500.4
X256.455Y500.364
X256.463Y500.328
X256.471Y500.292
X256.477Y500.256
X256.483Y500.22
X256.488Y500.183
X256.492Y500.147
X256.495Y500.11
X256.498Y500.073
X256.499Y500.036
X256.5Y500
Y496.5
X303.499
Y500
X303.5Y500.036
X303.501Y500.073
X303.504Y500.11
X303.507Y500.147
X303.511Y500.183
X303.516Y500.22
X303.522Y500.256
X303.528Y500.292
X303.536Y500.328
X303.544Y500.364
X303.554Y500.4
X303.564Y500.435
X303.575Y500.47
X303.587Y500.505
X303.6Y500.539
X303.614Y500.574
X303.628Y500.607
X303.644Y500.641
X303.66Y500.674
X303.677Y500.707
X303.694Y500.739
X303.713Y500.771
X303.732Y500.802
X303.752Y500.833
X303.773Y500.863
X303.795Y500.893
X303.817Y500.922
X303.84Y500.951
X303.864Y500.979
X303.888Y501.007
X303.913Y501.034
X303.939Y501.06
X303.965Y501.086
X303.992Y501.111
X304.02Y501.135
X304.048Y501.159
X304.077Y501.182
X304.106Y501.204
X304.136Y501.226
X304.166Y501.247
X304.197Y501.267
X304.228Y501.286
X304.26Y501.305
X304.292Y501.322
X304.325Y501.339
X304.358Y501.356
X304.392Y501.371
X304.425Y501.385
X304.46Y501.399
X304.494Y501.412
X304.529Y501.424
X304.564Y501.435
X304.599Y501.445
X304.635Y501.455
X304.671Y501.463
X304.707Y501.471
X304.743Y501.477
X304.779Y501.483
X304.816Y501.488
X304.852Y501.492
X304.889Y501.495
X304.926Y501.498
X304.963Y501.499
X305Y501.5
X314.999
X315.036Y501.499
X315.073Y501.498
X315.11Y501.495
X315.147Y501.492
X315.183Y501.488
X315.22Y501.483
X315.256Y501.477
X315.292Y501.471
X315.328Y501.463
X315.364Y501.455
X315.4Y501.445
X315.435Y501.435
X315.47Y501.424
X315.505Y501.412
X315.539Y501.399
X315.574Y501.385
X315.607Y501.371
X315.641Y501.356
X315.674Y501.339
X315.707Y501.322
X315.739Y501.305
X315.771Y501.286
X315.802Y501.267
X315.833Y501.247
X315.863Y501.226
X315.893Y501.204
X315.922Y501.182
X315.951Y501.159
X315.979Y501.135
X316.007Y501.111
X316.034Y501.086
X316.06Y501.06
X316.086Y501.034
X316.111Y501.007
X316.135Y500.979
X316.159Y500.951
X316.182Y500.922
X316.204Y500.893
X316.226Y500.863
X316.247Y500.833
X316.267Y500.802
X316.286Y500.771
X316.305Y500.739
X316.322Y500.707
X316.339Y500.674
X316.355Y500.641
X316.371Y500.607
X316.385Y500.574
X316.399Y500.539
X316.412Y500.505
X316.424Y500.47
X316.435Y500.435
X316.445Y500.4
X316.455Y500.364
X316.463Y500.328
X316.471Y500.292
X316.477Y500.256
X316.483Y500.22
X316.488Y500.183
X316.492Y500.147
X316.495Y500.11
X316.498Y500.073
X316.499Y500.036
X316.5Y500
Y496.5
X330
X330.036Y496.499
X330.073Y496.498
X330.11Y496.495
X330.147Y496.492
X330.183Y496.488
X330.22Y496.483
X330.256Y496.477
X330.292Y496.471
X330.328Y496.463
X330.364Y496.455
X330.4Y496.445
X330.435Y496.435
X330.47Y496.424
X330.505Y496.412
X330.539Y496.399
X330.574Y496.385
X330.607Y496.371
X330.641Y496.355
X330.674Y496.339
X330.707Y496.322
X330.739Y496.305
X330.771Y496.286
X330.802Y496.267
X330.833Y496.247
X330.863Y496.226
X330.893Y496.204
X330.922Y496.182
X330.951Y496.159
X330.979Y496.135
X331.007Y496.111
X331.034Y496.086
X331.06Y496.06
X331.086Y496.034
X331.111Y496.007
X331.135Y495.979
X331.159Y495.951
X331.182Y495.922
X331.204Y495.893
X331.226Y495.863
X331.247Y495.833
X331.267Y495.802
X331.286Y495.771
X331.305Y495.739
X331.322Y495.707
X331.339Y495.674
X331.355Y495.641
X331.371Y495.607
X331.385Y495.574
X331.399Y495.539
X331.412Y495.505
X331.424Y495.47
X331.435Y495.435
X331.445Y495.4
X331.455Y495.364
X331.463Y495.328
X331.471Y495.292
X331.477Y495.256
X331.483Y495.22
X331.488Y495.183
X331.492Y495.147
X331.495Y495.11
X331.498Y495.073
X331.499Y495.036
X331.5Y495
Y422.814
X331.499Y422.777
X331.498Y422.74
X331.495Y422.703
X331.492Y422.667
X331.488Y422.63
X331.483Y422.594
X331.477Y422.557
X331.471Y422.521
X331.463Y422.485
X331.455Y422.449
X331.445Y422.414
X331.435Y422.378
X331.424Y422.343
X331.412Y422.308
X331.399Y422.274
X331.385Y422.24
X331.371Y422.206
X331.355Y422.172
X331.339Y422.139
X331.322Y422.107
X331.305Y422.074
X331.286Y422.043
X331.267Y422.011
X331.247Y421.98
X331.226Y421.95
X331.204Y421.92
X331.182Y421.891
X331.159Y421.862
X331.135Y421.834
X331.111Y421.806
X331.086Y421.779
X331.06Y421.753
X331.034Y421.727
X331.007Y421.702
X330.979Y421.678
X330.951Y421.654
X330.922Y421.631
X330.893Y421.609
X330.863Y421.587
X330.833Y421.567
X330.802Y421.546
X330.771Y421.527
X330.739Y421.509
X330.707Y421.491
X330.674Y421.474
X330.641Y421.458
X330.607Y421.442
X330.574Y421.428
X330.539Y421.414
X330.505Y421.401
X330.47Y421.389
X330.435Y421.378
X330.4Y421.368
X330.364Y421.359
X330.328Y421.35
X330.292Y421.343
X330.256Y421.336
X330.22Y421.33
X330.183Y421.325
X330.147Y421.321
X330.11Y421.318
X330.073Y421.316
X330.036Y421.314
X330Y421.314
X281.5
Y419.314
X330
X330.036Y419.313
X330.073Y419.312
X330.11Y419.31
X330.147Y419.307
X330.183Y419.303
X330.22Y419.298
X330.256Y419.292
X330.292Y419.285
X330.328Y419.277
X330.364Y419.269
X330.4Y419.259
X330.435Y419.249
X330.47Y419.238
X330.505Y419.226
X330.539Y419.213
X330.574Y419.2
X330.607Y419.185
X330.641Y419.17
X330.674Y419.154
X330.707Y419.137
X330.739Y419.119
X330.771Y419.1
X330.802Y419.081
X330.833Y419.061
X330.863Y419.04
X330.893Y419.019
X330.922Y418.996
X330.951Y418.973
X330.979Y418.95
X331.007Y418.925
X331.034Y418.9
X331.06Y418.874
X331.086Y418.848
X331.111Y418.821
X331.135Y418.794
X331.159Y418.765
X331.182Y418.737
X331.204Y418.707
X331.226Y418.677
X331.247Y418.647
X331.267Y418.616
X331.286Y418.585
X331.305Y418.553
X331.322Y418.521
X331.339Y418.488
X331.355Y418.455
X331.371Y418.422
X331.385Y418.388
X331.399Y418.354
X331.412Y418.319
X331.424Y418.284
X331.435Y418.249
X331.445Y418.214
X331.455Y418.178
X331.463Y418.142
X331.471Y418.106
X331.477Y418.07
X331.483Y418.034
X331.488Y417.997
X331.492Y417.961
X331.495Y417.924
X331.498Y417.887
X331.499Y417.851
X331.5Y417.814
Y350.628
X331.499Y350.591
X331.498Y350.554
X331.495Y350.518
X331.492Y350.481
X331.488Y350.444
X331.483Y350.408
X331.477Y350.372
X331.471Y350.335
X331.463Y350.299
X331.455Y350.264
X331.445Y350.228
X331.435Y350.193
X331.424Y350.158
X331.412Y350.123
X331.399Y350.088
X331.385Y350.054
X331.371Y350.02
X331.355Y349.987
X331.339Y349.954
X331.322Y349.921
X331.305Y349.889
X331.286Y349.857
X331.267Y349.826
X331.247Y349.795
X331.226Y349.764
X331.204Y349.735
X331.182Y349.705
X331.159Y349.676
X331.135Y349.648
X331.111Y349.621
X331.086Y349.594
X331.06Y349.567
X331.034Y349.542
X331.007Y349.517
X330.979Y349.492
X330.951Y349.469
X330.922Y349.446
X330.893Y349.423
X330.863Y349.402
X330.833Y349.381
X330.802Y349.361
X330.771Y349.341
X330.739Y349.323
X330.707Y349.305
X330.674Y349.288
X330.641Y349.272
X330.607Y349.257
X330.574Y349.242
X330.539Y349.229
X330.505Y349.216
X330.47Y349.204
X330.435Y349.193
X330.4Y349.182
X330.364Y349.173
X330.328Y349.165
X330.292Y349.157
X330.256Y349.15
X330.22Y349.144
X330.183Y349.139
X330.147Y349.135
X330.11Y349.132
X330.073Y349.13
X330.036Y349.129
X330Y349.128
X281.5
Y347.128
X330
X330.036Y347.128
X330.073Y347.126
X330.11Y347.124
X330.147Y347.121
X330.183Y347.117
X330.22Y347.112
X330.256Y347.106
X330.292Y347.099
X330.328Y347.092
X330.364Y347.083
X330.4Y347.074
X330.435Y347.063
X330.47Y347.052
X330.505Y347.04
X330.539Y347.028
X330.574Y347.014
X330.607Y346.999
X330.641Y346.984
X330.674Y346.968
X330.707Y346.951
X330.739Y346.933
X330.771Y346.915
X330.802Y346.895
X330.833Y346.875
X330.863Y346.854
X330.893Y346.833
X330.922Y346.811
X330.951Y346.788
X330.979Y346.764
X331.007Y346.739
X331.034Y346.714
X331.06Y346.689
X331.086Y346.662
X331.111Y346.635
X331.135Y346.608
X331.159Y346.58
X331.182Y346.551
X331.204Y346.522
X331.226Y346.492
X331.247Y346.461
X331.267Y346.431
X331.286Y346.399
X331.305Y346.367
X331.322Y346.335
X331.339Y346.302
X331.355Y346.269
X331.371Y346.236
X331.385Y346.202
X331.399Y346.168
X331.412Y346.133
X331.424Y346.099
X331.435Y346.064
X331.445Y346.028
X331.455Y345.993
X331.463Y345.957
X331.471Y345.921
X331.477Y345.885
X331.483Y345.848
X331.488Y345.812
X331.492Y345.775
X331.495Y345.738
X331.498Y345.702
X331.499Y345.665
X331.5Y345.628
Y278.442
X331.499Y278.406
X331.498Y278.369
X331.495Y278.332
X331.492Y278.295
X331.488Y278.259
X331.483Y278.222
X331.477Y278.186
X331.471Y278.15
X331.463Y278.114
X331.455Y278.078
X331.445Y278.042
X331.435Y278.007
X331.424Y277.972
X331.412Y277.937
X331.399Y277.903
X331.385Y277.868
X331.371Y277.835
X331.355Y277.801
X331.339Y277.768
X331.322Y277.735
X331.305Y277.703
X331.286Y277.671
X331.267Y277.64
X331.247Y277.609
X331.226Y277.579
X331.204Y277.549
X331.182Y277.52
X331.159Y277.491
X331.135Y277.463
X331.111Y277.435
X331.086Y277.408
X331.06Y277.382
X331.034Y277.356
X331.007Y277.331
X330.979Y277.307
X330.951Y277.283
X330.922Y277.26
X330.893Y277.238
X330.863Y277.216
X330.833Y277.195
X330.802Y277.175
X330.771Y277.156
X330.739Y277.137
X330.707Y277.119
X330.674Y277.103
X330.641Y277.086
X330.607Y277.071
X330.574Y277.057
X330.539Y277.043
X330.505Y277.03
X330.47Y277.018
X330.435Y277.007
X330.4Y276.997
X330.364Y276.987
X330.328Y276.979
X330.292Y276.971
X330.256Y276.964
X330.22Y276.959
X330.183Y276.954
X330.147Y276.95
X330.11Y276.946
X330.073Y276.944
X330.036Y276.943
X330Y276.942
X281.5
Y274.942
X330
X330.036Y274.942
X330.073Y274.941
X330.11Y274.938
X330.147Y274.935
X330.183Y274.931
X330.22Y274.926
X330.256Y274.92
X330.292Y274.914
X330.328Y274.906
X330.364Y274.897
X330.4Y274.888
X330.435Y274.878
X330.47Y274.867
X330.505Y274.855
X330.539Y274.842
X330.574Y274.828
X330.607Y274.814
X330.641Y274.798
X330.674Y274.782
X330.707Y274.765
X330.739Y274.747
X330.771Y274.729
X330.802Y274.71
X330.833Y274.69
X330.863Y274.669
X330.893Y274.647
X330.922Y274.625
X330.951Y274.602
X330.979Y274.578
X331.007Y274.554
X331.034Y274.529
X331.06Y274.503
X331.086Y274.477
X331.111Y274.45
X331.135Y274.422
X331.159Y274.394
X331.182Y274.365
X331.204Y274.336
X331.226Y274.306
X331.247Y274.276
X331.267Y274.245
X331.286Y274.214
X331.305Y274.182
X331.322Y274.149
X331.339Y274.117
X331.355Y274.084
X331.371Y274.05
X331.385Y274.016
X331.399Y273.982
X331.412Y273.948
X331.424Y273.913
X331.435Y273.878
X331.445Y273.842
X331.455Y273.807
X331.463Y273.771
X331.471Y273.735
X331.477Y273.699
X331.483Y273.662
X331.488Y273.626
X331.492Y273.589
X331.495Y273.553
X331.498Y273.516
X331.499Y273.479
X331.5Y273.442
Y206.257
X331.499Y206.22
X331.498Y206.183
X331.495Y206.146
X331.492Y206.11
X331.488Y206.073
X331.483Y206.037
X331.477Y206
X331.471Y205.964
X331.463Y205.928
X331.455Y205.892
X331.445Y205.857
X331.435Y205.821
X331.424Y205.786
X331.412Y205.751
X331.399Y205.717
X331.385Y205.683
X331.371Y205.649
X331.355Y205.615
X331.339Y205.582
X331.322Y205.55
X331.305Y205.517
X331.286Y205.485
X331.267Y205.454
X331.247Y205.423
X331.226Y205.393
X331.204Y205.363
X331.182Y205.334
X331.159Y205.305
X331.135Y205.277
X331.111Y205.249
X331.086Y205.222
X331.06Y205.196
X331.034Y205.17
X331.007Y205.145
X330.979Y205.121
X330.951Y205.097
X330.922Y205.074
X330.893Y205.052
X330.863Y205.03
X330.833Y205.009
X330.802Y204.989
X330.771Y204.97
X330.739Y204.952
X330.707Y204.934
X330.674Y204.917
X330.641Y204.901
X330.607Y204.885
X330.574Y204.871
X330.539Y204.857
X330.505Y204.844
X330.47Y204.832
X330.435Y204.821
X330.4Y204.811
X330.364Y204.802
X330.328Y204.793
X330.292Y204.785
X330.256Y204.779
X330.22Y204.773
X330.183Y204.768
X330.147Y204.764
X330.11Y204.761
X330.073Y204.758
X330.036Y204.757
X330Y204.757
X281.5
Y202.757
X330
X330.036Y202.756
X330.073Y202.755
X330.11Y202.753
X330.147Y202.749
X330.183Y202.745
X330.22Y202.74
X330.256Y202.735
X330.292Y202.728
X330.328Y202.72
X330.364Y202.712
X330.4Y202.702
X330.435Y202.692
X330.47Y202.681
X330.505Y202.669
X330.539Y202.656
X330.574Y202.642
X330.607Y202.628
X330.641Y202.613
X330.674Y202.596
X330.707Y202.58
X330.739Y202.562
X330.771Y202.543
X330.802Y202.524
X330.833Y202.504
X330.863Y202.483
X330.893Y202.461
X330.922Y202.439
X330.951Y202.416
X330.979Y202.392
X331.007Y202.368
X331.034Y202.343
X331.06Y202.317
X331.086Y202.291
X331.111Y202.264
X331.135Y202.236
X331.159Y202.208
X331.182Y202.179
X331.204Y202.15
X331.226Y202.12
X331.247Y202.09
X331.267Y202.059
X331.286Y202.028
X331.305Y201.996
X331.322Y201.964
X331.339Y201.931
X331.355Y201.898
X331.371Y201.865
X331.385Y201.831
X331.399Y201.796
X331.412Y201.762
X331.424Y201.727
X331.435Y201.692
X331.445Y201.657
X331.455Y201.621
X331.463Y201.585
X331.471Y201.549
X331.477Y201.513
X331.483Y201.477
X331.488Y201.44
X331.492Y201.404
X331.495Y201.367
X331.498Y201.33
X331.499Y201.293
X331.5Y201.257
Y134.071
X331.499Y134.034
X331.498Y133.997
X331.495Y133.961
X331.492Y133.924
X331.488Y133.887
X331.483Y133.851
X331.477Y133.814
X331.471Y133.778
X331.463Y133.742
X331.455Y133.706
X331.445Y133.671
X331.435Y133.635
X331.424Y133.6
X331.412Y133.566
X331.399Y133.531
X331.385Y133.497
X331.371Y133.463
X331.355Y133.43
X331.339Y133.397
X331.322Y133.364
X331.305Y133.332
X331.286Y133.3
X331.267Y133.268
X331.247Y133.238
X331.226Y133.207
X331.204Y133.177
X331.182Y133.148
X331.159Y133.119
X331.135Y133.091
X331.111Y133.064
X331.086Y133.037
X331.06Y133.01
X331.034Y132.985
X331.007Y132.959
X330.979Y132.935
X330.951Y132.911
X330.922Y132.888
X330.893Y132.866
X330.863Y132.845
X330.833Y132.824
X330.802Y132.804
X330.771Y132.784
X330.739Y132.766
X330.707Y132.748
X330.674Y132.731
X330.641Y132.715
X330.607Y132.7
X330.574Y132.685
X330.539Y132.671
X330.505Y132.659
X330.47Y132.647
X330.435Y132.636
X330.4Y132.625
X330.364Y132.616
X330.328Y132.607
X330.292Y132.6
X330.256Y132.593
X330.22Y132.587
X330.183Y132.582
X330.147Y132.578
X330.11Y132.575
X330.073Y132.573
X330.036Y132.571
X330Y132.571
X281.5
Y130.571
X330
X330.036Y130.57
X330.073Y130.569
X330.11Y130.567
X330.147Y130.564
X330.183Y130.56
X330.22Y130.555
X330.256Y130.549
X330.292Y130.542
X330.328Y130.534
X330.364Y130.526
X330.4Y130.517
X330.435Y130.506
X330.47Y130.495
X330.505Y130.483
X330.539Y130.47
X330.574Y130.457
X330.607Y130.442
X330.641Y130.427
X330.674Y130.411
X330.707Y130.394
X330.739Y130.376
X330.771Y130.358
X330.802Y130.338
X330.833Y130.318
X330.863Y130.297
X330.893Y130.276
X330.922Y130.253
X330.951Y130.23
X330.979Y130.207
X331.007Y130.182
X331.034Y130.157
X331.06Y130.132
X331.086Y130.105
X331.111Y130.078
X331.135Y130.051
X331.159Y130.023
X331.182Y129.994
X331.204Y129.964
X331.226Y129.935
X331.247Y129.904
X331.267Y129.873
X331.286Y129.842
X331.305Y129.81
X331.322Y129.778
X331.339Y129.745
X331.355Y129.712
X331.371Y129.679
X331.385Y129.645
X331.399Y129.611
X331.412Y129.576
X331.424Y129.541
X331.435Y129.506
X331.445Y129.471
X331.455Y129.435
X331.463Y129.4
X331.471Y129.364
X331.477Y129.327
X331.483Y129.291
X331.488Y129.255
X331.492Y129.218
X331.495Y129.181
X331.498Y129.145
X331.499Y129.108
X331.5Y129.071
Y61.885
X331.499Y61.848
X331.498Y61.812
X331.495Y61.775
X331.492Y61.738
X331.488Y61.702
X331.483Y61.665
X331.477Y61.629
X331.471Y61.593
X331.463Y61.557
X331.455Y61.521
X331.445Y61.485
X331.435Y61.45
X331.424Y61.415
X331.412Y61.38
X331.399Y61.345
X331.385Y61.311
X331.371Y61.277
X331.355Y61.244
X331.339Y61.211
X331.322Y61.178
X331.305Y61.146
X331.286Y61.114
X331.267Y61.083
X331.247Y61.052
X331.226Y61.022
X331.204Y60.992
X331.182Y60.962
X331.159Y60.934
X331.135Y60.905
X331.111Y60.878
X331.086Y60.851
X331.06Y60.825
X331.034Y60.799
X331.007Y60.774
X330.979Y60.749
X330.951Y60.726
X330.922Y60.703
X330.893Y60.68
X330.863Y60.659
X330.833Y60.638
X330.802Y60.618
X330.771Y60.599
X330.739Y60.58
X330.707Y60.562
X330.674Y60.545
X330.641Y60.529
X330.607Y60.514
X330.574Y60.499
X330.539Y60.486
X330.505Y60.473
X330.47Y60.461
X330.435Y60.45
X330.4Y60.44
X330.364Y60.43
X330.328Y60.422
X330.292Y60.414
X330.256Y60.407
X330.22Y60.401
X330.183Y60.396
X330.147Y60.392
X330.11Y60.389
X330.073Y60.387
X330.036Y60.386
X330Y60.385
X281.5
Y58.385
X330
X330.036Y58.385
X330.073Y58.383
X330.11Y58.381
X330.147Y58.378
X330.183Y58.374
X330.22Y58.369
X330.256Y58.363
X330.292Y58.356
X330.328Y58.349
X330.364Y58.34
X330.4Y58.331
X330.435Y58.321
X330.47Y58.31
X330.505Y58.298
X330.539Y58.285
X330.574Y58.271
X330.607Y58.257
X330.641Y58.241
X330.674Y58.225
X330.707Y58.208
X330.739Y58.19
X330.771Y58.172
X330.802Y58.152
X330.833Y58.132
X330.863Y58.112
X330.893Y58.09
X330.922Y58.068
X330.951Y58.045
X330.979Y58.021
X331.007Y57.997
X331.034Y57.972
X331.06Y57.946
X331.086Y57.92
X331.111Y57.893
X331.135Y57.865
X331.159Y57.837
X331.182Y57.808
X331.204Y57.779
X331.226Y57.749
X331.247Y57.719
X331.267Y57.688
X331.286Y57.656
X331.305Y57.625
X331.322Y57.592
X331.339Y57.56
X331.355Y57.527
X331.371Y57.493
X331.385Y57.459
X331.399Y57.425
X331.412Y57.391
X331.424Y57.356
X331.435Y57.321
X331.445Y57.285
X331.455Y57.25
X331.463Y57.214
X331.471Y57.178
X331.477Y57.142
X331.483Y57.105
X331.488Y57.069
X331.492Y57.032
X331.495Y56.996
X331.498Y56.959
X331.499Y56.922
X331.5Y56.885
Y5
X331.499Y4.963
X331.498Y4.926
X331.495Y4.889
X331.492Y4.852
X331.488Y4.816
X331.483Y4.779
X331.477Y4.743
X331.471Y4.707
X331.463Y4.671
X331.455Y4.635
X331.445Y4.599
X331.435Y4.564
X331.424Y4.529
X331.412Y4.494
X331.399Y4.46
X331.385Y4.425
X331.371Y4.392
X331.355Y4.358
X331.339Y4.325
X331.322Y4.292
X331.305Y4.26
X331.286Y4.228
X331.267Y4.197
X331.247Y4.166
X331.226Y4.136
X331.204Y4.106
X331.182Y4.077
X331.159Y4.048
X331.135Y4.02
X331.111Y3.992
X331.086Y3.965
X331.06Y3.939
X331.034Y3.913
X331.007Y3.888
X330.979Y3.864
X330.951Y3.84
X330.922Y3.817
X330.893Y3.795
X330.863Y3.773
X330.833Y3.752
X330.802Y3.732
X330.771Y3.713
X330.739Y3.694
X330.707Y3.677
X330.674Y3.66
X330.641Y3.644
X330.607Y3.628
X330.574Y3.614
X330.539Y3.6
X330.505Y3.587
X330.47Y3.575
X330.435Y3.564
X330.4Y3.554
X330.364Y3.544
X330.328Y3.536
X330.292Y3.528
X330.256Y3.522
X330.22Y3.516
X330.183Y3.511
X330.147Y3.507
X330.11Y3.504
X330.073Y3.501
X330.036Y3.5
X330Y3.5
X316.5
Y0
X316.499Y-0.036
X316.498Y-0.073
X316.495Y-0.11
X316.492Y-0.147
X316.488Y-0.183
X316.483Y-0.22
X316.477Y-0.256
X316.471Y-0.292
X316.463Y-0.328
X316.455Y-0.364
X316.445Y-0.4
X316.435Y-0.435
X316.424Y-0.47
X316.412Y-0.505
X316.399Y-0.539
X316.385Y-0.574
X316.371Y-0.607
X316.355Y-0.641
X316.339Y-0.674
X316.322Y-0.707
X316.305Y-0.739
X316.286Y-0.771
X316.267Y-0.802
X316.247Y-0.833
X316.226Y-0.863
X316.204Y-0.893
X316.182Y-0.922
X316.159Y-0.951
X316.135Y-0.979
X316.111Y-1.007
X316.086Y-1.034
X316.06Y-1.06
X316.034Y-1.086
X316.007Y-1.111
X315.979Y-1.135
X315.951Y-1.159
X315.922Y-1.182
X315.893Y-1.204
X315.863Y-1.226
X315.833Y-1.247
X315.802Y-1.267
X315.771Y-1.286
X315.739Y-1.305
X315.707Y-1.322
X315.674Y-1.339
X315.641Y-1.355
X315.607Y-1.371
X315.574Y-1.385
X315.539Y-1.399
X315.505Y-1.412
X315.47Y-1.424
X315.435Y-1.435
X315.4Y-1.445
X315.364Y-1.455
X315.328Y-1.463
X315.292Y-1.471
X315.256Y-1.477
X315.22Y-1.483
X315.183Y-1.488
X315.147Y-1.492
X315.11Y-1.495
X315.073Y-1.498
X315.036Y-1.499
X314.999Y-1.5
X305
X304.963Y-1.499
X304.926Y-1.498
X304.889Y-1.495
X304.852Y-1.492
X304.816Y-1.488
X304.779Y-1.483
X304.743Y-1.477
X304.707Y-1.471
X304.671Y-1.463
X304.635Y-1.455
X304.599Y-1.445
X304.564Y-1.435
X304.529Y-1.424
X304.494Y-1.412
X304.46Y-1.399
X304.425Y-1.385
X304.392Y-1.371
X304.358Y-1.355
X304.325Y-1.339
X304.292Y-1.322
X304.26Y-1.305
X304.228Y-1.286
X304.197Y-1.267
X304.166Y-1.247
X304.136Y-1.226
X304.106Y-1.204
X304.077Y-1.182
X304.048Y-1.159
X304.02Y-1.135
X303.992Y-1.111
X303.965Y-1.086
X303.939Y-1.06
X303.913Y-1.034
X303.888Y-1.007
X303.864Y-0.979
X303.84Y-0.951
X303.817Y-0.922
X303.795Y-0.893
X303.773Y-0.863
X303.752Y-0.833
X303.732Y-0.802
X303.713Y-0.771
X303.694Y-0.739
X303.677Y-0.707
X303.66Y-0.674
X303.644Y-0.641
X303.628Y-0.607
X303.614Y-0.574
X303.6Y-0.539
X303.587Y-0.505
X303.575Y-0.47
X303.564Y-0.435
X303.554Y-0.4
X303.544Y-0.364
X303.536Y-0.328
X303.528Y-0.292
X303.522Y-0.256
X303.516Y-0.22
X303.511Y-0.183
X303.507Y-0.147
X303.504Y-0.11
X303.501Y-0.073
X303.5Y-0.036
X303.499Y0
Y3.5
X256.5
Y0
X256.499Y-0.036
X256.498Y-0.073
X256.495Y-0.11
X256.492Y-0.147
X256.488Y-0.183
X256.483Y-0.22
X256.477Y-0.256
X256.471Y-0.292
X256.463Y-0.328
X256.455Y-0.364
X256.445Y-0.4
X256.435Y-0.435
X256.424Y-0.47
X256.412Y-0.505
X256.399Y-0.539
X256.385Y-0.574
X256.371Y-0.607
X256.355Y-0.641
X256.339Y-0.674
X256.322Y-0.707
X256.305Y-0.739
X256.286Y-0.771
X256.267Y-0.802
X256.247Y-0.833
X256.226Y-0.863
X256.204Y-0.893
X256.182Y-0.922
X256.159Y-0.951
X256.135Y-0.979
X256.111Y-1.007
X256.086Y-1.034
X256.06Y-1.06
X256.034Y-1.086
X256.007Y-1.111
X255.979Y-1.135
X255.951Y-1.159
X255.922Y-1.182
X255.893Y-1.204
X255.863Y-1.226
X255.833Y-1.247
X255.802Y-1.267
X255.771Y-1.286
X255.739Y-1.305
X255.707Y-1.322
X255.674Y-1.339
X255.641Y-1.355
X255.607Y-1.371
X255.574Y-1.385
X255.539Y-1.399
X255.505Y-1.412
X255.47Y-1.424
X255.435Y-1.435
X255.4Y-1.445
X255.364Y-1.455
X255.328Y-1.463
X255.292Y-1.471
X255.256Y-1.477
X255.22Y-1.483
X255.183Y-1.488
X255.147Y-1.492
X255.11Y-1.495
X255.073Y-1.498
X255.036Y-1.499
X254.999Y-1.5
X245
X244.963Y-1.499
X244.926Y-1.498
X244.889Y-1.495
X244.852Y-1.492
X244.816Y-1.488
X244.779Y-1.483
X244.743Y-1.477
X244.707Y-1.471
X244.671Y-1.463
X244.635Y-1.455
X244.599Y-1.445
X244.564Y-1.435
X244.529Y-1.424
X244.494Y-1.412
X244.46Y-1.399
X244.425Y-1.385
X244.392Y-1.371
X244.358Y-1.355
X244.325Y-1.339
X244.292Y-1.322
X244.26Y-1.305
X244.228Y-1.286
X244.197Y-1.267
X244.166Y-1.247
X244.136Y-1.226
X244.106Y-1.204
X244.077Y-1.182
X244.048Y-1.159
X244.02Y-1.135
X243.992Y-1.111
X243.965Y-1.086
X243.939Y-1.06
X243.913Y-1.034
X243.888Y-1.007
X243.864Y-0.979
X243.84Y-0.951
X243.817Y-0.922
X243.795Y-0.893
X243.773Y-0.863
X243.752Y-0.833
X243.732Y-0.802
X243.713Y-0.771
X243.694Y-0.739
X243.677Y-0.707
X243.66Y-0.674
X243.644Y-0.641
X243.628Y-0.607
X243.614Y-0.574
X243.6Y-0.539
X243.587Y-0.505
X243.575Y-0.47
X243.564Y-0.435
X243.554Y-0.4
X243.544Y-0.364
X243.536Y-0.328
X243.528Y-0.292
X243.522Y-0.256
X243.516Y-0.22
X243.511Y-0.183
X243.507Y-0.147
X243.504Y-0.11
X243.501Y-0.073
X243.5Y-0.036
X243.5Y0
Y3.5
X230
X229.963Y3.5
X229.926Y3.501
X229.889Y3.504
X229.852Y3.507
X229.816Y3.511
X229.779Y3.516
X229.743Y3.522
X229.707Y3.528
X229.671Y3.536
X229.635Y3.544
X229.599Y3.554
X229.564Y3.564
X229.529Y3.575
X229.494Y3.587
X229.46Y3.6
X229.425Y3.614
X229.392Y3.628
X229.358Y3.644
X229.325Y3.66
X229.292Y3.677
X229.26Y3.694
X229.228Y3.713
X229.197Y3.732
X229.166Y3.752
X229.136Y3.773
X229.106Y3.795
X229.077Y3.817
X229.048Y3.84
X229.02Y3.864
X228.992Y3.888
X228.965Y3.913
X228.939Y3.939
X228.913Y3.965
X228.888Y3.992
X228.864Y4.02
X228.84Y4.048
X228.817Y4.077
X228.795Y4.106
X228.773Y4.136
X228.752Y4.166
X228.732Y4.197
X228.713Y4.228
X228.694Y4.26
X228.677Y4.292
X228.66Y4.325
X228.644Y4.358
X228.628Y4.392
X228.614Y4.425
X228.6Y4.46
X228.587Y4.494
X228.575Y4.529
X228.564Y4.564
X228.554Y4.599
X228.544Y4.635
X228.536Y4.671
X228.528Y4.707
X228.522Y4.743
X228.516Y4.779
X228.511Y4.816
X228.507Y4.852
X228.504Y4.889
X228.501Y4.926
X228.5Y4.963
X228.5Y5
G0Z10
X343.499
G1Z-5F500
Y495F1000
X343.5Y495.036
X343.501Y495.073
X343.504Y495.11
X343.507Y495.147
X343.511Y495.183
X343.516Y495.22
X343.522Y495.256
X343.528Y495.292
X343.536Y495.328
X343.544Y495.364
X343.554Y495.4
X343.564Y495.435
X343.575Y495.47
X343.587Y495.505
X343.6Y495.539
X343.614Y495.574
X343.628Y495.607
X343.644Y495.641
X343.66Y495.674
X343.677Y495.707
X343.694Y495.739
X343.713Y495.771
X343.732Y495.802
X343.752Y495.833
X343.773Y495.863
X343.795Y495.893
X343.817Y495.922
X343.84Y495.951
X343.864Y495.979
X343.888Y496.007
X343.913Y496.034
X343.939Y496.06
X343.965Y496.086
X343.992Y496.111
X344.02Y496.135
X344.048Y496.159
X344.077Y496.182
X344.106Y496.204
X344.136Y496.226
X344.166Y496.247
X344.197Y496.267
X344.228Y496.286
X344.26Y496.305
X344.292Y496.322
X344.325Y496.339
X344.358Y496.355
X344.392Y496.371
X344.425Y496.385
X344.46Y496.399
X344.494Y496.412
X344.529Y496.424
X344.564Y496.435
X344.599Y496.445
X344.635Y496.455
X344.671Y496.463
X344.707Y496.471
X344.743Y496.477
X344.779Y496.483
X344.816Y496.488
X344.852Y496.492
X344.889Y496.495
X344.926Y496.498
X344.963Y496.499
X344.999Y496.5
X358.499
Y500
X358.5Y500.036
X358.501Y500.073
X358.504Y500.11
X358.507Y500.147
X358.511Y500.183
X358.516Y500.22
X358.522Y500.256
X358.528Y500.292
X358.536Y500.328
X358.544Y500.364
X358.554Y500.4
X358.564Y500.435
X358.575Y500.47
X358.587Y500.505
X358.6Y500.539
X358.614Y500.574
X358.628Y500.607
X358.644Y500.641
X358.66Y500.674
X358.677Y500.707
X358.694Y500.739
X358.713Y500.771
X358.732Y500.802
X358.752Y500.833
X358.773Y500.863
X358.795Y500.893
X358.817Y500.922
X358.84Y500.951
X358.864Y500.979
X358.888Y501.007
X358.913Y501.034
X358.939Y501.06
X358.965Y501.086
X358.992Y501.111
X359.02Y501.135
X359.048Y501.159
X359.077Y501.182
X359.106Y501.204
X359.136Y501.226
X359.166Y501.247
X359.197Y501.267
X359.228Y501.286
X359.26Y501.305
X359.292Y501.322
X359.325Y501.339
X359.358Y501.356
X359.392Y501.371
X359.425Y501.385
X359.46Y501.399
X359.494Y501.412
X359.529Y501.424
X359.564Y501.435
X359.599Y501.445
X359.635Y501.455
X359.671Y501.463
X359.707Y501.471
X359.743Y501.477
X359.779Y501.483
X359.816Y501.488
X359.852Y501.492
X359.889Y501.495
X359.926Y501.498
X359.963Y501.499
X359.999Y501.5
X370
X370.036Y501.499
X370.073Y501.498
X370.11Y501.495
X370.147Y501.492
X370.183Y501.488
X370.22Y501.483
X370.256Y501.477
X370.292Y501.471
X370.328Y501.463
X370.364Y501.455
X370.4Y501.445
X370.435Y501.435
X370.47Y501.424
X370.505Y501.412
X370.539Y501.399
X370.574Y501.385
X370.607Y501.371
X370.641Y501.356
X370.674Y501.339
X370.707Y501.322
X370.739Y501.305
X370.771Y501.286
X370.802Y501.267
X370.833Y501.247
X370.863Y501.226
X370.893Y501.204
X370.922Y501.182
X370.951Y501.159
X370.979Y501.135
X371.007Y501.111
X371.034Y501.086
X371.06Y501.06
X371.086Y501.034
X371.111Y501.007
X371.135Y500.979
X371.159Y500.951
X371.182Y500.922
X371.204Y500.893
X371.226Y500.863
X371.247Y500.833
X371.267Y500.802
X371.286Y500.771
X371.305Y500.739
X371.322Y500.707
X371.339Y500.674
X371.355Y500.641
X371.371Y500.607
X371.385Y500.574
X371.399Y500.539
X371.412Y500.505
X371.424Y500.47
X371.435Y500.435
X371.445Y500.4
X371.455Y500.364
X371.463Y500.328
X371.471Y500.292
X371.477Y500.256
X371.483Y500.22
X371.488Y500.183
X371.492Y500.147
X371.495Y500.11
X371.498Y500.073
X371.499Y500.036
X371.5Y500
Y496.5
X418.5
Y500
X418.5Y500.036
X418.501Y500.073
X418.504Y500.11
X418.507Y500.147
X418.511Y500.183
X418.516Y500.22
X418.522Y500.256
X418.528Y500.292
X418.536Y500.328
X418.544Y500.364
X418.554Y500.4
X418.564Y500.435
X418.575Y500.47
X418.587Y500.505
X418.6Y500.539
X418.614Y500.574
X418.628Y500.607
X418.644Y500.641
X418.66Y500.674
X418.677Y500.707
X418.694Y500.739
X418.713Y500.771
X418.732Y500.802
X418.752Y500.833
X418.773Y500.863
X418.795Y500.893
X418.817Y500.922
X418.84Y500.951
X418.864Y500.979
X418.888Y501.007
X418.913Y501.034
X418.939Y501.06
X418.965Y501.086
X418.992Y501.111
X419.02Y501.135
X419.048Y501.159
X419.077Y501.182
X419.106Y501.204
X419.136Y501.226
X419.166Y501.247
X419.197Y501.267
X419.228Y501.286
X419.26Y501.305
X419.292Y501.322
X419.325Y501.339
X419.358Y501.356
X419.392Y501.371
X419.425Y501.385
X419.46Y501.399
X419.494Y501.412
X419.529Y501.424
X419.564Y501.435
X419.599Y501.445
X419.635Y501.455
X419.671Y501.463
X419.707Y501.471
X419.743Y501.477
X419.779Y501.483
X419.816Y501.488
X419.853Y501.492
X419.889Y501.495
X419.926Y501.498
X419.963Y501.499
X420Y501.5
X430
X430.036Y501.499
X430.073Y501.498
X430.11Y501.495
X430.147Y501.492
X430.183Y501.488
X430.22Y501.483
X430.256Y501.477
X430.292Y501.471
X430.328Y501.463
X430.364Y501.455
X430.4Y501.445
X430.435Y501.435
X430.47Y501.424
X430.505Y501.412
X430.539Y501.399
X430.574Y501.385
X430.607Y501.371
X430.641Y501.356
X430.674Y501.339
X430.707Y501.322
X430.739Y501.305
X430.771Y501.286
X430.802Y501.267
X430.833Y501.247
X430.863Y501.226
X430.893Y501.204
X430.922Y501.182
X430.951Y501.159
X430.979Y501.135
X431.007Y501.111
X431.034Y501.086
X431.06Y501.06
X431.086Y501.034
X431.111Y501.007
X431.135Y500.979
X431.159Y500.951
X431.182Y500.922
X431.204Y500.893
X431.226Y500.863
X431.247Y500.833
X431.267Y500.802
X431.286Y500.771
X431.305Y500.739
X431.322Y500.707
X431.339Y500.674
X431.355Y500.641
X431.371Y500.607
X431.385Y500.574
X431.399Y500.539
X431.412Y500.505
X431.424Y500.47
X431.435Y500.435
X431.445Y500.4
X431.455Y500.364
X431.463Y500.328
X431.471Y500.292
X431.477Y500.256
X431.483Y500.22
X431.488Y500.183
X431.492Y500.147
X431.495Y500.11
X431.498Y500.073
X431.499Y500.036
X431.5Y500
Y496.5
X444.999
X445.036Y496.499
X445.073Y496.498
X445.11Y496.495
X445.147Y496.492
X445.183Y496.488
X445.22Y496.483
X445.256Y496.477
X445.292Y496.471
X445.328Y496.463
X445.364Y496.455
X445.4Y496.445
X445.435Y496.435
X445.47Y496.424
X445.505Y496.412
X445.539Y496.399
X445.574Y496.385
X445.607Y496.371
X445.641Y496.355
X445.674Y496.339
X445.707Y496.322
X445.739Y496.305
X445.771Y496.286
X445.802Y496.267
X445.833Y496.247
X445.863Y496.226
X445.893Y496.204
X445.922Y496.182
X445.951Y496.159
X445.979Y496.135
X446.007Y496.111
X446.034Y496.086
X446.06Y496.06
X446.086Y496.034
X446.111Y496.007
X446.135Y495.979
X446.159Y495.951
X446.182Y495.922
X446.204Y495.893
X446.226Y495.863
X446.247Y495.833
X446.267Y495.802
X446.286Y495.771
X446.305Y495.739
X446.322Y495.707
X446.339Y495.674
X446.355Y495.641
X446.371Y495.607
X446.385Y495.574
X446.399Y495.539
X446.412Y495.505
X446.424Y495.47
X446.435Y495.435
X446.445Y495.4
X446.455Y495.364
X446.463Y495.328
X446.471Y495.292
X446.477Y495.256
X446.483Y495.22
X446.488Y495.183
X446.492Y495.147
X446.495Y495.11
X446.498Y495.073
X446.499Y495.036
X446.5Y495
Y422.814
X446.499Y422.777
X446.498Y422.74
X446.495Y422.703
X446.492Y422.667
X446.488Y422.63
X446.483Y422.594
X446.477Y422.557
X446.471Y422.521
X446.463Y422.485
X446.455Y422.449
X446.445Y422.414
X446.435Y422.378
X446.424Y422.343
X446.412Y422.308
X446.399Y422.274
X446.385Y422.24
X446.371Y422.206
X446.355Y422.172
X446.339Y422.139
X446.322Y422.107
X446.305Y422.074
X446.286Y422.043
X446.267Y422.011
X446.247Y421.98
X446.226Y421.95
X446.204Y421.92
X446.182Y421.891
X446.159Y421.862
X446.135Y421.834
X446.111Y421.806
X446.086Y421.779
X446.06Y421.753
X446.034Y421.727
X446.007Y421.702
X445.979Y421.678
X445.951Y421.654
X445.922Y421.631
X445.893Y421.609
X445.863Y421.587
X445.833Y421.567
X445.802Y421.546
X445.771Y421.527
X445.739Y421.509
X445.707Y421.491
X445.674Y421.474
X445.641Y421.458
X445.607Y421.442
X445.574Y421.428
X445.539Y421.414
X445.505Y421.401
X445.47Y421.389
X445.435Y421.378
X445.4Y421.368
X445.364Y421.359
X445.328Y421.35
X445.292Y421.343
X445.256Y421.336
X445.22Y421.33
X445.183Y421.325
X445.147Y421.321
X445.11Y421.318
X445.073Y421.316
X445.036Y421.314
X444.999Y421.314
X396.5
Y419.314
X444.999
X445.036Y419.313
X445.073Y419.312
X445.11Y419.31
X445.147Y419.307
X445.183Y419.303
X445.22Y419.298
X445.256Y419.292
X445.292Y419.285
X445.328Y419.277
X445.364Y419.269
X445.4Y419.259
X445.435Y419.249
X445.47Y419.238
X445.505Y419.226
X445.539Y419.213
X445.574Y419.2
X445.607Y419.185
X445.641Y419.17
X445.674Y419.154
X445.707Y419.137
X445.739Y419.119
X445.771Y419.1
X445.802Y419.081
X445.833Y419.061
X445.863Y419.04
X445.893Y419.019
X445.922Y418.996
X445.951Y418.973
X445.979Y418.95
X446.007Y418.925
X446.034Y418.9
X446.06Y418.874
X446.086Y418.848
X446.111Y418.821
X446.135Y418.794
X446.159Y418.765
X446.182Y418.737
X446.204Y418.707
X446.226Y418.677
X446.247Y418.647
X446.267Y418.616
X446.286Y418.585
X446.305Y418.553
X446.322Y418.521
X446.339Y418.488
X446.355Y418.455
X446.371Y418.422
X446.385Y418.388
X446.399Y418.354
X446.412Y418.319
X446.424Y418.284
X446.435Y418.249
X446.445Y418.214
X446.455Y418.178
X446.463Y418.142
X446.471Y418.106
X446.477Y418.07
X446.483Y418.034
X446.488Y417.997
X446.492Y417.961
X446.495Y417.924
X446.498Y417.887
X446.499Y417.851
X446.5Y417.814
Y350.628
X446.499Y350.591
X446.498Y350.554
X446.495Y350.518
X446.492Y350.481
X446.488Y350.444
X446.483Y350.408
X446.477Y350.372
X446.471Y350.335
X446.463Y350.299
X446.455Y350.264
X446.445Y350.228
X446.435Y350.193
X446.424Y350.158
X446.412Y350.123
X446.399Y350.088
X446.385Y350.054
X446.371Y350.02
X446.355Y349.987
X446.339Y349.954
X446.322Y349.921
X446.305Y349.889
X446.286Y349.857
X446.267Y349.826
X446.247Y349.795
X446.226Y349.764
X446.204Y349.735
X446.182Y349.705
X446.159Y349.676
X446.135Y349.648
X446.111Y349.621
X446.086Y349.594
X446.06Y349.567
X446.034Y349.542
X446.007Y349.517
X445.979Y349.492
X445.951Y349.469
X445.922Y349.446
X445.893Y349.423
X445.863Y349.402
X445.833Y349.381
X445.802Y349.361
X445.771Y349.341
X445.739Y349.323
X445.707Y349.305
X445.674Y349.288
X445.641Y349.272
X445.607Y349.257
X445.574Y349.242
X445.539Y349.229
X445.505Y349.216
X445.47Y349.204
X445.435Y349.193
X445.4Y349.182
X445.364Y349.173
X445.328Y349.165
X445.292Y349.157
X445.256Y349.15
X445.22Y349.144
X445.183Y349.139
X445.147Y349.135
X445.11Y349.132
X445.073Y349.13
X445.036Y349.129
X444.999Y349.128
X396.5
Y347.128
X444.999
X445.036Y347.128
X445.073Y347.126
X445.11Y347.124
X445.147Y347.121
X445.183Y347.117
X445.22Y347.112
X445.256Y347.106
X445.292Y347.099
X445.328Y347.092
X445.364Y347.083
X445.4Y347.074
X445.435Y347.063
X445.47Y347.052
X445.505Y347.04
X445.539Y347.028
X445.574Y347.014
X445.607Y346.999
X445.641Y346.984
X445.674Y346.968
X445.707Y346.951
X445.739Y346.933
X445.771Y346.915
X445.802Y346.895
X445.833Y346.875
X445.863Y346.854
X445.893Y346.833
X445.922Y346.811
X445.951Y346.788
X445.979Y346.764
X446.007Y346.739
X446.034Y346.714
X446.06Y346.689
X446.086Y346.662
X446.111Y346.635
X446.135Y346.608
X446.159Y346.58
X446.182Y346.551
X446.204Y346.522
X446.226Y346.492
X446.247Y346.461
X446.267Y346.431
X446.286Y346.399
X446.305Y346.367
X446.322Y346.335
X446.339Y346.302
X446.355Y346.269
X446.371Y346.236
X446.385Y346.202
X446.399Y346.168
X446.412Y346.133
X446.424Y346.099
X446.435Y346.064
X446.445Y346.028
X446.455Y345.993
X446.463Y345.957
X446.471Y345.921
X446.477Y345.885
X446.483Y345.848
X446.488Y345.812
X446.492Y345.775
X446.495Y345.738
X446.498Y345.702
X446.499Y345.665
X446.5Y345.628
Y278.442
X446.499Y278.406
X446.498Y278.369
X446.495Y278.332
X446.492Y278.295
X446.488Y278.259
X446.483Y278.222
X446.477Y278.186
X446.471Y278.15
X446.463Y278.114
X446.455Y278.078
X446.445Y278.042
X446.435Y278.007
X446.424Y277.972
X446.412Y277.937
X446.399Y277.903
X446.385Y277.868
X446.371Y277.835
X446.355Y277.801
X446.339Y277.768
X446.322Y277.735
X446.305Y277.703
X446.286Y277.671
X446.267Y277.64
X446.247Y277.609
X446.226Y277.579
X446.204Y277.549
X446.182Y277.52
X446.159Y277.491
X446.135Y277.463
X446.111Y277.435
X446.086Y277.408
X446.06Y277.382
X446.034Y277.356
X446.007Y277.331
X445.979Y277.307
X445.951Y277.283
X445.922Y277.26
X445.893Y277.238
X445.863Y277.216
X445.833Y277.195
X445.802Y277.175
X445.771Y277.156
X445.739Y277.137
X445.707Y277.119
X445.674Y277.103
X445.641Y277.086
X445.607Y277.071
X445.574Y277.057
X445.539Y277.043
X445.505Y277.03
X445.47Y277.018
X445.435Y277.007
X445.4Y276.997
X445.364Y276.987
X445.328Y276.979
X445.292Y276.971
X445.256Y276.964
X445.22Y276.959
X445.183Y276.954
X445.147Y276.95
X445.11Y276.946
X445.073Y276.944
X445.036Y276.943
X444.999Y276.942
X396.5
Y274.942
X444.999
X445.036Y274.942
X445.073Y274.941
X445.11Y274.938
X445.147Y274.935
X445.183Y274.931
X445.22Y274.926
X445.256Y274.92
X445.292Y274.914
X445.328Y274.906
X445.364Y274.897
X445.4Y274.888
X445.435Y274.878
X445.47Y274.867
X445.505Y274.855
X445.539Y274.842
X445.574Y274.828
X445.607Y274.814
X445.641Y274.798
X445.674Y274.782
X445.707Y274.765
X445.739Y274.747
X445.771Y274.729
X445.802Y274.71
X445.833Y274.69
X445.863Y274.669
X445.893Y274.647
X445.922Y274.625
X445.951Y274.602
X445.979Y274.578
X446.007Y274.554
X446.034Y274.529
X446.06Y274.503
X446.086Y274.477
X446.111Y274.45
X446.135Y274.422
X446.159Y274.394
X446.182Y274.365
X446.204Y274.336
X446.226Y274.306
X446.247Y274.276
X446.267Y274.245
X446.286Y274.214
X446.305Y274.182
X446.322Y274.149
X446.339Y274.117
X446.355Y274.084
X446.371Y274.05
X446.385Y274.016
X446.399Y273.982
X446.412Y273.948
X446.424Y273.913
X446.435Y273.878
X446.445Y273.842
X446.455Y273.807
X446.463Y273.771
X446.471Y273.735
X446.477Y273.699
X446.483Y273.662
X446.488Y273.626
X446.492Y273.589
X446.495Y273.553
X446.498Y273.516
X446.499Y273.479
X446.5Y273.442
Y206.257
X446.499Y206.22
X446.498Y206.183
X446.495Y206.146
X446.492Y206.11
X446.488Y206.073
X446.483Y206.037
X446.477Y206
X446.471Y205.964
X446.463Y205.928
X446.455Y205.892
X446.445Y205.857
X446.435Y205.821
X446.424Y205.786
X446.412Y205.751
X446.399Y205.717
X446.385Y205.683
X446.371Y205.649
X446.355Y205.615
X446.339Y205.582
X446.322Y205.55
X446.305Y205.517
X446.286Y205.485
X446.267Y205.454
X446.247Y205.423
X446.226Y205.393
X446.204Y205.363
X446.182Y205.334
X446.159Y205.305
X446.135Y205.277
X446.111Y205.249
X446.086Y205.222
X446.06Y205.196
X446.034Y205.17
X446.007Y205.145
X445.979Y205.121
X445.951Y205.097
X445.922Y205.074
X445.893Y205.052
X445.863Y205.03
X445.833Y205.009
X445.802Y204.989
X445.771Y204.97
X445.739Y204.952
X445.707Y204.934
X445.674Y204.917
X445.641Y204.901
X445.607Y204.885
X445.574Y204.871
X445.539Y204.857
X445.505Y204.844
X445.47Y204.832
X445.435Y204.821
X445.4Y204.811
X445.364Y204.802
X445.328Y204.793
X445.292Y204.785
X445.256Y204.779
X445.22Y204.773
X445.183Y204.768
X445.147Y204.764
X445.11Y204.761
X445.073Y204.758
X445.036Y204.757
X444.999Y204.757
X396.5
Y202.757
X444.999
X445.036Y202.756
X445.073Y202.755
X445.11Y202.753
X445.147Y202.749
X445.183Y202.745
X445.22Y202.74
X445.256Y202.735
X445.292Y202.728
X445.328Y202.72
X445.364Y202.712
X445.4Y202.702
X445.435Y202.692
X445.47Y202.681
X445.505Y202.669
X445.539Y202.656
X445.574Y202.642
X445.607Y202.628
X445.641Y202.613
X445.674Y202.596
X445.707Y202.58
X445.739Y202.562
X445.771Y202.543
X445.802Y202.524
X445.833Y202.504
X445.863Y202.483
X445.893Y202.461
X445.922Y202.439
X445.951Y202.416
X445.979Y202.392
X446.007Y202.368
X446.034Y202.343
X446.06Y202.317
X446.086Y202.291
X446.111Y202.264
X446.135Y202.236
X446.159Y202.208
X446.182Y202.179
X446.204Y202.15
X446.226Y202.12
X446.247Y202.09
X446.267Y202.059
X446.286Y202.028
X446.305Y201.996
X446.322Y201.964
X446.339Y201.931
X446.355Y201.898
X446.371Y201.865
X446.385Y201.831
X446.399Y201.796
X446.412Y201.762
X446.424Y201.727
X446.435Y201.692
X446.445Y201.657
X446.455Y201.621
X446.463Y201.585
X446.471Y201.549
X446.477Y201.513
X446.483Y201.477
X446.488Y201.44
X446.492Y201.404
X446.495Y201.367
X446.498Y201.33
X446.499Y201.293
X446.5Y201.257
Y134.071
X446.499Y134.034
X446.498Y133.997
X446.495Y133.961
X446.492Y133.924
X446.488Y133.887
X446.483Y133.851
X446.477Y133.814
X446.471Y133.778
X446.463Y133.742
X446.455Y133.706
X446.445Y133.671
X446.435Y133.635
X446.424Y133.6
X446.412Y133.566
X446.399Y133.531
X446.385Y133.497
X446.371Y133.463
X446.355Y133.43
X446.339Y133.397
X446.322Y133.364
X446.305Y133.332
X446.286Y133.3
X446.267Y133.268
X446.247Y133.238
X446.226Y133.207
X446.204Y133.177
X446.182Y133.148
X446.159Y133.119
X446.135Y133.091
X446.111Y133.064
X446.086Y133.037
X446.06Y133.01
X446.034Y132.985
X446.007Y132.959
X445.979Y132.935
X445.951Y132.911
X445.922Y132.888
X445.893Y132.866
X445.863Y132.845
X445.833Y132.824
X445.802Y132.804
X445.771Y132.784
X445.739Y132.766
X445.707Y132.748
X445.674Y132.731
X445.641Y132.715
X445.607Y132.7
X445.574Y132.685
X445.539Y132.671
X445.505Y132.659
X445.47Y132.647
X445.435Y132.636
X445.4Y132.625
X445.364Y132.616
X445.328Y132.607
X445.292Y132.6
X445.256Y132.593
X445.22Y132.587
X445.183Y132.582
X445.147Y132.578
X445.11Y132.575
X445.073Y132.573
X445.036Y132.571
X444.999Y132.571
X396.5
Y130.571
X444.999
X445.036Y130.57
X445.073Y130.569
X445.11Y130.567
X445.147Y130.564
X445.183Y130.56
X445.22Y130.555
X445.256Y130.549
X445.292Y130.542
X445.328Y130.534
X445.364Y130.526
X445.4Y130.517
X445.435Y130.506
X445.47Y130.495
X445.505Y130.483
X445.539Y130.47
X445.574Y130.457
X445.607Y130.442
X445.641Y130.427
X445.674Y130.411
X445.707Y130.394
X445.739Y130.376
X445.771Y130.358
X445.802Y130.338
X445.833Y130.318
X445.863Y130.297
X445.893Y130.276
X445.922Y130.253
X445.951Y130.23
X445.979Y130.207
X446.007Y130.182
X446.034Y130.157
X446.06Y130.132
X446.086Y130.105
X446.111Y130.078
X446.135Y130.051
X446.159Y130.023
X446.182Y129.994
X446.204Y129.964
X446.226Y129.935
X446.247Y129.904
X446.267Y129.873
X446.286Y129.842
X446.305Y129.81
X446.322Y129.778
X446.339Y129.745
X446.355Y129.712
X446.371Y129.679
X446.385Y129.645
X446.399Y129.611
X446.412Y129.576
X446.424Y129.541
X446.435Y129.506
X446.445Y129.471
X446.455Y129.435
X446.463Y129.4
X446.471Y129.364
X446.477Y129.327
X446.483Y129.291
X446.488Y129.255
X446.492Y129.218
X446.495Y129.181
X446.498Y129.145
X446.499Y129.108
X446.5Y129.071
Y61.885
X446.499Y61.848
X446.498Y61.812
X446.495Y61.775
X446.492Y61.738
X446.488Y61.702
X446.483Y61.665
X446.477Y61.629
X446.471Y61.593
X446.463Y61.557
X446.455Y61.521
X446.445Y61.485
X446.435Y61.45
X446.424Y61.415
X446.412Y61.38
X446.399Y61.345
X446.385Y61.311
X446.371Y61.277
X446.355Y61.244
X446.339Y61.211
X446.322Y61.178
X446.305Y61.146
X446.286Y61.114
X446.267Y61.083
X446.247Y61.052
X446.226Y61.022
X446.204Y60.992
X446.182Y60.962
X446.159Y60.934
X446.135Y60.905
X446.111Y60.878
X446.086Y60.851
X446.06Y60.825
X446.034Y60.799
X446.007Y60.774
X445.979Y60.749
X445.951Y60.726
X445.922Y60.703
X445.893Y60.68
X445.863Y60.659
X445.833Y60.638
X445.802Y60.618
X445.771Y60.599
X445.739Y60.58
X445.707Y60.562
X445.674Y60.545
X445.641Y60.529
X445.607Y60.514
X445.574Y60.499
X445.539Y60.486
X445.505Y60.473
X445.47Y60.461
X445.435Y60.45
X445.4Y60.44
X445.364Y60.43
X445.328Y60.422
X445.292Y60.414
X445.256Y60.407
X445.22Y60.401
X445.183Y60.396
X445.147Y60.392
X445.11Y60.389
X445.073Y60.387
X445.036Y60.386
X444.999Y60.385
X396.5
Y58.385
X444.999
X445.036Y58.385
X445.073Y58.383
X445.11Y58.381
X445.147Y58.378
X445.183Y58.374
X445.22Y58.369
X445.256Y58.363
X445.292Y58.356
X445.328Y58.349
X445.364Y58.34
X445.4Y58.331
X445.435Y58.321
X445.47Y58.31
X445.505Y58.298
X445.539Y58.285
X445.574Y58.271
X445.607Y58.257
X445.641Y58.241
X445.674Y58.225
X445.707Y58.208
X445.739Y58.19
X445.771Y58.172
X445.802Y58.152
X445.833Y58.132
X445.863Y58.112
X445.893Y58.09
X445.922Y58.068
X445.951Y58.045
X445.979Y58.021
X446.007Y57.997
X446.034Y57.972
X446.06Y57.946
X446.086Y57.92
X446.111Y57.893
X446.135Y57.865
X446.159Y57.837
X446.182Y57.808
X446.204Y57.779
X446.226Y57.749
X446.247Y57.719
X446.267Y57.688
X446.286Y57.656
X446.305Y57.625
X446.322Y57.592
X446.339Y57.56
X446.355Y57.527
X446.371Y57.493
X446.385Y57.459
X446.399Y57.425
X446.412Y57.391
X446.424Y57.356
X446.435Y57.321
X446.445Y57.285
X446.455Y57.25
X446.463Y57.214
X446.471Y57.178
X446.477Y57.142
X446.483Y57.105
X446.488Y57.069
X446.492Y57.032
X446.495Y56.996
X446.498Y56.959
X446.499Y56.922
X446.5Y56.885
Y5
X446.499Y4.963
X446.498Y4.926
X446.495Y4.889
X446.492Y4.852
X446.488Y4.816
X446.483Y4.779
X446.477Y4.743
X446.471Y4.707
X446.463Y4.671
X446.455Y4.635
X446.445Y4.599
X446.435Y4.564
X446.424Y4.529
X446.412Y4.494
X446.399Y4.46
X446.385Y4.425
X446.371Y4.392
X446.355Y4.358
X446.339Y4.325
X446.322Y4.292
X446.305Y4.26
X446.286Y4.228
X446.267Y4.197
X446.247Y4.166
X446.226Y4.136
X446.204Y4.106
X446.182Y4.077
X446.159Y4.048
X446.135Y4.02
X446.111Y3.992
X446.086Y3.965
X446.06Y3.939
X446.034Y3.913
X446.007Y3.888
X445.979Y3.864
X445.951Y3.84
X445.922Y3.817
X445.893Y3.795
X445.863Y3.773
X445.833Y3.752
X445.802Y3.732
X445.771Y3.713
X445.739Y3.694
X445.707Y3.677
X445.674Y3.66
X445.641Y3.644
X445.607Y3.628
X445.574Y3.614
X445.539Y3.6
X445.505Y3.587
X445.47Y3.575
X445.435Y3.564
X445.4Y3.554
X445.364Y3.544
X445.328Y3.536
X445.292Y3.528
X445.256Y3.522
X445.22Y3.516
X445.183Y3.511
X445.147Y3.507
X445.11Y3.504
X445.073Y3.501
X445.036Y3.5
X444.999Y3.5
X431.5
Y0
X431.499Y-0.036
X431.498Y-0.073
X431.495Y-0.11
X431.492Y-0.147
X431.488Y-0.183
X431.483Y-0.22
X431.477Y-0.256
X431.471Y-0.292
X431.463Y-0.328
X431.455Y-0.364
X431.445Y-0.4
X431.435Y-0.435
X431.424Y-0.47
X431.412Y-0.505
X431.399Y-0.539
X431.385Y-0.574
X431.371Y-0.607
X431.355Y-0.641
X431.339Y-0.674
X431.322Y-0.707
X431.305Y-0.739
X431.286Y-0.771
X431.267Y-0.802
X431.247Y-0.833
X431.226Y-0.863
X431.204Y-0.893
X431.182Y-0.922
X431.159Y-0.951
X431.135Y-0.979
X431.111Y-1.007
X431.086Y-1.034
X431.06Y-1.06
X431.034Y-1.086
X431.007Y-1.111
X430.979Y-1.135
X430.951Y-1.159
X430.922Y-1.182
X430.893Y-1.204
X430.863Y-1.226
X430.833Y-1.247
X430.802Y-1.267
X430.771Y-1.286
X430.739Y-1.305
X430.707Y-1.322
X430.674Y-1.339
X430.641Y-1.355
X430.607Y-1.371
X430.574Y-1.385
X430.539Y-1.399
X430.505Y-1.412
X430.47Y-1.424
X430.435Y-1.435
X430.4Y-1.445
X430.364Y-1.455
X430.328Y-1.463
X430.292Y-1.471
X430.256Y-1.477
X430.22Y-1.483
X430.183Y-1.488
X430.147Y-1.492
X430.11Y-1.495
X430.073Y-1.498
X430.036Y-1.499
X430Y-1.5
X420
X419.963Y-1.499
X419.926Y-1.498
X419.889Y-1.495
X419.853Y-1.492
X419.816Y-1.488
X419.779Y-1.483
X419.743Y-1.477
X419.707Y-1.471
X419.671Y-1.463
X419.635Y-1.455
X419.599Y-1.445
X419.564Y-1.435
X419.529Y-1.424
X419.494Y-1.412
X419.46Y-1.399
X419.425Y-1.385
X419.392Y-1.371
X419.358Y-1.355
X419.325Y-1.339
X419.292Y-1.322
X419.26Y-1.305
X419.228Y-1.286
X419.197Y-1.267
X419.166Y-1.247
X419.136Y-1.226
X419.106Y-1.204
X419.077Y-1.182
X419.048Y-1.159
X419.02Y-1.135
X418.992Y-1.111
X418.965Y-1.086
X418.939Y-1.06
X418.913Y-1.034
X418.888Y-1.007
X418.864Y-0.979
X418.84Y-0.951
X418.817Y-0.922
X418.795Y-0.893
X418.773Y-0.863
X418.752Y-0.833
X418.732Y-0.802
X418.713Y-0.771
X418.694Y-0.739
X418.677Y-0.707
X418.66Y-0.674
X418.644Y-0.641
X418.628Y-0.607
X418.614Y-0.574
X418.6Y-0.539
X418.587Y-0.505
X418.575Y-0.47
X418.564Y-0.435
X418.554Y-0.4
X418.544Y-0.364
X418.536Y-0.328
X418.528Y-0.292
X418.522Y-0.256
X418.516Y-0.22
X418.511Y-0.183
X418.507Y-0.147
X418.504Y-0.11
X418.501Y-0.073
X418.5Y-0.036
X418.5Y0
Y3.5
X371.5
Y0
X371.499Y-0.036
X371.498Y-0.073
X371.495Y-0.11
X371.492Y-0.147
X371.488Y-0.183
X371.483Y-0.22
X371.477Y-0.256
X371.471Y-0.292
X371.463Y-0.328
X371.455Y-0.364
X371.445Y-0.4
X371.435Y-0.435
X371.424Y-0.47
X371.412Y-0.505
X371.399Y-0.539
X371.385Y-0.574
X371.371Y-0.607
X371.355Y-0.641
X371.339Y-0.674
X371.322Y-0.707
X371.305Y-0.739
X371.286Y-0.771
X371.267Y-0.802
X371.247Y-0.833
X371.226Y-0.863
X371.204Y-0.893
X371.182Y-0.922
X371.159Y-0.951
X371.135Y-0.979
X371.111Y-1.007
X371.086Y-1.034
X371.06Y-1.06
X371.034Y-1.086
X371.007Y-1.111
X370.979Y-1.135
X370.951Y-1.159
X370.922Y-1.182
X370.893Y-1.204
X370.863Y-1.226
X370.833Y-1.247
X370.802Y-1.267
X370.771Y-1.286
X370.739Y-1.305
X370.707Y-1.322
X370.674Y-1.339
X370.641Y-1.355
X370.607Y-1.371
X370.574Y-1.385
X370.539Y-1.399
X370.505Y-1.412
X370.47Y-1.424
X370.435Y-1.435
X370.4Y-1.445
X370.364Y-1.455
X370.328Y-1.463
X370.292Y-1.471
X370.256Y-1.477
X370.22Y-1.483
X370.183Y-1.488
X370.147Y-1.492
X370.11Y-1.495
X370.073Y-1.498
X370.036Y-1.499
X370Y-1.5
X359.999
X359.963Y-1.499
X359.926Y-1.498
X359.889Y-1.495
X359.852Y-1.492
X359.816Y-1.488
X359.779Y-1.483
X359.743Y-1.477
X359.707Y-1.471
X359.671Y-1.463
X359.635Y-1.455
X359.599Y-1.445
X359.564Y-1.435
X359.529Y-1.424
X359.494Y-1.412
X359.46Y-1.399
X359.425Y-1.385
X359.392Y-1.371
X359.358Y-1.355
X359.325Y-1.339
X359.292Y-1.322
X359.26Y-1.305
X359.228Y-1.286
X359.197Y-1.267
X359.166Y-1.247
X359.136Y-1.226
X359.106Y-1.204
X359.077Y-1.182
X359.048Y-1.159
X359.02Y-1.135
X358.992Y-1.111
X358.965Y-1.086
X358.939Y-1.06
X358.913Y-1.034
X358.888Y-1.007
X358.864Y-0.979
X358.84Y-0.951
X358.817Y-0.922
X358.795Y-0.893
X358.773Y-0.863
X358.752Y-0.833
X358.732Y-0.802
X358.713Y-0.771
X358.694Y-0.739
X358.677Y-0.707
X358.66Y-0.674
X358.644Y-0.641
X358.628Y-0.607
X358.614Y-0.574
X358.6Y-0.539
X358.587Y-0.505
X358.575Y-0.47
X358.564Y-0.435
X358.554Y-0.4
X358.544Y-0.364
X358.536Y-0.328
X358.528Y-0.292
X358.522Y-0.256
