(Created with grbl post processor 2023/10/14 21:29)
G21
(G-code generated with BlenderCAM and NC library)
G17G90
S12000M03
G00 Z160.0

G0X0Y0Z160
G1Z0F500
Z-0.2
Z-0.4
Z-0.6
Z-0.8
Z-1
Z-1.2
Z-1.4
Z-1.6
Z-1.8
Z-2
Z-2.2
Z-2.4
Z-2.6
Z-2.8
Z-3
Z-3.2
Z-3.4
Z-3.6
Z-3.8
Z-4
Z-4.2
Z-4.4
Z-4.6
Z-4.8
Z-5
Z-5.2
Z-5.4
Z-5.6
Z-5.8
Z-6
Z-6.2
Z-6.4
Z-6.6
Z-6.8
Z-7
Z-7.2
Z-7.4
Z-7.6
Z-7.8
Z-7.999
Z-8.2
Z-8.4
Z-8.599
Z-8.8
Z-9
Z-9.2
Z-9.4
Z-9.6
Z-9.8
Z-10
Z-10.199
Z-10.4
Z-10.6
Z-10.799
Z-11
Z-11.2
Z-11.399
Z-11.6
Z-11.8
Z-12
Z-12.2
Z-12.399
Z-12.6
Z-12.8
Z-12.999
Z-13.2
Z-13.4
Z-13.599
Z-13.8
Z-14
Z-14.2
Z-14.4
Z-14.599
Z-14.8
Z-15
Z-15.199
Z-15.4
Z-15.6
Z-15.799
Z-15.999
Z-16.2
Z-16.4
Z-16.6
Z-16.799
Z-16.999
Z-17.199
Z-17.4
Z-17.6
Z-17.8
Z-17.999
Z-18.199
Z-18.4
Z-18.6
Z-18.8
Z-18.999
Z-19.199
Z-19.399
Z-19.6
Z-19.8
Z-20
Z-20.199
Z-20.399
Z-20.6
Z-20.8
Z-21
Z-21.199
Z-21.399
Z-21.599
Z-21.8
Z-22
Z-22.2
Z-22.399
Z-22.599
Z-22.799
Z-23
Z-23.2
Z-23.399
Z-23.599
Z-23.799
Z-24
Z-24.2
Z-24.4
Z-24.599
Z-24.799
Z-24.999
Z-25.2
Z-25.4
Z-25.599
Z-25.799
Z-25.999
Z-26.2
Z-26.4
Z-26.6
Z-26.799
Z-26.999
Z-27.199
Z-27.4
Z-27.6
Z-27.799
Z-27.999
Z-28.199
Z-28.4
Z-28.6
Z-28.8
Z-28.999
Z-29.199
Z-29.399
Z-29.6
Z-29.8
Z-29.999
Z-30.199
Z-30.399
Z-30.599
Z-30.8
Z-30.999
Z-31.199
Z-31.399
Z-31.599
Z-31.799
Z-31.999
Z-32.199
Z-32.4
Z-32.6
Z-32.8
Z-33
Z-33.199
Z-33.333
Z-33.133F1000
Z-32.933
Z-32.733
Z-32.533
Z-32.333
Z-32.133
Z-31.933
Z-31.733
Z-31.533
Z-31.333
Z-31.133
Z-30.933
Z-30.733
Z-30.533
Z-30.333
Z-30.133
Z-29.933
Z-29.733
Z-29.533
Z-29.333
Z-29.133
Z-28.933
Z-28.733
Z-28.533
Z-28.333
Z-28.133
Z-27.933
Z-27.733
Z-27.533
Z-27.333
Z-27.133
Z-26.933
Z-26.733
Z-26.533
Z-26.333
Z-26.133
Z-25.933
Z-25.733
Z-25.533
Z-25.333
Z-25.133
Z-24.933
Z-24.733
Z-24.533
Z-24.333
Z-24.133
Z-23.933
Z-23.733
Z-23.533
Z-23.333
Z-23.133
Z-22.933
Z-22.733
Z-22.533
Z-22.333
Z-22.133
Z-21.933
Z-21.733
Z-21.533
Z-21.333
Z-21.133
Z-20.933
Z-20.733
Z-20.533
Z-20.333
Z-20.133
Z-19.933
Z-19.733
Z-19.533
Z-19.333
Z-19.133
Z-18.933
Z-18.733
Z-18.533
Z-18.333
Z-18.133
Z-17.933
Z-17.733
Z-17.533
Z-17.333
Z-17.133
Z-16.933
Z-16.733
Z-16.533
Z-16.333
Z-16.133
Z-15.933
Z-15.733
Z-15.533
Z-15.333
Z-15.133
Z-14.933
Z-14.733
Z-14.533
Z-14.333
Z-14.133
Z-13.933
Z-13.733
Z-13.533
Z-13.333
Z-13.133
Z-12.933
Z-12.733
Z-12.533
Z-12.333
Z-12.133
Z-11.933
Z-11.733
Z-11.533
Z-11.333
Z-11.133
Z-10.933
Z-10.733
Z-10.533
Z-10.333
Z-10.133
Z-9.933
Z-9.733
Z-9.533
Z-9.333
Z-9.133
Z-8.933
Z-8.733
Z-8.533
Z-8.333
Z-8.133
Z-7.933
Z-7.733
Z-7.533
Z-7.333
Z-7.133
Z-6.933
Z-6.733
Z-6.533
Z-6.333
Z-6.133
Z-5.933
Z-5.733
Z-5.533
Z-5.333
Z-5.133
Z-4.933
Z-4.733
Z-4.533
Z-4.333
Z-4.133
Z-3.933
Z-3.733
Z-3.533
Z-3.333
Z-3.133
Z-2.933
Z-2.733
Z-2.533
Z-2.333
Z-2.133
Z-1.933
Z-1.733
Z-1.533
Z-1.333
Z-1.133
Z-0.933
Z-0.733
Z-0.533
Z-0.333
Z-0.133
Z0
G0Z160
Y70.699
G1Z0F500
G0Z160
Y141.399
G1Z0
Z-0.2
Z-0.4
Z-0.6
Z-0.8
Z-1
Z-1.2
Z-1.4
Z-1.6
Z-1.8
Z-2
Z-2.2
Z-2.4
Z-2.6
Z-2.8
Z-3
Z-3.2
Z-3.4
Z-3.6
Z-3.8
Z-4
Z-4.2
Z-4.4
Z-4.6
Z-4.8
Z-5
Z-5.2
Z-5.4
Z-5.6
Z-5.8
Z-6
Z-6.2
Z-6.4
Z-6.6
Z-6.8
Z-7
Z-7.2
Z-7.4
Z-7.6
Z-7.8
Z-7.999
Z-8.2
Z-8.4
Z-8.599
Z-8.8
Z-9
Z-9.2
Z-9.4
Z-9.6
Z-9.8
Z-10
Z-10.199
Z-10.4
Z-10.6
Z-10.799
Z-11
Z-11.2
Z-11.399
Z-11.6
Z-11.8
Z-12
Z-12.2
Z-12.399
Z-12.6
Z-12.8
Z-12.999
Z-13.2
Z-13.4
Z-13.599
Z-13.8
Z-14
Z-14.2
Z-14.4
Z-14.599
Z-14.8
Z-15
Z-15.199
Z-15.4
Z-15.6
Z-15.799
Z-15.999
Z-16.2
Z-16.4
Z-16.6
Z-16.799
Z-16.999
Z-17.199
Z-17.4
Z-17.6
Z-17.8
Z-17.999
Z-18.199
Z-18.4
Z-18.6
Z-18.8
Z-18.999
Z-19.199
Z-19.399
Z-19.6
Z-19.8
Z-20
Z-20.199
Z-20.399
Z-20.6
Z-20.8
Z-21
Z-21.199
Z-21.399
Z-21.599
Z-21.8
Z-22
Z-22.2
Z-22.399
Z-22.599
Z-22.799
Z-23
Z-23.2
Z-23.399
Z-23.599
Z-23.799
Z-24
Z-24.2
Z-24.4
Z-24.599
Z-24.799
Z-24.999
Z-25.2
Z-25.4
Z-25.599
Z-25.799
Z-25.999
Z-26.2
Z-26.4
Z-26.6
Z-26.799
Z-26.999
Z-27.199
Z-27.4
Z-27.6
Z-27.799
Z-27.999
Z-28.199
Z-28.4
Z-28.6
Z-28.8
Z-28.999
Z-29.199
Z-29.399
Z-29.6
Z-29.8
Z-29.999
Z-30.199
Z-30.399
Z-30.599
Z-30.8
Z-30.999
Z-31.199
Z-31.399
Z-31.599
Z-31.799
Z-31.999
Z-32.199
Z-32.4
Z-32.6
Z-32.8
Z-33
Z-33.199
Z-33.399
Z-33.599
Z-33.799
Z-33.999
Z-34.199
Z-34.399
Z-34.6
Z-34.8
Z-35
Z-35.2
Z-35.399
Z-35.599
Z-35.799
Z-35.999
Z-36.199
Z-36.399
Z-36.599
Z-36.8
Z-37
Z-37.2
Z-37.4
Z-37.599
Z-37.799
Z-37.999
Z-38.199
Z-38.399
Z-38.599
Z-38.799
Z-39
Z-39.2
Z-39.4
Z-39.6
Z-39.799
Z-39.999
Z-40.199
Z-40.399
Z-40.599
Z-40.799
Z-40.999
Z-41.2
Z-41.4
Z-41.6
Z-41.8
Z-41.999
Z-42.199
Z-42.399
Z-42.599
Z-42.799
Z-42.999
Z-43.199
Z-43.399
Z-43.6
Z-43.8
Z-44
Z-44.199
Z-44.399
Z-44.599
Z-44.799
Z-44.999
Z-45.199
Z-45.399
Z-45.599
Z-45.8
Z-46
Z-46.2
Z-46.399
Z-46.599
Z-46.799
Z-46.999
Z-47.199
Z-47.399
Z-47.599
Z-47.799
Z-48
Z-48.2
Z-48.4
Z-48.599
Z-48.799
Z-48.999
Z-49.199
Z-49.399
Z-49.599
Z-49.799
Z-49.999
Z-50
G0Z160
Y212.099
G1Z0
Z-0.2
Z-0.4
Z-0.6
Z-0.8
Z-1
Z-1.2
Z-1.4
Z-1.6
Z-1.8
Z-2
Z-2.2
Z-2.4
Z-2.6
Z-2.8
Z-3
Z-3.2
Z-3.4
Z-3.6
Z-3.8
Z-4
Z-4.2
Z-4.4
Z-4.6
Z-4.8
Z-5
Z-5.2
Z-5.4
Z-5.6
Z-5.8
Z-6
Z-6.2
Z-6.4
Z-6.6
Z-6.8
Z-7
Z-7.2
Z-7.4
Z-7.6
Z-7.8
Z-7.999
Z-8.2
Z-8.4
Z-8.599
Z-8.8
Z-9
Z-9.2
Z-9.4
Z-9.6
Z-9.8
Z-10
Z-10.199
Z-10.4
Z-10.6
Z-10.799
Z-11
Z-11.2
Z-11.399
Z-11.6
Z-11.8
Z-12
Z-12.2
Z-12.399
Z-12.6
Z-12.8
Z-12.999
Z-13.2
Z-13.4
Z-13.599
Z-13.8
Z-14
Z-14.2
Z-14.4
Z-14.599
Z-14.8
Z-15
Z-15.199
Z-15.4
Z-15.6
Z-15.799
Z-15.999
Z-16.2
Z-16.4
Z-16.6
Z-16.799
Z-16.999
Z-17.199
Z-17.4
Z-17.6
Z-17.8
Z-17.999
Z-18.199
Z-18.4
Z-18.6
Z-18.8
Z-18.999
Z-19.199
Z-19.399
Z-19.6
Z-19.8
Z-20
Z-20.199
Z-20.399
Z-20.6
Z-20.8
Z-21
Z-21.199
Z-21.399
Z-21.599
Z-21.8
Z-22
Z-22.2
Z-22.399
Z-22.599
Z-22.799
Z-23
Z-23.2
Z-23.399
Z-23.599
Z-23.799
Z-24
Z-24.2
Z-24.4
Z-24.599
Z-24.799
Z-24.999
Z-25.2
Z-25.4
Z-25.599
Z-25.799
Z-25.999
Z-26.2
Z-26.4
Z-26.6
Z-26.799
Z-26.999
Z-27.199
Z-27.4
Z-27.6
Z-27.799
Z-27.999
Z-28.199
Z-28.4
Z-28.6
Z-28.8
Z-28.999
Z-29.199
Z-29.399
Z-29.6
Z-29.8
Z-29.999
Z-30.199
Z-30.399
Z-30.599
Z-30.8
Z-30.999
Z-31.199
Z-31.399
Z-31.599
Z-31.799
Z-31.999
Z-32.199
Z-32.4
Z-32.6
Z-32.8
Z-33
Z-33.199
Z-33.399
Z-33.599
Z-33.799
Z-33.999
Z-34.199
Z-34.399
Z-34.6
Z-34.8
Z-35
Z-35.2
Z-35.399
Z-35.599
Z-35.799
Z-35.999
Z-36.199
Z-36.399
Z-36.599
Z-36.8
Z-37
Z-37.2
Z-37.4
Z-37.599
Z-37.799
Z-37.999
Z-38.199
Z-38.399
Z-38.599
Z-38.799
Z-39
Z-39.2
Z-39.4
Z-39.6
Z-39.799
Z-39.999
Z-40.199
Z-40.399
Z-40.599
Z-40.799
Z-40.999
Z-41.2
Z-41.4
Z-41.6
Z-41.8
Z-41.999
Z-42.199
Z-42.399
Z-42.599
Z-42.799
Z-42.999
Z-43.199
Z-43.399
Z-43.6
Z-43.8
Z-44
Z-44.199
Z-44.399
Z-44.599
Z-44.799
Z-44.999
Z-45.199
Z-45.399
Z-45.599
Z-45.8
Z-46
Z-46.2
Z-46.399
Z-46.599
Z-46.799
Z-46.999
Z-47.199
Z-47.399
Z-47.599
Z-47.799
Z-48
Z-48.2
Z-48.4
Z-48.599
Z-48.799
Z-48.999
Z-49.199
Z-49.399
Z-49.599
Z-49.799
Z-49.999
Z-50.2
Z-50.4
Z-50.6
Z-50.799
Z-50.999
Z-51.199
Z-51.399
Z-51.599
Z-51.799
Z-51.999
Z-52.199
Z-52.4
Z-52.6
Z-52.8
Z-52.999
Z-53.199
Z-53.399
Z-53.599
Z-53.799
Z-53.999
Z-54.199
Z-54.399
Z-54.6
Z-54.8
Z-55
Z-55.199
Z-55.399
Z-55.599
Z-55.799
Z-55.999
Z-56.199
Z-56.399
Z-56.599
Z-56.8
Z-57
Z-57.2
Z-57.399
Z-57.599
Z-57.799
Z-57.999
Z-58.199
Z-58.399
Z-58.599
Z-58.799
Z-59
Z-59.2
Z-59.4
Z-59.599
Z-59.799
Z-59.999
Z-60.199
Z-60.399
Z-60.599
Z-60.799
Z-60.999
Z-61.199
Z-61.4
Z-61.6
Z-61.799
Z-61.999
Z-62.199
Z-62.399
Z-62.6
Z-62.799
Z-63
Z-63.199
Z-63.4
Z-63.599
Z-63.8
Z-63.999
Z-64.199
Z-64.399
Z-64.599
Z-64.8
Z-64.999
Z-65.2
Z-65.399
Z-65.6
Z-65.799
Z-66
Z-66.199
Z-66.399
Z-66.599
Z-66.666
G0Z160
Y282.799
G1Z0
Z-0.2
Z-0.4
Z-0.6
Z-0.8
Z-1
Z-1.2
Z-1.4
Z-1.6
Z-1.8
Z-2
Z-2.2
Z-2.4
Z-2.6
Z-2.8
Z-3
Z-3.2
Z-3.4
Z-3.6
Z-3.8
Z-4
Z-4.2
Z-4.4
Z-4.6
Z-4.8
Z-5
Z-5.2
Z-5.4
Z-5.6
Z-5.8
Z-6
Z-6.2
Z-6.4
Z-6.6
Z-6.8
Z-7
Z-7.2
Z-7.4
Z-7.6
Z-7.8
Z-7.999
Z-8.2
Z-8.4
Z-8.599
Z-8.8
Z-9
Z-9.2
Z-9.4
Z-9.6
Z-9.8
Z-10
Z-10.199
Z-10.4
Z-10.6
Z-10.799
Z-11
Z-11.2
Z-11.399
Z-11.6
Z-11.8
Z-12
Z-12.2
Z-12.399
Z-12.6
Z-12.8
Z-12.999
Z-13.2
Z-13.4
Z-13.599
Z-13.8
Z-14
Z-14.2
Z-14.4
Z-14.599
Z-14.8
Z-15
Z-15.199
Z-15.4
Z-15.6
Z-15.799
Z-15.999
Z-16.2
Z-16.4
Z-16.6
Z-16.799
Z-16.999
Z-17.199
Z-17.4
Z-17.6
Z-17.8
Z-17.999
Z-18.199
Z-18.4
Z-18.6
Z-18.8
Z-18.999
Z-19.199
Z-19.399
Z-19.6
Z-19.8
Z-20
Z-20.199
Z-20.399
Z-20.6
Z-20.8
Z-21
Z-21.199
Z-21.399
Z-21.599
Z-21.8
Z-22
Z-22.2
Z-22.399
Z-22.599
Z-22.799
Z-23
Z-23.2
Z-23.399
Z-23.599
Z-23.799
Z-24
Z-24.2
Z-24.4
Z-24.599
Z-24.799
Z-24.999
Z-25.2
Z-25.4
Z-25.599
Z-25.799
Z-25.999
Z-26.2
Z-26.4
Z-26.6
Z-26.799
Z-26.999
Z-27.199
Z-27.4
Z-27.6
Z-27.799
Z-27.999
Z-28.199
Z-28.4
Z-28.6
Z-28.8
Z-28.999
Z-29.199
Z-29.399
Z-29.6
Z-29.8
Z-29.999
Z-30.199
Z-30.399
Z-30.599
Z-30.8
Z-30.999
Z-31.199
Z-31.399
Z-31.599
Z-31.799
Z-31.999
Z-32.199
Z-32.4
Z-32.6
Z-32.8
Z-33
Z-33.199
Z-33.399
Z-33.599
Z-33.799
Z-33.999
Z-34.199
Z-34.399
Z-34.6
Z-34.8
Z-35
Z-35.2
Z-35.399
Z-35.599
Z-35.799
Z-35.999
Z-36.199
Z-36.399
Z-36.599
Z-36.8
Z-37
Z-37.2
Z-37.4
Z-37.599
Z-37.799
Z-37.999
Z-38.199
Z-38.399
Z-38.599
Z-38.799
Z-39
Z-39.2
Z-39.4
Z-39.6
Z-39.799
Z-39.999
Z-40.199
Z-40.399
Z-40.599
Z-40.799
Z-40.999
Z-41.2
Z-41.4
Z-41.6
Z-41.8
Z-41.999
Z-42.199
Z-42.399
Z-42.599
Z-42.799
Z-42.999
Z-43.199
Z-43.399
Z-43.6
Z-43.8
Z-44
Z-44.199
Z-44.399
Z-44.599
Z-44.799
Z-44.999
Z-45.199
Z-45.399
Z-45.599
Z-45.8
Z-46
Z-46.2
Z-46.399
Z-46.599
Z-46.799
Z-46.999
Z-47.199
Z-47.399
Z-47.599
Z-47.799
Z-48
Z-48.2
Z-48.4
Z-48.599
Z-48.799
Z-48.999
Z-49.199
Z-49.399
Z-49.599
Z-49.799
Z-49.999
Z-50
G0Z160
X70.7
G1Z0
Z-0.2
Z-0.4
Z-0.6
Z-0.8
Z-1
Z-1.2
Z-1.4
Z-1.6
Z-1.8
Z-2
Z-2.2
Z-2.4
Z-2.6
Z-2.8
Z-3
Z-3.2
Z-3.4
Z-3.6
Z-3.8
Z-4
Z-4.2
Z-4.4
Z-4.6
Z-4.8
Z-5
Z-5.2
Z-5.4
Z-5.6
Z-5.8
Z-6
Z-6.2
Z-6.4
Z-6.6
Z-6.8
Z-7
Z-7.2
Z-7.4
Z-7.6
Z-7.8
Z-7.999
Z-8.2
Z-8.4
Z-8.599
Z-8.8
Z-9
Z-9.2
Z-9.4
Z-9.6
Z-9.8
Z-10
Z-10.199
Z-10.4
Z-10.6
Z-10.799
Z-11
Z-11.2
Z-11.399
Z-11.6
Z-11.8
Z-12
Z-12.2
Z-12.399
Z-12.6
Z-12.8
Z-12.999
Z-13.2
Z-13.4
Z-13.599
Z-13.8
Z-14
Z-14.2
Z-14.4
Z-14.599
Z-14.8
Z-15
Z-15.199
Z-15.4
Z-15.6
Z-15.799
Z-15.999
Z-16.2
Z-16.4
Z-16.6
Z-16.666
G0Z160
Y212.099
G1Z0
Z-0.2
Z-0.4
Z-0.6
Z-0.8
Z-1
Z-1.2
Z-1.4
Z-1.6
Z-1.8
Z-2
Z-2.2
Z-2.4
Z-2.6
Z-2.8
Z-3
Z-3.2
Z-3.4
Z-3.6
Z-3.8
Z-4
Z-4.2
Z-4.4
Z-4.6
Z-4.8
Z-5
Z-5.2
Z-5.4
Z-5.6
Z-5.8
Z-6
Z-6.2
Z-6.4
Z-6.6
Z-6.8
Z-7
Z-7.2
Z-7.4
Z-7.6
Z-7.8
Z-7.999
Z-8.2
Z-8.4
Z-8.599
Z-8.8
Z-9
Z-9.2
Z-9.4
Z-9.6
Z-9.8
Z-10
Z-10.199
Z-10.4
Z-10.6
Z-10.799
Z-11
Z-11.2
Z-11.399
Z-11.6
Z-11.8
Z-12
Z-12.2
Z-12.399
Z-12.6
Z-12.8
Z-12.999
Z-13.2
Z-13.4
Z-13.599
Z-13.8
Z-14
Z-14.2
Z-14.4
Z-14.599
Z-14.8
Z-15
Z-15.199
Z-15.4
Z-15.6
Z-15.799
Z-15.999
Z-16.2
Z-16.4
Z-16.6
Z-16.799
Z-16.999
Z-17.199
Z-17.4
Z-17.6
Z-17.8
Z-17.999
Z-18.199
Z-18.4
Z-18.6
Z-18.8
Z-18.999
Z-19.199
Z-19.399
Z-19.6
Z-19.8
Z-20
Z-20.199
Z-20.399
Z-20.6
Z-20.8
Z-21
Z-21.199
Z-21.399
Z-21.599
Z-21.8
Z-22
Z-22.2
Z-22.399
Z-22.599
Z-22.799
Z-23
Z-23.2
Z-23.399
Z-23.599
Z-23.799
Z-24
Z-24.2
Z-24.4
Z-24.599
Z-24.799
Z-24.999
Z-25.2
Z-25.4
Z-25.599
Z-25.799
Z-25.999
Z-26.2
Z-26.4
Z-26.6
Z-26.799
Z-26.999
Z-27.199
Z-27.4
Z-27.6
Z-27.799
Z-27.999
Z-28.199
Z-28.4
Z-28.6
Z-28.8
Z-28.999
Z-29.199
Z-29.399
Z-29.6
Z-29.8
Z-29.999
Z-30.199
Z-30.399
Z-30.599
Z-30.8
Z-30.999
Z-31.199
Z-31.399
Z-31.599
Z-31.799
Z-31.999
Z-32.199
Z-32.4
Z-32.6
Z-32.8
Z-33
Z-33.199
Z-33.333
G0Z160
X141.4
G1Z0
Z-0.2
Z-0.4
Z-0.6
Z-0.8
Z-1
Z-1.2
Z-1.4
Z-1.6
Z-1.8
Z-2
Z-2.2
Z-2.4
Z-2.6
Z-2.8
Z-3
Z-3.2
Z-3.4
Z-3.6
Z-3.8
Z-4
Z-4.2
Z-4.4
Z-4.6
Z-4.8
Z-5
Z-5.2
Z-5.4
Z-5.6
Z-5.8
Z-6
Z-6.2
Z-6.4
Z-6.6
Z-6.8
Z-7
Z-7.2
Z-7.4
Z-7.6
Z-7.8
Z-7.999
Z-8.2
Z-8.4
Z-8.599
Z-8.8
Z-9
Z-9.2
Z-9.4
Z-9.6
Z-9.8
Z-10
Z-10.199
Z-10.4
Z-10.6
Z-10.799
Z-11
Z-11.2
Z-11.399
Z-11.6
Z-11.8
Z-12
Z-12.2
Z-12.399
Z-12.6
Z-12.8
Z-12.999
Z-13.2
Z-13.4
Z-13.599
Z-13.8
Z-14
Z-14.2
Z-14.4
Z-14.599
Z-14.8
Z-15
Z-15.199
Z-15.4
Z-15.6
Z-15.799
Z-15.999
Z-16.2
Z-16.4
Z-16.6
Z-16.799
Z-16.999
Z-17.199
Z-17.4
Z-17.6
Z-17.8
Z-17.999
Z-18.199
Z-18.4
Z-18.6
Z-18.8
Z-18.999
Z-19.199
Z-19.399
Z-19.6
Z-19.8
Z-20
Z-20.199
Z-20.399
Z-20.6
Z-20.8
Z-21
Z-21.199
Z-21.399
Z-21.599
Z-21.8
Z-22
Z-22.2
Z-22.399
Z-22.599
Z-22.799
Z-23
Z-23.2
Z-23.399
Z-23.599
Z-23.799
Z-24
Z-24.2
Z-24.4
Z-24.599
Z-24.799
Z-24.999
Z-25.2
Z-25.4
Z-25.599
Z-25.799
Z-25.999
Z-26.2
Z-26.4
Z-26.6
Z-26.799
Z-26.999
Z-27.199
Z-27.4
Z-27.6
Z-27.799
Z-27.999
Z-28.199
Z-28.4
Z-28.6
Z-28.8
Z-28.999
Z-29.199
Z-29.399
Z-29.6
Z-29.8
Z-29.999
Z-30.199
Z-30.399
Z-30.599
Z-30.8
Z-30.999
Z-31.199
Z-31.399
Z-31.599
Z-31.799
Z-31.999
Z-32.199
Z-32.4
Z-32.6
Z-32.8
Z-33
Z-33.199
Z-33.399
Z-33.599
Z-33.799
Z-33.999
Z-34.199
Z-34.399
Z-34.6
Z-34.8
Z-35
Z-35.2
Z-35.399
Z-35.599
Z-35.799
Z-35.999
Z-36.199
Z-36.399
Z-36.599
Z-36.8
Z-37
Z-37.2
Z-37.4
Z-37.599
Z-37.799
Z-37.999
Z-38.199
Z-38.399
Z-38.599
Z-38.799
Z-39
Z-39.2
Z-39.4
Z-39.6
Z-39.799
Z-39.999
Z-40.199
Z-40.399
Z-40.599
Z-40.799
Z-40.999
Z-41.2
Z-41.4
Z-41.6
Z-41.8
Z-41.999
Z-42.199
Z-42.399
Z-42.599
Z-42.799
Z-42.999
Z-43.199
Z-43.399
Z-43.6
Z-43.8
Z-44
Z-44.199
Z-44.399
Z-44.599
Z-44.799
Z-44.999
Z-45.199
Z-45.399
Z-45.599
Z-45.8
Z-46
Z-46.2
Z-46.399
Z-46.599
Z-46.799
Z-46.999
Z-47.199
Z-47.399
Z-47.599
Z-47.799
Z-48
Z-48.2
Z-48.4
Z-48.599
Z-48.799
Z-48.999
Z-49.199
Z-49.399
Z-49.599
Z-49.799
Z-49.999
Z-50.2
Z-50.4
Z-50.6
Z-50.799
Z-50.999
Z-51.199
Z-51.399
Z-51.599
Z-51.799
Z-51.999
Z-52.199
Z-52.4
Z-52.6
Z-52.8
Z-52.999
Z-53.199
Z-53.399
Z-53.599
Z-53.799
Z-53.999
Z-54.199
Z-54.399
Z-54.6
Z-54.8
Z-55
Z-55.199
Z-55.399
Z-55.599
Z-55.799
Z-55.999
Z-56.199
Z-56.399
Z-56.599
Z-56.8
Z-57
Z-57.2
Z-57.399
Z-57.599
Z-57.799
Z-57.999
Z-58.199
Z-58.399
Z-58.599
Z-58.799
Z-59
Z-59.2
Z-59.4
Z-59.599
Z-59.799
Z-59.999
Z-60.199
Z-60.399
Z-60.599
Z-60.799
Z-60.999
Z-61.199
Z-61.4
Z-61.6
Z-61.799
Z-61.999
Z-62.199
Z-62.399
Z-62.6
Z-62.799
Z-63
Z-63.199
Z-63.4
Z-63.599
Z-63.8
Z-63.999
Z-64.199
Z-64.399
Z-64.599
Z-64.8
Z-64.999
Z-65.2
Z-65.399
Z-65.6
Z-65.799
Z-66
Z-66.199
Z-66.399
Z-66.599
Z-66.799
Z-67
Z-67.199
Z-67.4
Z-67.599
Z-67.8
Z-67.999
Z-68.2
Z-68.399
Z-68.599
Z-68.799
Z-68.999
Z-69.2
Z-69.399
Z-69.6
Z-69.799
Z-70
Z-70.199
Z-70.4
Z-70.599
Z-70.799
Z-70.999
Z-71.199
Z-71.4
Z-71.599
Z-71.8
Z-71.999
Z-72.2
Z-72.399
Z-72.6
Z-72.799
Z-72.999
Z-73.199
Z-73.399
Z-73.6
Z-73.799
Z-74
Z-74.199
Z-74.4
Z-74.599
Z-74.8
Z-74.999
Z-75.199
Z-75.399
Z-75.599
Z-75.8
Z-75.999
Z-76.2
Z-76.399
Z-76.6
Z-76.799
Z-77
Z-77.199
Z-77.399
Z-77.599
Z-77.799
Z-78
Z-78.199
Z-78.4
Z-78.599
Z-78.8
Z-78.999
Z-79.2
Z-79.399
Z-79.599
Z-79.799
Z-79.999
Z-80.2
Z-80.399
Z-80.6
Z-80.799
Z-81
Z-81.199
Z-81.4
Z-81.599
Z-81.799
Z-81.999
Z-82.199
Z-82.4
Z-82.599
Z-82.8
Z-82.999
Z-83.2
Z-83.333
G0Z160
Y282.799
G1Z0
Z-0.2
Z-0.4
Z-0.6
Z-0.8
Z-1
Z-1.2
Z-1.4
Z-1.6
Z-1.8
Z-2
Z-2.2
Z-2.4
Z-2.6
Z-2.8
Z-3
Z-3.2
Z-3.4
Z-3.6
Z-3.8
Z-4
Z-4.2
Z-4.4
Z-4.6
Z-4.8
Z-5
Z-5.2
Z-5.4
Z-5.6
Z-5.8
Z-6
Z-6.2
Z-6.4
Z-6.6
Z-6.8
Z-7
Z-7.2
Z-7.4
Z-7.6
Z-7.8
Z-7.999
Z-8.2
Z-8.4
Z-8.599
Z-8.8
Z-9
Z-9.2
Z-9.4
Z-9.6
Z-9.8
Z-10
Z-10.199
Z-10.4
Z-10.6
Z-10.799
Z-11
Z-11.2
Z-11.399
Z-11.6
Z-11.8
Z-12
Z-12.2
Z-12.399
Z-12.6
Z-12.8
Z-12.999
Z-13.2
Z-13.4
Z-13.599
Z-13.8
Z-14
Z-14.2
Z-14.4
Z-14.599
Z-14.8
Z-15
Z-15.199
Z-15.4
Z-15.6
Z-15.799
Z-15.999
Z-16.2
Z-16.4
Z-16.6
Z-16.799
Z-16.999
Z-17.199
Z-17.4
Z-17.6
Z-17.8
Z-17.999
Z-18.199
Z-18.4
Z-18.6
Z-18.8
Z-18.999
Z-19.199
Z-19.399
Z-19.6
Z-19.8
Z-20
Z-20.199
Z-20.399
Z-20.6
Z-20.8
Z-21
Z-21.199
Z-21.399
Z-21.599
Z-21.8
Z-22
Z-22.2
Z-22.399
Z-22.599
Z-22.799
Z-23
Z-23.2
Z-23.399
Z-23.599
Z-23.799
Z-24
Z-24.2
Z-24.4
Z-24.599
Z-24.799
Z-24.999
Z-25.2
Z-25.4
Z-25.599
Z-25.799
Z-25.999
Z-26.2
Z-26.4
Z-26.6
Z-26.799
Z-26.999
Z-27.199
Z-27.4
Z-27.6
Z-27.799
Z-27.999
Z-28.199
Z-28.4
Z-28.6
Z-28.8
Z-28.999
Z-29.199
Z-29.399
Z-29.6
Z-29.8
Z-29.999
Z-30.199
Z-30.399
Z-30.599
Z-30.8
Z-30.999
Z-31.199
Z-31.399
Z-31.599
Z-31.799
Z-31.999
Z-32.199
Z-32.4
Z-32.6
Z-32.8
Z-33
Z-33.199
Z-33.399
Z-33.599
Z-33.799
Z-33.999
Z-34.199
Z-34.399
Z-34.6
Z-34.8
Z-35
Z-35.2
Z-35.399
Z-35.599
Z-35.799
Z-35.999
Z-36.199
Z-36.399
Z-36.599
Z-36.8
Z-37
Z-37.2
Z-37.4
Z-37.599
Z-37.799
Z-37.999
Z-38.199
Z-38.399
Z-38.599
Z-38.799
Z-39
Z-39.2
Z-39.4
Z-39.6
Z-39.799
Z-39.999
Z-40.199
Z-40.399
Z-40.599
Z-40.799
Z-40.999
Z-41.2
Z-41.4
Z-41.6
Z-41.8
Z-41.999
Z-42.199
Z-42.399
Z-42.599
Z-42.799
Z-42.999
Z-43.199
Z-43.399
Z-43.6
Z-43.8
Z-44
Z-44.199
Z-44.399
Z-44.599
Z-44.799
Z-44.999
Z-45.199
Z-45.399
Z-45.599
Z-45.8
Z-46
Z-46.2
Z-46.399
Z-46.599
Z-46.799
Z-46.999
Z-47.199
Z-47.399
Z-47.599
Z-47.799
Z-48
Z-48.2
Z-48.4
Z-48.599
Z-48.799
Z-48.999
Z-49.199
Z-49.399
Z-49.599
Z-49.799
Z-49.999
Z-50.2
Z-50.4
Z-50.6
Z-50.799
Z-50.999
Z-51.199
Z-51.399
Z-51.599
Z-51.799
Z-51.999
Z-52.199
Z-52.4
Z-52.6
Z-52.8
Z-52.999
Z-53.199
Z-53.399
Z-53.599
Z-53.799
Z-53.999
Z-54.199
Z-54.399
Z-54.6
Z-54.8
Z-55
Z-55.199
Z-55.399
Z-55.599
Z-55.799
Z-55.999
Z-56.199
Z-56.399
Z-56.599
Z-56.8
Z-57
Z-57.2
Z-57.399
Z-57.599
Z-57.799
Z-57.999
Z-58.199
Z-58.399
Z-58.599
Z-58.799
Z-59
Z-59.2
Z-59.4
Z-59.599
Z-59.799
Z-59.999
Z-60.199
Z-60.399
Z-60.599
Z-60.799
Z-60.999
Z-61.199
Z-61.4
Z-61.6
Z-61.799
Z-61.999
Z-62.199
Z-62.399
Z-62.6
Z-62.799
Z-63
Z-63.199
Z-63.4
Z-63.599
Z-63.8
Z-63.999
Z-64.199
Z-64.399
Z-64.599
Z-64.8
Z-64.999
Z-65.2
Z-65.399
Z-65.6
Z-65.799
Z-66
Z-66.199
Z-66.399
Z-66.599
Z-66.666
G0Z160
X212.099
G1Z0
Z-0.2
Z-0.4
Z-0.6
Z-0.8
Z-1
Z-1.2
Z-1.4
Z-1.6
Z-1.8
Z-2
Z-2.2
Z-2.4
Z-2.6
Z-2.8
Z-3
Z-3.2
Z-3.4
Z-3.6
Z-3.8
Z-4
Z-4.2
Z-4.4
Z-4.6
Z-4.8
Z-5
Z-5.2
Z-5.4
Z-5.6
Z-5.8
Z-6
Z-6.2
Z-6.4
Z-6.6
Z-6.8
Z-7
Z-7.2
Z-7.4
Z-7.6
Z-7.8
Z-7.999
Z-8.2
Z-8.4
Z-8.599
Z-8.8
Z-9
Z-9.2
Z-9.4
Z-9.6
Z-9.8
Z-10
Z-10.199
Z-10.4
Z-10.6
Z-10.799
Z-11
Z-11.2
Z-11.399
Z-11.6
Z-11.8
Z-12
Z-12.2
Z-12.399
Z-12.6
Z-12.8
Z-12.999
Z-13.2
Z-13.4
Z-13.599
Z-13.8
Z-14
Z-14.2
Z-14.4
Z-14.599
Z-14.8
Z-15
Z-15.199
Z-15.4
Z-15.6
Z-15.799
Z-15.999
Z-16.2
Z-16.4
Z-16.6
Z-16.799
Z-16.999
Z-17.199
Z-17.4
Z-17.6
Z-17.8
Z-17.999
Z-18.199
Z-18.4
Z-18.6
Z-18.8
Z-18.999
Z-19.199
Z-19.399
Z-19.6
Z-19.8
Z-20
Z-20.199
Z-20.399
Z-20.6
Z-20.8
Z-21
Z-21.199
Z-21.399
Z-21.599
Z-21.8
Z-22
Z-22.2
Z-22.399
Z-22.599
Z-22.799
Z-23
Z-23.2
Z-23.399
Z-23.599
Z-23.799
Z-24
Z-24.2
Z-24.4
Z-24.599
Z-24.799
Z-24.999
Z-25.2
Z-25.4
Z-25.599
Z-25.799
Z-25.999
Z-26.2
Z-26.4
Z-26.6
Z-26.799
Z-26.999
Z-27.199
Z-27.4
Z-27.6
Z-27.799
Z-27.999
Z-28.199
Z-28.4
Z-28.6
Z-28.8
Z-28.999
Z-29.199
Z-29.399
Z-29.6
Z-29.8
Z-29.999
Z-30.199
Z-30.399
Z-30.599
Z-30.8
Z-30.999
Z-31.199
Z-31.399
Z-31.599
Z-31.799
Z-31.999
Z-32.199
Z-32.4
Z-32.6
Z-32.8
Z-33
Z-33.199
Z-33.399
Z-33.599
Z-33.799
Z-33.999
Z-34.199
Z-34.399
Z-34.6
Z-34.8
Z-35
Z-35.2
Z-35.399
Z-35.599
Z-35.799
Z-35.999
Z-36.199
Z-36.399
Z-36.599
Z-36.8
Z-37
Z-37.2
Z-37.4
Z-37.599
Z-37.799
Z-37.999
Z-38.199
Z-38.399
Z-38.599
Z-38.799
Z-39
Z-39.2
Z-39.4
Z-39.6
Z-39.799
Z-39.999
Z-40.199
Z-40.399
Z-40.599
Z-40.799
Z-40.999
Z-41.2
Z-41.4
Z-41.6
Z-41.8
Z-41.999
Z-42.199
Z-42.399
Z-42.599
Z-42.799
Z-42.999
Z-43.199
Z-43.399
Z-43.6
Z-43.8
Z-44
Z-44.199
Z-44.399
Z-44.599
Z-44.799
Z-44.999
Z-45.199
Z-45.399
Z-45.599
Z-45.8
Z-46
Z-46.2
Z-46.399
Z-46.599
Z-46.799
Z-46.999
Z-47.199
Z-47.399
Z-47.599
Z-47.799
Z-48
Z-48.2
Z-48.4
Z-48.599
Z-48.799
Z-48.999
Z-49.199
Z-49.399
Z-49.599
Z-49.799
Z-49.999
Z-50.2
Z-50.4
Z-50.6
Z-50.799
Z-50.999
Z-51.199
Z-51.399
Z-51.599
Z-51.799
Z-51.999
Z-52.199
Z-52.4
Z-52.6
Z-52.8
Z-52.999
Z-53.199
Z-53.399
Z-53.599
Z-53.799
Z-53.999
Z-54.199
Z-54.399
Z-54.6
Z-54.8
Z-55
Z-55.199
Z-55.399
Z-55.599
Z-55.799
Z-55.999
Z-56.199
Z-56.399
Z-56.599
Z-56.8
Z-57
Z-57.2
Z-57.399
Z-57.599
Z-57.799
Z-57.999
Z-58.199
Z-58.399
Z-58.599
Z-58.799
Z-59
Z-59.2
Z-59.4
Z-59.599
Z-59.799
Z-59.999
Z-60.199
Z-60.399
Z-60.599
Z-60.799
Z-60.999
Z-61.199
Z-61.4
Z-61.6
Z-61.799
Z-61.999
Z-62.199
Z-62.399
Z-62.6
Z-62.799
Z-63
Z-63.199
Z-63.4
Z-63.599
Z-63.8
Z-63.999
Z-64.199
Z-64.399
Z-64.599
Z-64.8
Z-64.999
Z-65.2
Z-65.399
Z-65.6
Z-65.799
Z-66
Z-66.199
Z-66.399
Z-66.599
Z-66.799
Z-67
Z-67.199
Z-67.4
Z-67.599
Z-67.8
Z-67.999
Z-68.2
Z-68.399
Z-68.599
Z-68.799
Z-68.999
Z-69.2
Z-69.399
Z-69.6
Z-69.799
Z-70
Z-70.199
Z-70.4
Z-70.599
Z-70.799
Z-70.999
Z-71.199
Z-71.4
Z-71.599
Z-71.8
Z-71.999
Z-72.2
Z-72.399
Z-72.6
Z-72.799
Z-72.999
Z-73.199
Z-73.399
Z-73.6
Z-73.799
Z-74
Z-74.199
Z-74.4
Z-74.599
Z-74.8
Z-74.999
Z-75.199
Z-75.399
Z-75.599
Z-75.8
Z-75.999
Z-76.2
Z-76.399
Z-76.6
Z-76.799
Z-77
Z-77.199
Z-77.399
Z-77.599
Z-77.799
Z-78
Z-78.199
Z-78.4
Z-78.599
Z-78.8
Z-78.999
Z-79.2
Z-79.399
Z-79.599
Z-79.799
Z-79.999
Z-80.2
Z-80.399
Z-80.6
Z-80.799
Z-81
Z-81.199
Z-81.4
Z-81.599
Z-81.799
Z-81.999
Z-82.199
Z-82.4
Z-82.599
Z-82.8
Z-82.999
Z-83.2
Z-83.333
G0Z160
Y212.099
G1Z0
Z-0.2
Z-0.4
Z-0.6
Z-0.8
Z-1
Z-1.2
Z-1.4
Z-1.6
Z-1.8
Z-2
Z-2.2
Z-2.4
Z-2.6
Z-2.8
Z-3
Z-3.2
Z-3.4
Z-3.6
Z-3.8
Z-4
Z-4.2
Z-4.4
Z-4.6
Z-4.8
Z-5
Z-5.2
Z-5.4
Z-5.6
Z-5.8
Z-6
Z-6.2
Z-6.4
Z-6.6
Z-6.8
Z-7
Z-7.2
Z-7.4
Z-7.6
Z-7.8
Z-7.999
Z-8.2
Z-8.4
Z-8.599
Z-8.8
Z-9
Z-9.2
Z-9.4
Z-9.6
Z-9.8
Z-10
Z-10.199
Z-10.4
Z-10.6
Z-10.799
Z-11
Z-11.2
Z-11.399
Z-11.6
Z-11.8
Z-12
Z-12.2
Z-12.399
Z-12.6
Z-12.8
Z-12.999
Z-13.2
Z-13.4
Z-13.599
Z-13.8
Z-14
Z-14.2
Z-14.4
Z-14.599
Z-14.8
Z-15
Z-15.199
Z-15.4
Z-15.6
Z-15.799
Z-15.999
Z-16.2
Z-16.4
Z-16.6
Z-16.799
Z-16.999
Z-17.199
Z-17.4
Z-17.6
Z-17.8
Z-17.999
Z-18.199
Z-18.4
Z-18.6
Z-18.8
Z-18.999
Z-19.199
Z-19.399
Z-19.6
Z-19.8
Z-20
Z-20.199
Z-20.399
Z-20.6
Z-20.8
Z-21
Z-21.199
Z-21.399
Z-21.599
Z-21.8
Z-22
Z-22.2
Z-22.399
Z-22.599
Z-22.799
Z-23
Z-23.2
Z-23.399
Z-23.599
Z-23.799
Z-24
Z-24.2
Z-24.4
Z-24.599
Z-24.799
Z-24.999
Z-25.2
Z-25.4
Z-25.599
Z-25.799
Z-25.999
Z-26.2
Z-26.4
Z-26.6
Z-26.799
Z-26.999
Z-27.199
Z-27.4
Z-27.6
Z-27.799
Z-27.999
Z-28.199
Z-28.4
Z-28.6
Z-28.8
Z-28.999
Z-29.199
Z-29.399
Z-29.6
Z-29.8
Z-29.999
Z-30.199
Z-30.399
Z-30.599
Z-30.8
Z-30.999
Z-31.199
Z-31.399
Z-31.599
Z-31.799
Z-31.999
Z-32.199
Z-32.4
Z-32.6
Z-32.8
Z-33
Z-33.199
Z-33.399
Z-33.599
Z-33.799
Z-33.999
Z-34.199
Z-34.399
Z-34.6
Z-34.8
Z-35
Z-35.2
Z-35.399
Z-35.599
Z-35.799
Z-35.999
Z-36.199
Z-36.399
Z-36.599
Z-36.8
Z-37
Z-37.2
Z-37.4
Z-37.599
Z-37.799
Z-37.999
Z-38.199
Z-38.399
Z-38.599
Z-38.799
Z-39
Z-39.2
Z-39.4
Z-39.6
Z-39.799
Z-39.999
Z-40.199
Z-40.399
Z-40.599
Z-40.799
Z-40.999
Z-41.2
Z-41.4
Z-41.6
Z-41.8
Z-41.999
Z-42.199
Z-42.399
Z-42.599
Z-42.799
Z-42.999
Z-43.199
Z-43.399
Z-43.6
Z-43.8
Z-44
Z-44.199
Z-44.399
Z-44.599
Z-44.799
Z-44.999
Z-45.199
Z-45.399
Z-45.599
Z-45.8
Z-46
Z-46.2
Z-46.399
Z-46.599
Z-46.799
Z-46.999
Z-47.199
Z-47.399
Z-47.599
Z-47.799
Z-48
Z-48.2
Z-48.4
Z-48.599
Z-48.799
Z-48.999
Z-49.199
Z-49.399
Z-49.599
Z-49.799
Z-49.999
Z-50.2
Z-50.4
Z-50.6
Z-50.799
Z-50.999
Z-51.199
Z-51.399
Z-51.599
Z-51.799
Z-51.999
Z-52.199
Z-52.4
Z-52.6
Z-52.8
Z-52.999
Z-53.199
Z-53.399
Z-53.599
Z-53.799
Z-53.999
Z-54.199
Z-54.399
Z-54.6
Z-54.8
Z-55
Z-55.199
Z-55.399
Z-55.599
Z-55.799
Z-55.999
Z-56.199
Z-56.399
Z-56.599
Z-56.8
Z-57
Z-57.2
Z-57.399
Z-57.599
Z-57.799
Z-57.999
Z-58.199
Z-58.399
Z-58.599
Z-58.799
Z-59
Z-59.2
Z-59.4
Z-59.599
Z-59.799
Z-59.999
Z-60.199
Z-60.399
Z-60.599
Z-60.799
Z-60.999
Z-61.199
Z-61.4
Z-61.6
Z-61.799
Z-61.999
Z-62.199
Z-62.399
Z-62.6
Z-62.799
Z-63
Z-63.199
Z-63.4
Z-63.599
Z-63.8
Z-63.999
Z-64.199
Z-64.399
Z-64.599
Z-64.8
Z-64.999
Z-65.2
Z-65.399
Z-65.6
Z-65.799
Z-66
Z-66.199
Z-66.399
Z-66.599
Z-66.799
Z-67
Z-67.199
Z-67.4
Z-67.599
Z-67.8
Z-67.999
Z-68.2
Z-68.399
Z-68.599
Z-68.799
Z-68.999
Z-69.2
Z-69.399
Z-69.6
Z-69.799
Z-70
Z-70.199
Z-70.4
Z-70.599
Z-70.799
Z-70.999
Z-71.199
Z-71.4
Z-71.599
Z-71.8
Z-71.999
Z-72.2
Z-72.399
Z-72.6
Z-72.799
Z-72.999
Z-73.199
Z-73.399
Z-73.6
Z-73.799
Z-74
Z-74.199
Z-74.4
Z-74.599
Z-74.8
Z-74.999
Z-75.199
Z-75.399
Z-75.599
Z-75.8
Z-75.999
Z-76.2
Z-76.399
Z-76.6
Z-76.799
Z-77
Z-77.199
Z-77.399
Z-77.599
Z-77.799
Z-78
Z-78.199
Z-78.4
Z-78.599
Z-78.8
Z-78.999
Z-79.2
Z-79.399
Z-79.599
Z-79.799
Z-79.999
Z-80.2
Z-80.399
Z-80.6
Z-80.799
Z-81
Z-81.199
Z-81.4
Z-81.599
Z-81.799
Z-81.999
Z-82.199
Z-82.4
Z-82.599
Z-82.8
Z-82.999
Z-83.2
Z-83.399
Z-83.6
Z-83.799
Z-83.999
Z-84.199
Z-84.399
Z-84.6
Z-84.799
Z-85
Z-85.199
Z-85.4
Z-85.599
Z-85.8
Z-85.999
Z-86.199
Z-86.399
Z-86.599
Z-86.799
Z-86.999
Z-87.2
Z-87.399
Z-87.6
Z-87.799
Z-88
Z-88.199
Z-88.399
Z-88.599
Z-88.799
Z-88.999
Z-89.199
Z-89.4
Z-89.599
Z-89.8
Z-89.999
Z-90.2
Z-90.399
Z-90.599
Z-90.799
Z-90.999
Z-91.199
Z-91.399
Z-91.6
Z-91.799
Z-92
Z-92.199
Z-92.399
Z-92.599
Z-92.799
Z-92.999
Z-93.199
Z-93.399
Z-93.599
Z-93.8
Z-93.999
Z-94.2
Z-94.399
Z-94.599
Z-94.799
Z-94.999
Z-95.199
Z-95.399
Z-95.599
Z-95.799
Z-96
Z-96.199
Z-96.4
Z-96.599
Z-96.799
Z-96.999
Z-97.199
Z-97.399
Z-97.599
Z-97.799
Z-97.999
Z-98.2
Z-98.399
Z-98.6
Z-98.799
Z-98.999
Z-99.199
Z-99.399
Z-99.599
Z-99.799
Z-99.999
Z-100
G0Z160
Y141.399
G1Z0
Z-0.2
Z-0.4
Z-0.6
Z-0.8
Z-1
Z-1.2
Z-1.4
Z-1.6
Z-1.8
Z-2
Z-2.2
Z-2.4
Z-2.6
Z-2.8
Z-3
Z-3.2
Z-3.4
Z-3.6
Z-3.8
Z-4
Z-4.2
Z-4.4
Z-4.6
Z-4.8
Z-5
Z-5.2
Z-5.4
Z-5.6
Z-5.8
Z-6
Z-6.2
Z-6.4
Z-6.6
Z-6.8
Z-7
Z-7.2
Z-7.4
Z-7.6
Z-7.8
Z-7.999
Z-8.2
Z-8.4
Z-8.599
Z-8.8
Z-9
Z-9.2
Z-9.4
Z-9.6
Z-9.8
Z-10
Z-10.199
Z-10.4
Z-10.6
Z-10.799
Z-11
Z-11.2
Z-11.399
Z-11.6
Z-11.8
Z-12
Z-12.2
Z-12.399
Z-12.6
Z-12.8
Z-12.999
Z-13.2
Z-13.4
Z-13.599
Z-13.8
Z-14
Z-14.2
Z-14.4
Z-14.599
Z-14.8
Z-15
Z-15.199
Z-15.4
Z-15.6
Z-15.799
Z-15.999
Z-16.2
Z-16.4
Z-16.6
Z-16.799
Z-16.999
Z-17.199
Z-17.4
Z-17.6
Z-17.8
Z-17.999
Z-18.199
Z-18.4
Z-18.6
Z-18.8
Z-18.999
Z-19.199
Z-19.399
Z-19.6
Z-19.8
Z-20
Z-20.199
Z-20.399
Z-20.6
Z-20.8
Z-21
Z-21.199
Z-21.399
Z-21.599
Z-21.8
Z-22
Z-22.2
Z-22.399
Z-22.599
Z-22.799
Z-23
Z-23.2
Z-23.399
Z-23.599
Z-23.799
Z-24
Z-24.2
Z-24.4
Z-24.599
Z-24.799
Z-24.999
Z-25.2
Z-25.4
Z-25.599
Z-25.799
Z-25.999
Z-26.2
Z-26.4
Z-26.6
Z-26.799
Z-26.999
Z-27.199
Z-27.4
Z-27.6
Z-27.799
Z-27.999
Z-28.199
Z-28.4
Z-28.6
Z-28.8
Z-28.999
Z-29.199
Z-29.399
Z-29.6
Z-29.8
Z-29.999
Z-30.199
Z-30.399
Z-30.599
Z-30.8
Z-30.999
Z-31.199
Z-31.399
Z-31.599
Z-31.799
Z-31.999
Z-32.199
Z-32.4
Z-32.6
Z-32.8
Z-33
Z-33.199
Z-33.399
Z-33.599
Z-33.799
Z-33.999
Z-34.199
Z-34.399
Z-34.6
Z-34.8
Z-35
Z-35.2
Z-35.399
Z-35.599
Z-35.799
Z-35.999
Z-36.199
Z-36.399
Z-36.599
Z-36.8
Z-37
Z-37.2
Z-37.4
Z-37.599
Z-37.799
Z-37.999
Z-38.199
Z-38.399
Z-38.599
Z-38.799
Z-39
Z-39.2
Z-39.4
Z-39.6
Z-39.799
Z-39.999
Z-40.199
Z-40.399
Z-40.599
Z-40.799
Z-40.999
Z-41.2
Z-41.4
Z-41.6
Z-41.8
Z-41.999
Z-42.199
Z-42.399
Z-42.599
Z-42.799
Z-42.999
Z-43.199
Z-43.399
Z-43.6
Z-43.8
Z-44
Z-44.199
Z-44.399
Z-44.599
Z-44.799
Z-44.999
Z-45.199
Z-45.399
Z-45.599
Z-45.8
Z-46
Z-46.2
Z-46.399
Z-46.599
Z-46.799
Z-46.999
Z-47.199
Z-47.399
Z-47.599
Z-47.799
Z-48
Z-48.2
Z-48.4
Z-48.599
Z-48.799
Z-48.999
Z-49.199
Z-49.399
Z-49.599
Z-49.799
Z-49.999
Z-50.2
Z-50.4
Z-50.6
Z-50.799
Z-50.999
Z-51.199
Z-51.399
Z-51.599
Z-51.799
Z-51.999
Z-52.199
Z-52.4
Z-52.6
Z-52.8
Z-52.999
Z-53.199
Z-53.399
Z-53.599
Z-53.799
Z-53.999
Z-54.199
Z-54.399
Z-54.6
Z-54.8
Z-55
Z-55.199
Z-55.399
Z-55.599
Z-55.799
Z-55.999
Z-56.199
Z-56.399
Z-56.599
Z-56.8
Z-57
Z-57.2
Z-57.399
Z-57.599
Z-57.799
Z-57.999
Z-58.199
Z-58.399
Z-58.599
Z-58.799
Z-59
Z-59.2
Z-59.4
Z-59.599
Z-59.799
Z-59.999
Z-60.199
Z-60.399
Z-60.599
Z-60.799
Z-60.999
Z-61.199
Z-61.4
Z-61.6
Z-61.799
Z-61.999
Z-62.199
Z-62.399
Z-62.6
Z-62.799
Z-63
Z-63.199
Z-63.4
Z-63.599
Z-63.8
Z-63.999
Z-64.199
Z-64.399
Z-64.599
Z-64.8
Z-64.999
Z-65.2
Z-65.399
Z-65.6
Z-65.799
Z-66
Z-66.199
Z-66.399
Z-66.599
Z-66.799
Z-67
Z-67.199
Z-67.4
Z-67.599
Z-67.8
Z-67.999
Z-68.2
Z-68.399
Z-68.599
Z-68.799
Z-68.999
Z-69.2
Z-69.399
Z-69.6
Z-69.799
Z-70
Z-70.199
Z-70.4
Z-70.599
Z-70.799
Z-70.999
Z-71.199
Z-71.4
Z-71.599
Z-71.8
Z-71.999
Z-72.2
Z-72.399
Z-72.6
Z-72.799
Z-72.999
Z-73.199
Z-73.399
Z-73.6
Z-73.799
Z-74
Z-74.199
Z-74.4
Z-74.599
Z-74.8
Z-74.999
Z-75.199
Z-75.399
Z-75.599
Z-75.8
Z-75.999
Z-76.2
Z-76.399
Z-76.6
Z-76.799
Z-77
Z-77.199
Z-77.399
Z-77.599
Z-77.799
Z-78
Z-78.199
Z-78.4
Z-78.599
Z-78.8
Z-78.999
Z-79.2
Z-79.399
Z-79.599
Z-79.799
Z-79.999
Z-80.2
Z-80.399
Z-80.6
Z-80.799
Z-81
Z-81.199
Z-81.4
Z-81.599
Z-81.799
Z-81.999
Z-82.199
Z-82.4
Z-82.599
Z-82.8
Z-82.999
Z-83.2
Z-83.333
G0Z160
X141.4
G1Z0
Z-0.2
Z-0.4
Z-0.6
Z-0.8
Z-1
Z-1.2
Z-1.4
Z-1.6
Z-1.8
Z-2
Z-2.2
Z-2.4
Z-2.6
Z-2.8
Z-3
Z-3.2
Z-3.4
Z-3.6
Z-3.8
Z-4
Z-4.2
Z-4.4
Z-4.6
Z-4.8
Z-5
Z-5.2
Z-5.4
Z-5.6
Z-5.8
Z-6
Z-6.2
Z-6.4
Z-6.6
Z-6.8
Z-7
Z-7.2
Z-7.4
Z-7.6
Z-7.8
Z-7.999
Z-8.2
Z-8.4
Z-8.599
Z-8.8
Z-9
Z-9.2
Z-9.4
Z-9.6
Z-9.8
Z-10
Z-10.199
Z-10.4
Z-10.6
Z-10.799
Z-11
Z-11.2
Z-11.399
Z-11.6
Z-11.8
Z-12
Z-12.2
Z-12.399
Z-12.6
Z-12.8
Z-12.999
Z-13.2
Z-13.4
Z-13.599
Z-13.8
Z-14
Z-14.2
Z-14.4
Z-14.599
Z-14.8
Z-15
Z-15.199
Z-15.4
Z-15.6
Z-15.799
Z-15.999
Z-16.2
Z-16.4
Z-16.6
Z-16.799
Z-16.999
Z-17.199
Z-17.4
Z-17.6
Z-17.8
Z-17.999
Z-18.199
Z-18.4
Z-18.6
Z-18.8
Z-18.999
Z-19.199
Z-19.399
Z-19.6
Z-19.8
Z-20
Z-20.199
Z-20.399
Z-20.6
Z-20.8
Z-21
Z-21.199
Z-21.399
Z-21.599
Z-21.8
Z-22
Z-22.2
Z-22.399
Z-22.599
Z-22.799
Z-23
Z-23.2
Z-23.399
Z-23.599
Z-23.799
Z-24
Z-24.2
Z-24.4
Z-24.599
Z-24.799
Z-24.999
Z-25.2
Z-25.4
Z-25.599
Z-25.799
Z-25.999
Z-26.2
Z-26.4
Z-26.6
Z-26.799
Z-26.999
Z-27.199
Z-27.4
Z-27.6
Z-27.799
Z-27.999
Z-28.199
Z-28.4
Z-28.6
Z-28.8
Z-28.999
Z-29.199
Z-29.399
Z-29.6
Z-29.8
Z-29.999
Z-30.199
Z-30.399
Z-30.599
Z-30.8
Z-30.999
Z-31.199
Z-31.399
Z-31.599
Z-31.799
Z-31.999
Z-32.199
Z-32.4
Z-32.6
Z-32.8
Z-33
Z-33.199
Z-33.399
Z-33.599
Z-33.799
Z-33.999
Z-34.199
Z-34.399
Z-34.6
Z-34.8
Z-35
Z-35.2
Z-35.399
Z-35.599
Z-35.799
Z-35.999
Z-36.199
Z-36.399
Z-36.599
Z-36.8
Z-37
Z-37.2
Z-37.4
Z-37.599
Z-37.799
Z-37.999
Z-38.199
Z-38.399
Z-38.599
Z-38.799
Z-39
Z-39.2
Z-39.4
Z-39.6
Z-39.799
Z-39.999
Z-40.199
Z-40.399
Z-40.599
Z-40.799
Z-40.999
Z-41.2
Z-41.4
Z-41.6
Z-41.8
Z-41.999
Z-42.199
Z-42.399
Z-42.599
Z-42.799
Z-42.999
Z-43.199
Z-43.399
Z-43.6
Z-43.8
Z-44
Z-44.199
Z-44.399
Z-44.599
Z-44.799
Z-44.999
Z-45.199
Z-45.399
Z-45.599
Z-45.8
Z-46
Z-46.2
Z-46.399
Z-46.599
Z-46.799
Z-46.999
Z-47.199
Z-47.399
Z-47.599
Z-47.799
Z-48
Z-48.2
Z-48.4
Z-48.599
Z-48.799
Z-48.999
Z-49.199
Z-49.399
Z-49.599
Z-49.799
Z-49.999
Z-50.2
Z-50.4
Z-50.6
Z-50.799
Z-50.999
Z-51.199
Z-51.399
Z-51.599
Z-51.799
Z-51.999
Z-52.199
Z-52.4
Z-52.6
Z-52.8
Z-52.999
Z-53.199
Z-53.399
Z-53.599
Z-53.799
Z-53.999
Z-54.199
Z-54.399
Z-54.6
Z-54.8
Z-55
Z-55.199
Z-55.399
Z-55.599
Z-55.799
Z-55.999
Z-56.199
Z-56.399
Z-56.599
Z-56.8
Z-57
Z-57.2
Z-57.399
Z-57.599
Z-57.799
Z-57.999
Z-58.199
Z-58.399
Z-58.599
Z-58.799
Z-59
Z-59.2
Z-59.4
Z-59.599
Z-59.799
Z-59.999
Z-60.199
Z-60.399
Z-60.599
Z-60.799
Z-60.999
Z-61.199
Z-61.4
Z-61.6
Z-61.799
Z-61.999
Z-62.199
Z-62.399
Z-62.6
Z-62.799
Z-63
Z-63.199
Z-63.4
Z-63.599
Z-63.8
Z-63.999
Z-64.199
Z-64.399
Z-64.599
Z-64.8
Z-64.999
Z-65.2
Z-65.399
Z-65.6
Z-65.799
Z-66
Z-66.199
Z-66.399
Z-66.599
Z-66.666
G0Z160
X70.7
G1Z0
Z-0.2
Z-0.4
Z-0.6
Z-0.8
Z-1
Z-1.2
Z-1.4
Z-1.6
Z-1.8
Z-2
Z-2.2
Z-2.4
Z-2.6
Z-2.8
Z-3
Z-3.2
Z-3.4
Z-3.6
Z-3.8
Z-4
Z-4.2
Z-4.4
Z-4.6
Z-4.8
Z-5
Z-5.2
Z-5.4
Z-5.6
Z-5.8
Z-6
Z-6.2
Z-6.4
Z-6.6
Z-6.8
Z-7
Z-7.2
Z-7.4
Z-7.6
Z-7.8
Z-7.999
Z-8.2
Z-8.4
Z-8.599
Z-8.8
Z-9
Z-9.2
Z-9.4
Z-9.6
Z-9.8
Z-10
Z-10.199
Z-10.4
Z-10.6
Z-10.799
Z-11
Z-11.2
Z-11.399
Z-11.6
Z-11.8
Z-12
Z-12.2
Z-12.399
Z-12.6
Z-12.8
Z-12.999
Z-13.2
Z-13.4
Z-13.599
Z-13.8
Z-14
Z-14.2
Z-14.4
Z-14.599
Z-14.8
Z-15
Z-15.199
Z-15.4
Z-15.6
Z-15.799
Z-15.999
Z-16.2
Z-16.4
Z-16.6
Z-16.666
G0Z160
Y70.699
G1Z0
Z-0.2
Z-0.4
Z-0.6
Z-0.8
Z-1
Z-1.2
Z-1.4
Z-1.6
Z-1.8
Z-2
Z-2.2
Z-2.4
Z-2.6
Z-2.8
Z-3
Z-3.2
Z-3.4
Z-3.6
Z-3.8
Z-4
Z-4.2
Z-4.4
Z-4.6
Z-4.8
Z-5
Z-5.2
Z-5.4
Z-5.6
Z-5.8
Z-6
Z-6.2
Z-6.4
Z-6.6
Z-6.8
Z-7
Z-7.2
Z-7.4
Z-7.6
Z-7.8
Z-7.999
Z-8.2
Z-8.4
Z-8.599
Z-8.8
Z-9
Z-9.2
Z-9.4
Z-9.6
Z-9.8
Z-10
Z-10.199
Z-10.4
Z-10.6
Z-10.799
Z-11
Z-11.2
Z-11.399
Z-11.6
Z-11.8
Z-12
Z-12.2
Z-12.399
Z-12.6
Z-12.8
Z-12.999
Z-13.2
Z-13.4
Z-13.599
Z-13.8
Z-14
Z-14.2
Z-14.4
Z-14.599
Z-14.8
Z-15
Z-15.199
Z-15.4
Z-15.6
Z-15.799
Z-15.999
Z-16.2
Z-16.4
Z-16.6
Z-16.799
Z-16.999
Z-17.199
Z-17.4
Z-17.6
Z-17.8
Z-17.999
Z-18.199
Z-18.4
Z-18.6
Z-18.8
Z-18.999
Z-19.199
Z-19.399
Z-19.6
Z-19.8
Z-20
Z-20.199
Z-20.399
Z-20.6
Z-20.8
Z-21
Z-21.199
Z-21.399
Z-21.599
Z-21.8
Z-22
Z-22.2
Z-22.399
Z-22.599
Z-22.799
Z-23
Z-23.2
Z-23.399
Z-23.599
Z-23.799
Z-24
Z-24.2
Z-24.4
Z-24.599
Z-24.799
Z-24.999
Z-25.2
Z-25.4
Z-25.599
Z-25.799
Z-25.999
Z-26.2
Z-26.4
Z-26.6
Z-26.799
Z-26.999
Z-27.199
Z-27.4
Z-27.6
Z-27.799
Z-27.999
Z-28.199
Z-28.4
Z-28.6
Z-28.8
Z-28.999
Z-29.199
Z-29.399
Z-29.6
Z-29.8
Z-29.999
Z-30.199
Z-30.399
Z-30.599
Z-30.8
Z-30.999
Z-31.199
Z-31.399
Z-31.599
Z-31.799
Z-31.999
Z-32.199
Z-32.4
Z-32.6
Z-32.8
Z-33
Z-33.199
Z-33.399
Z-33.599
Z-33.799
Z-33.999
Z-34.199
Z-34.399
Z-34.6
Z-34.8
Z-35
Z-35.2
Z-35.399
Z-35.599
Z-35.799
Z-35.999
Z-36.199
Z-36.399
Z-36.599
Z-36.8
Z-37
Z-37.2
Z-37.4
Z-37.599
Z-37.799
Z-37.999
Z-38.199
Z-38.399
Z-38.599
Z-38.799
Z-39
Z-39.2
Z-39.4
Z-39.6
Z-39.799
Z-39.999
Z-40.199
Z-40.399
Z-40.599
Z-40.799
Z-40.999
Z-41.2
Z-41.4
Z-41.6
Z-41.8
Z-41.999
Z-42.199
Z-42.399
Z-42.599
Z-42.799
Z-42.999
Z-43.199
Z-43.399
Z-43.6
Z-43.8
Z-44
Z-44.199
Z-44.399
Z-44.599
Z-44.799
Z-44.999
Z-45.199
Z-45.399
Z-45.599
Z-45.8
Z-46
Z-46.2
Z-46.399
Z-46.599
Z-46.799
Z-46.999
Z-47.199
Z-47.399
Z-47.599
Z-47.799
Z-48
Z-48.2
Z-48.4
Z-48.599
Z-48.799
Z-48.999
Z-49.199
Z-49.399
Z-49.599
Z-49.799
Z-49.999
Z-50.2
Z-50.4
Z-50.6
Z-50.799
Z-50.999
Z-51.199
Z-51.399
Z-51.599
Z-51.799
Z-51.999
Z-52.199
Z-52.4
Z-52.6
Z-52.8
Z-52.999
Z-53.199
Z-53.399
Z-53.599
Z-53.799
Z-53.999
Z-54.199
Z-54.399
Z-54.6
Z-54.8
Z-55
Z-55.199
Z-55.399
Z-55.599
Z-55.799
Z-55.999
Z-56.199
Z-56.399
Z-56.599
Z-56.8
Z-57
Z-57.2
Z-57.399
Z-57.599
Z-57.799
Z-57.999
Z-58.199
Z-58.399
Z-58.599
Z-58.799
Z-59
Z-59.2
Z-59.4
Z-59.599
Z-59.799
Z-59.999
Z-60.199
Z-60.399
Z-60.599
Z-60.799
Z-60.999
Z-61.199
Z-61.4
Z-61.6
Z-61.799
Z-61.999
Z-62.199
Z-62.399
Z-62.6
Z-62.799
Z-63
Z-63.199
Z-63.4
Z-63.599
Z-63.8
Z-63.999
Z-64.199
Z-64.399
Z-64.599
Z-64.8
Z-64.999
Z-65.2
Z-65.399
Z-65.6
Z-65.799
Z-66
Z-66.199
Z-66.399
Z-66.599
Z-66.799
Z-67
Z-67.199
Z-67.4
Z-67.599
Z-67.8
Z-67.999
Z-68.2
Z-68.399
Z-68.599
Z-68.799
Z-68.999
Z-69.2
Z-69.399
Z-69.6
Z-69.799
Z-70
Z-70.199
Z-70.4
Z-70.599
Z-70.799
Z-70.999
Z-71.199
Z-71.4
Z-71.599
Z-71.8
Z-71.999
Z-72.2
Z-72.399
Z-72.6
Z-72.799
Z-72.999
Z-73.199
Z-73.399
Z-73.6
Z-73.799
Z-74
Z-74.199
Z-74.4
Z-74.599
Z-74.8
Z-74.999
Z-75.199
Z-75.399
Z-75.599
Z-75.8
Z-75.999
Z-76.2
Z-76.399
Z-76.6
Z-76.799
Z-77
Z-77.199
Z-77.399
Z-77.599
Z-77.799
Z-78
Z-78.199
Z-78.4
Z-78.599
Z-78.8
Z-78.999
Z-79.2
Z-79.399
Z-79.599
Z-79.799
Z-79.999
Z-80.2
Z-80.399
Z-80.6
Z-80.799
Z-81
Z-81.199
Z-81.4
Z-81.599
Z-81.799
Z-81.999
Z-82.199
Z-82.4
Z-82.599
Z-82.8
Z-82.999
Z-83.2
Z-83.333
G0Z160
Y0
G1Z0
G0Z160
X141.4
G1Z0
Z-0.2
Z-0.4
Z-0.6
Z-0.8
Z-1
Z-1.2
Z-1.4
Z-1.6
Z-1.8
Z-2
Z-2.2
Z-2.4
Z-2.6
Z-2.8
Z-3
Z-3.2
Z-3.4
Z-3.6
Z-3.8
Z-4
Z-4.2
Z-4.4
Z-4.6
Z-4.8
Z-5
Z-5.2
Z-5.4
Z-5.6
Z-5.8
Z-6
Z-6.2
Z-6.4
Z-6.6
Z-6.8
Z-7
Z-7.2
Z-7.4
Z-7.6
Z-7.8
Z-7.999
Z-8.2
Z-8.4
Z-8.599
Z-8.8
Z-9
Z-9.2
Z-9.4
Z-9.6
Z-9.8
Z-10
Z-10.199
Z-10.4
Z-10.6
Z-10.799
Z-11
Z-11.2
Z-11.399
Z-11.6
Z-11.8
Z-12
Z-12.2
Z-12.399
Z-12.6
Z-12.8
Z-12.999
Z-13.2
Z-13.4
Z-13.599
Z-13.8
Z-14
Z-14.2
Z-14.4
Z-14.599
Z-14.8
Z-15
Z-15.199
Z-15.4
Z-15.6
Z-15.799
Z-15.999
Z-16.2
Z-16.4
Z-16.6
Z-16.799
Z-16.999
Z-17.199
Z-17.4
Z-17.6
Z-17.8
Z-17.999
Z-18.199
Z-18.4
Z-18.6
Z-18.8
Z-18.999
Z-19.199
Z-19.399
Z-19.6
Z-19.8
Z-20
Z-20.199
Z-20.399
Z-20.6
Z-20.8
Z-21
Z-21.199
Z-21.399
Z-21.599
Z-21.8
Z-22
Z-22.2
Z-22.399
Z-22.599
Z-22.799
Z-23
Z-23.2
Z-23.399
Z-23.599
Z-23.799
Z-24
Z-24.2
Z-24.4
Z-24.599
Z-24.799
Z-24.999
Z-25.2
Z-25.4
Z-25.599
Z-25.799
Z-25.999
Z-26.2
Z-26.4
Z-26.6
Z-26.799
Z-26.999
Z-27.199
Z-27.4
Z-27.6
Z-27.799
Z-27.999
Z-28.199
Z-28.4
Z-28.6
Z-28.8
Z-28.999
Z-29.199
Z-29.399
Z-29.6
Z-29.8
Z-29.999
Z-30.199
Z-30.399
Z-30.599
Z-30.8
Z-30.999
Z-31.199
Z-31.399
Z-31.599
Z-31.799
Z-31.999
Z-32.199
Z-32.4
Z-32.6
Z-32.8
Z-33
Z-33.199
Z-33.399
Z-33.599
Z-33.799
Z-33.999
Z-34.199
Z-34.399
Z-34.6
Z-34.8
Z-35
Z-35.2
Z-35.399
Z-35.599
Z-35.799
Z-35.999
Z-36.199
Z-36.399
Z-36.599
Z-36.8
Z-37
Z-37.2
Z-37.4
Z-37.599
Z-37.799
Z-37.999
Z-38.199
Z-38.399
Z-38.599
Z-38.799
Z-39
Z-39.2
Z-39.4
Z-39.6
Z-39.799
Z-39.999
Z-40.199
Z-40.399
Z-40.599
Z-40.799
Z-40.999
Z-41.2
Z-41.4
Z-41.6
Z-41.8
Z-41.999
Z-42.199
Z-42.399
Z-42.599
Z-42.799
Z-42.999
Z-43.199
Z-43.399
Z-43.6
Z-43.8
Z-44
Z-44.199
Z-44.399
Z-44.599
Z-44.799
Z-44.999
Z-45.199
Z-45.399
Z-45.599
Z-45.8
Z-46
Z-46.2
Z-46.399
Z-46.599
Z-46.799
Z-46.999
Z-47.199
Z-47.399
Z-47.599
Z-47.799
Z-48
Z-48.2
Z-48.4
Z-48.599
Z-48.799
Z-48.999
Z-49.199
Z-49.399
Z-49.599
Z-49.799
Z-49.999
Z-50
G0Z160
Y70.699
G1Z0
Z-0.2
Z-0.4
Z-0.6
Z-0.8
Z-1
Z-1.2
Z-1.4
Z-1.6
Z-1.8
Z-2
Z-2.2
Z-2.4
Z-2.6
Z-2.8
Z-3
Z-3.2
Z-3.4
Z-3.6
Z-3.8
Z-4
Z-4.2
Z-4.4
Z-4.6
Z-4.8
Z-5
Z-5.2
Z-5.4
Z-5.6
Z-5.8
Z-6
Z-6.2
Z-6.4
Z-6.6
Z-6.8
Z-7
Z-7.2
Z-7.4
Z-7.6
Z-7.8
Z-7.999
Z-8.2
Z-8.4
Z-8.599
Z-8.8
Z-9
Z-9.2
Z-9.4
Z-9.6
Z-9.8
Z-10
Z-10.199
Z-10.4
Z-10.6
Z-10.799
Z-11
Z-11.2
Z-11.399
Z-11.6
Z-11.8
Z-12
Z-12.2
Z-12.399
Z-12.6
Z-12.8
Z-12.999
Z-13.2
Z-13.4
Z-13.599
Z-13.8
Z-14
Z-14.2
Z-14.4
Z-14.599
Z-14.8
Z-15
Z-15.199
Z-15.4
Z-15.6
Z-15.799
Z-15.999
Z-16.2
Z-16.4
Z-16.6
Z-16.666
G0Z160
X212.099
G1Z0
Z-0.2
Z-0.4
Z-0.6
Z-0.8
Z-1
Z-1.2
Z-1.4
Z-1.6
Z-1.8
Z-2
Z-2.2
Z-2.4
Z-2.6
Z-2.8
Z-3
Z-3.2
Z-3.4
Z-3.6
Z-3.8
Z-4
Z-4.2
Z-4.4
Z-4.6
Z-4.8
Z-5
Z-5.2
Z-5.4
Z-5.6
Z-5.8
Z-6
Z-6.2
Z-6.4
Z-6.6
Z-6.8
Z-7
Z-7.2
Z-7.4
Z-7.6
Z-7.8
Z-7.999
Z-8.2
Z-8.4
Z-8.599
Z-8.8
Z-9
Z-9.2
Z-9.4
Z-9.6
Z-9.8
Z-10
Z-10.199
Z-10.4
Z-10.6
Z-10.799
Z-11
Z-11.2
Z-11.399
Z-11.6
Z-11.8
Z-12
Z-12.2
Z-12.399
Z-12.6
Z-12.8
Z-12.999
Z-13.2
Z-13.4
Z-13.599
Z-13.8
Z-14
Z-14.2
Z-14.4
Z-14.599
Z-14.8
Z-15
Z-15.199
Z-15.4
Z-15.6
Z-15.799
Z-15.999
Z-16.2
Z-16.4
Z-16.6
Z-16.799
Z-16.999
Z-17.199
Z-17.4
Z-17.6
Z-17.8
Z-17.999
Z-18.199
Z-18.4
Z-18.6
Z-18.8
Z-18.999
Z-19.199
Z-19.399
Z-19.6
Z-19.8
Z-20
Z-20.199
Z-20.399
Z-20.6
Z-20.8
Z-21
Z-21.199
Z-21.399
Z-21.599
Z-21.8
Z-22
Z-22.2
Z-22.399
Z-22.599
Z-22.799
Z-23
Z-23.2
Z-23.399
Z-23.599
Z-23.799
Z-24
Z-24.2
Z-24.4
Z-24.599
Z-24.799
Z-24.999
Z-25.2
Z-25.4
Z-25.599
Z-25.799
Z-25.999
Z-26.2
Z-26.4
Z-26.6
Z-26.799
Z-26.999
Z-27.199
Z-27.4
Z-27.6
Z-27.799
Z-27.999
Z-28.199
Z-28.4
Z-28.6
Z-28.8
Z-28.999
Z-29.199
Z-29.399
Z-29.6
Z-29.8
Z-29.999
Z-30.199
Z-30.399
Z-30.599
Z-30.8
Z-30.999
Z-31.199
Z-31.399
Z-31.599
Z-31.799
Z-31.999
Z-32.199
Z-32.4
Z-32.6
Z-32.8
Z-33
Z-33.199
Z-33.333
G0Z160
Y0
G1Z0
Z-0.2
Z-0.4
Z-0.6
Z-0.8
Z-1
Z-1.2
Z-1.4
Z-1.6
Z-1.8
Z-2
Z-2.2
Z-2.4
Z-2.6
Z-2.8
Z-3
Z-3.2
Z-3.4
Z-3.6
Z-3.8
Z-4
Z-4.2
Z-4.4
Z-4.6
Z-4.8
Z-5
Z-5.2
Z-5.4
Z-5.6
Z-5.8
Z-6
Z-6.2
Z-6.4
Z-6.6
Z-6.8
Z-7
Z-7.2
Z-7.4
Z-7.6
Z-7.8
Z-7.999
Z-8.2
Z-8.4
Z-8.599
Z-8.8
Z-9
Z-9.2
Z-9.4
Z-9.6
Z-9.8
Z-10
Z-10.199
Z-10.4
Z-10.6
Z-10.799
Z-11
Z-11.2
Z-11.399
Z-11.6
Z-11.8
Z-12
Z-12.2
Z-12.399
Z-12.6
Z-12.8
Z-12.999
Z-13.2
Z-13.4
Z-13.599
Z-13.8
Z-14
Z-14.2
Z-14.4
Z-14.599
Z-14.8
Z-15
Z-15.199
Z-15.4
Z-15.6
Z-15.799
Z-15.999
Z-16.2
Z-16.4
Z-16.6
Z-16.799
Z-16.999
Z-17.199
Z-17.4
Z-17.6
Z-17.8
Z-17.999
Z-18.199
Z-18.4
Z-18.6
Z-18.8
Z-18.999
Z-19.199
Z-19.399
Z-19.6
Z-19.8
Z-20
Z-20.199
Z-20.399
Z-20.6
Z-20.8
Z-21
Z-21.199
Z-21.399
Z-21.599
Z-21.8
Z-22
Z-22.2
Z-22.399
Z-22.599
Z-22.799
Z-23
Z-23.2
Z-23.399
Z-23.599
Z-23.799
Z-24
Z-24.2
Z-24.4
Z-24.599
Z-24.799
Z-24.999
Z-25.2
Z-25.4
Z-25.599
Z-25.799
Z-25.999
Z-26.2
Z-26.4
Z-26.6
Z-26.799
Z-26.999
Z-27.199
Z-27.4
Z-27.6
Z-27.799
Z-27.999
Z-28.199
Z-28.4
Z-28.6
Z-28.8
Z-28.999
Z-29.199
Z-29.399
Z-29.6
Z-29.8
Z-29.999
Z-30.199
Z-30.399
Z-30.599
Z-30.8
Z-30.999
Z-31.199
Z-31.399
Z-31.599
Z-31.799
Z-31.999
Z-32.199
Z-32.4
Z-32.6
Z-32.8
Z-33
Z-33.199
Z-33.399
Z-33.599
Z-33.799
Z-33.999
Z-34.199
Z-34.399
Z-34.6
Z-34.8
Z-35
Z-35.2
Z-35.399
Z-35.599
Z-35.799
Z-35.999
Z-36.199
Z-36.399
Z-36.599
Z-36.8
Z-37
Z-37.2
Z-37.4
Z-37.599
Z-37.799
Z-37.999
Z-38.199
Z-38.399
Z-38.599
Z-38.799
Z-39
Z-39.2
Z-39.4
Z-39.6
Z-39.799
Z-39.999
Z-40.199
Z-40.399
Z-40.599
Z-40.799
Z-40.999
Z-41.2
Z-41.4
Z-41.6
Z-41.8
Z-41.999
Z-42.199
Z-42.399
Z-42.599
Z-42.799
Z-42.999
Z-43.199
Z-43.399
Z-43.6
Z-43.8
Z-44
Z-44.199
Z-44.399
Z-44.599
Z-44.799
Z-44.999
Z-45.199
Z-45.399
Z-45.599
Z-45.8
Z-46
Z-46.2
Z-46.399
Z-46.599
Z-46.799
Z-46.999
Z-47.199
Z-47.399
Z-47.599
Z-47.799
Z-48
Z-48.2
Z-48.4
Z-48.599
Z-48.799
Z-48.999
Z-49.199
Z-49.399
Z-49.599
Z-49.799
Z-49.999
Z-50.2
Z-50.4
Z-50.6
Z-50.799
Z-50.999
Z-51.199
Z-51.399
Z-51.599
Z-51.799
Z-51.999
Z-52.199
Z-52.4
Z-52.6
Z-52.8
Z-52.999
Z-53.199
Z-53.399
Z-53.599
Z-53.799
Z-53.999
Z-54.199
Z-54.399
Z-54.6
Z-54.8
Z-55
Z-55.199
Z-55.399
Z-55.599
Z-55.799
Z-55.999
Z-56.199
Z-56.399
Z-56.599
Z-56.8
Z-57
Z-57.2
Z-57.399
Z-57.599
Z-57.799
Z-57.999
Z-58.199
Z-58.399
Z-58.599
Z-58.799
Z-59
Z-59.2
Z-59.4
Z-59.599
Z-59.799
Z-59.999
Z-60.199
Z-60.399
Z-60.599
Z-60.799
Z-60.999
Z-61.199
Z-61.4
Z-61.6
Z-61.799
Z-61.999
Z-62.199
Z-62.399
Z-62.6
Z-62.799
Z-63
Z-63.199
Z-63.4
Z-63.599
Z-63.8
Z-63.999
Z-64.199
Z-64.399
Z-64.599
Z-64.8
Z-64.999
Z-65.2
Z-65.399
Z-65.6
Z-65.799
Z-66
Z-66.199
Z-66.399
Z-66.599
Z-66.666
G0Z160
X282.8
G1Z0
Z-0.2
Z-0.4
Z-0.6
Z-0.8
Z-1
Z-1.2
Z-1.4
Z-1.6
Z-1.8
Z-2
Z-2.2
Z-2.4
Z-2.6
Z-2.8
Z-3
Z-3.2
Z-3.4
Z-3.6
Z-3.8
Z-4
Z-4.2
Z-4.4
Z-4.6
Z-4.8
Z-5
Z-5.2
Z-5.4
Z-5.6
Z-5.8
Z-6
Z-6.2
Z-6.4
Z-6.6
Z-6.8
Z-7
Z-7.2
Z-7.4
Z-7.6
Z-7.8
Z-7.999
Z-8.2
Z-8.4
Z-8.599
Z-8.8
Z-9
Z-9.2
Z-9.4
Z-9.6
Z-9.8
Z-10
Z-10.199
Z-10.4
Z-10.6
Z-10.799
Z-11
Z-11.2
Z-11.399
Z-11.6
Z-11.8
Z-12
Z-12.2
Z-12.399
Z-12.6
Z-12.8
Z-12.999
Z-13.2
Z-13.4
Z-13.599
Z-13.8
Z-14
Z-14.2
Z-14.4
Z-14.599
Z-14.8
Z-15
Z-15.199
Z-15.4
Z-15.6
Z-15.799
Z-15.999
Z-16.2
Z-16.4
Z-16.6
Z-16.799
Z-16.999
Z-17.199
Z-17.4
Z-17.6
Z-17.8
Z-17.999
Z-18.199
Z-18.4
Z-18.6
Z-18.8
Z-18.999
Z-19.199
Z-19.399
Z-19.6
Z-19.8
Z-20
Z-20.199
Z-20.399
Z-20.6
Z-20.8
Z-21
Z-21.199
Z-21.399
Z-21.599
Z-21.8
Z-22
Z-22.2
Z-22.399
Z-22.599
Z-22.799
Z-23
Z-23.2
Z-23.399
Z-23.599
Z-23.799
Z-24
Z-24.2
Z-24.4
Z-24.599
Z-24.799
Z-24.999
Z-25.2
Z-25.4
Z-25.599
Z-25.799
Z-25.999
Z-26.2
Z-26.4
Z-26.6
Z-26.799
Z-26.999
Z-27.199
Z-27.4
Z-27.6
Z-27.799
Z-27.999
Z-28.199
Z-28.4
Z-28.6
Z-28.8
Z-28.999
Z-29.199
Z-29.399
Z-29.6
Z-29.8
Z-29.999
Z-30.199
Z-30.399
Z-30.599
Z-30.8
Z-30.999
Z-31.199
Z-31.399
Z-31.599
Z-31.799
Z-31.999
Z-32.199
Z-32.4
Z-32.6
Z-32.8
Z-33
Z-33.199
Z-33.399
Z-33.599
Z-33.799
Z-33.999
Z-34.199
Z-34.399
Z-34.6
Z-34.8
Z-35
Z-35.2
Z-35.399
Z-35.599
Z-35.799
Z-35.999
Z-36.199
Z-36.399
Z-36.599
Z-36.8
Z-37
Z-37.2
Z-37.4
Z-37.599
Z-37.799
Z-37.999
Z-38.199
Z-38.399
Z-38.599
Z-38.799
Z-39
Z-39.2
Z-39.4
Z-39.6
Z-39.799
Z-39.999
Z-40.199
Z-40.399
Z-40.599
Z-40.799
Z-40.999
Z-41.2
Z-41.4
Z-41.6
Z-41.8
Z-41.999
Z-42.199
Z-42.399
Z-42.599
Z-42.799
Z-42.999
Z-43.199
Z-43.399
Z-43.6
Z-43.8
Z-44
Z-44.199
Z-44.399
Z-44.599
Z-44.799
Z-44.999
Z-45.199
Z-45.399
Z-45.599
Z-45.8
Z-46
Z-46.2
Z-46.399
Z-46.599
Z-46.799
Z-46.999
Z-47.199
Z-47.399
Z-47.599
Z-47.799
Z-48
Z-48.2
Z-48.4
Z-48.599
Z-48.799
Z-48.999
Z-49.199
Z-49.399
Z-49.599
Z-49.799
Z-49.999
Z-50
G0Z160
Y70.699
G1Z0
Z-0.2
Z-0.4
Z-0.6
Z-0.8
Z-1
Z-1.2
Z-1.4
Z-1.6
Z-1.8
Z-2
Z-2.2
Z-2.4
Z-2.6
Z-2.8
Z-3
Z-3.2
Z-3.4
Z-3.6
Z-3.8
Z-4
Z-4.2
Z-4.4
Z-4.6
Z-4.8
Z-5
Z-5.2
Z-5.4
Z-5.6
Z-5.8
Z-6
Z-6.2
Z-6.4
Z-6.6
Z-6.8
Z-7
Z-7.2
Z-7.4
Z-7.6
Z-7.8
Z-7.999
Z-8.2
Z-8.4
Z-8.599
Z-8.8
Z-9
Z-9.2
Z-9.4
Z-9.6
Z-9.8
Z-10
Z-10.199
Z-10.4
Z-10.6
Z-10.799
Z-11
Z-11.2
Z-11.399
Z-11.6
Z-11.8
Z-12
Z-12.2
Z-12.399
Z-12.6
Z-12.8
Z-12.999
Z-13.2
Z-13.4
Z-13.599
Z-13.8
Z-14
Z-14.2
Z-14.4
Z-14.599
Z-14.8
Z-15
Z-15.199
Z-15.4
Z-15.6
Z-15.799
Z-15.999
Z-16.2
Z-16.4
Z-16.6
Z-16.666
G0Z160
X353.5
G1Z0
Z-0.2
Z-0.4
Z-0.6
Z-0.8
Z-1
Z-1.2
Z-1.4
Z-1.6
Z-1.8
Z-2
Z-2.2
Z-2.4
Z-2.6
Z-2.8
Z-3
Z-3.2
Z-3.4
Z-3.6
Z-3.8
Z-4
Z-4.2
Z-4.4
Z-4.6
Z-4.8
Z-5
Z-5.2
Z-5.4
Z-5.6
Z-5.8
Z-6
Z-6.2
Z-6.4
Z-6.6
Z-6.8
Z-7
Z-7.2
Z-7.4
Z-7.6
Z-7.8
Z-7.999
Z-8.2
Z-8.4
Z-8.599
Z-8.8
Z-9
Z-9.2
Z-9.4
Z-9.6
Z-9.8
Z-10
Z-10.199
Z-10.4
Z-10.6
Z-10.799
Z-11
Z-11.2
Z-11.399
Z-11.6
Z-11.8
Z-12
Z-12.2
Z-12.399
Z-12.6
Z-12.8
Z-12.999
Z-13.2
Z-13.4
Z-13.599
Z-13.8
Z-14
Z-14.2
Z-14.4
Z-14.599
Z-14.8
Z-15
Z-15.199
Z-15.4
Z-15.6
Z-15.799
Z-15.999
Z-16.2
Z-16.4
Z-16.6
Z-16.799
Z-16.999
Z-17.199
Z-17.4
Z-17.6
Z-17.8
Z-17.999
Z-18.199
Z-18.4
Z-18.6
Z-18.8
Z-18.999
Z-19.199
Z-19.399
Z-19.6
Z-19.8
Z-20
Z-20.199
Z-20.399
Z-20.6
Z-20.8
Z-21
Z-21.199
Z-21.399
Z-21.599
Z-21.8
Z-22
Z-22.2
Z-22.399
Z-22.599
Z-22.799
Z-23
Z-23.2
Z-23.399
Z-23.599
Z-23.799
Z-24
Z-24.2
Z-24.4
Z-24.599
Z-24.799
Z-24.999
Z-25.2
Z-25.4
Z-25.599
Z-25.799
Z-25.999
Z-26.2
Z-26.4
Z-26.6
Z-26.799
Z-26.999
Z-27.199
Z-27.4
Z-27.6
Z-27.799
Z-27.999
Z-28.199
Z-28.4
Z-28.6
Z-28.8
Z-28.999
Z-29.199
Z-29.399
Z-29.6
Z-29.8
Z-29.999
Z-30.199
Z-30.399
Z-30.599
Z-30.8
Z-30.999
Z-31.199
Z-31.399
Z-31.599
Z-31.799
Z-31.999
Z-32.199
Z-32.4
Z-32.6
Z-32.8
Z-33
Z-33.199
Z-33.399
Z-33.599
Z-33.799
Z-33.999
Z-34.199
Z-34.399
Z-34.6
Z-34.8
Z-35
Z-35.2
Z-35.399
Z-35.599
Z-35.799
Z-35.999
Z-36.199
Z-36.399
Z-36.599
Z-36.8
Z-37
Z-37.2
Z-37.4
Z-37.599
Z-37.799
Z-37.999
Z-38.199
Z-38.399
Z-38.599
Z-38.799
Z-39
Z-39.2
Z-39.4
Z-39.6
Z-39.799
Z-39.999
Z-40.199
Z-40.399
Z-40.599
Z-40.799
Z-40.999
Z-41.2
Z-41.4
Z-41.6
Z-41.8
Z-41.999
Z-42.199
Z-42.399
Z-42.599
Z-42.799
Z-42.999
Z-43.199
Z-43.399
Z-43.6
Z-43.8
Z-44
Z-44.199
Z-44.399
Z-44.599
Z-44.799
Z-44.999
Z-45.199
Z-45.399
Z-45.599
Z-45.8
Z-46
Z-46.2
Z-46.399
Z-46.599
Z-46.799
Z-46.999
Z-47.199
Z-47.399
Z-47.599
Z-47.799
Z-48
Z-48.2
Z-48.4
Z-48.599
Z-48.799
Z-48.999
Z-49.199
Z-49.399
Z-49.599
Z-49.799
Z-49.999
Z-50.2
Z-50.4
Z-50.6
Z-50.799
Z-50.999
Z-51.199
Z-51.399
Z-51.599
Z-51.799
Z-51.999
Z-52.199
Z-52.4
Z-52.6
Z-52.8
Z-52.999
Z-53.199
Z-53.399
Z-53.599
Z-53.799
Z-53.999
Z-54.199
Z-54.399
Z-54.6
Z-54.8
Z-55
Z-55.199
Z-55.399
Z-55.599
Z-55.799
Z-55.999
Z-56.199
Z-56.399
Z-56.599
Z-56.8
Z-57
Z-57.2
Z-57.399
Z-57.599
Z-57.799
Z-57.999
Z-58.199
Z-58.399
Z-58.599
Z-58.799
Z-59
Z-59.2
Z-59.4
Z-59.599
Z-59.799
Z-59.999
Z-60.199
Z-60.399
Z-60.599
Z-60.799
Z-60.999
Z-61.199
Z-61.4
Z-61.6
Z-61.799
Z-61.999
Z-62.199
Z-62.399
Z-62.6
Z-62.799
Z-63
Z-63.199
Z-63.4
Z-63.599
Z-63.8
Z-63.999
Z-64.199
Z-64.399
Z-64.599
Z-64.8
Z-64.999
Z-65.2
Z-65.399
Z-65.6
Z-65.799
Z-66
Z-66.199
Z-66.399
Z-66.599
Z-66.799
Z-67
Z-67.199
Z-67.4
Z-67.599
Z-67.8
Z-67.999
Z-68.2
Z-68.399
Z-68.599
Z-68.799
Z-68.999
Z-69.2
Z-69.399
Z-69.6
Z-69.799
Z-70
Z-70.199
Z-70.4
Z-70.599
Z-70.799
Z-70.999
Z-71.199
Z-71.4
Z-71.599
Z-71.8
Z-71.999
Z-72.2
Z-72.399
Z-72.6
Z-72.799
Z-72.999
Z-73.199
Z-73.399
Z-73.6
Z-73.799
Z-74
Z-74.199
Z-74.4
Z-74.599
Z-74.8
Z-74.999
Z-75.199
Z-75.399
Z-75.599
Z-75.8
Z-75.999
Z-76.2
Z-76.399
Z-76.6
Z-76.799
Z-77
Z-77.199
Z-77.399
Z-77.599
Z-77.799
Z-78
Z-78.199
Z-78.4
Z-78.599
Z-78.8
Z-78.999
Z-79.2
Z-79.399
Z-79.599
Z-79.799
Z-79.999
Z-80.2
Z-80.399
Z-80.6
Z-80.799
Z-81
Z-81.199
Z-81.4
Z-81.599
Z-81.799
Z-81.999
Z-82.199
Z-82.4
Z-82.599
Z-82.8
Z-82.999
Z-83.2
Z-83.333
G0Z160
X424.199
G1Z0
G0Z160
Y0
G1Z0
Z-0.2
Z-0.4
Z-0.6
Z-0.8
Z-1
Z-1.2
Z-1.4
Z-1.6
Z-1.8
Z-2
Z-2.2
Z-2.4
Z-2.6
Z-2.8
Z-3
Z-3.2
Z-3.4
Z-3.6
Z-3.8
Z-4
Z-4.2
Z-4.4
Z-4.6
Z-4.8
Z-5
Z-5.2
Z-5.4
Z-5.6
Z-5.8
Z-6
Z-6.2
Z-6.4
Z-6.6
Z-6.8
Z-7
Z-7.2
Z-7.4
Z-7.6
Z-7.8
Z-7.999
Z-8.2
Z-8.4
Z-8.599
Z-8.8
Z-9
Z-9.2
Z-9.4
Z-9.6
Z-9.8
Z-10
Z-10.199
Z-10.4
Z-10.6
Z-10.799
Z-11
Z-11.2
Z-11.399
Z-11.6
Z-11.8
Z-12
Z-12.2
Z-12.399
Z-12.6
Z-12.8
Z-12.999
Z-13.2
Z-13.4
Z-13.599
Z-13.8
Z-14
Z-14.2
Z-14.4
Z-14.599
Z-14.8
Z-15
Z-15.199
Z-15.4
Z-15.6
Z-15.799
Z-15.999
Z-16.2
Z-16.4
Z-16.6
Z-16.799
Z-16.999
Z-17.199
Z-17.4
Z-17.6
Z-17.8
Z-17.999
Z-18.199
Z-18.4
Z-18.6
Z-18.8
Z-18.999
Z-19.199
Z-19.399
Z-19.6
Z-19.8
Z-20
Z-20.199
Z-20.399
Z-20.6
Z-20.8
Z-21
Z-21.199
Z-21.399
Z-21.599
Z-21.8
Z-22
Z-22.2
Z-22.399
Z-22.599
Z-22.799
Z-23
Z-23.2
Z-23.399
Z-23.599
Z-23.799
Z-24
Z-24.2
Z-24.4
Z-24.599
Z-24.799
Z-24.999
Z-25.2
Z-25.4
Z-25.599
Z-25.799
Z-25.999
Z-26.2
Z-26.4
Z-26.6
Z-26.799
Z-26.999
Z-27.199
Z-27.4
Z-27.6
Z-27.799
Z-27.999
Z-28.199
Z-28.4
Z-28.6
Z-28.8
Z-28.999
Z-29.199
Z-29.399
Z-29.6
Z-29.8
Z-29.999
Z-30.199
Z-30.399
Z-30.599
Z-30.8
Z-30.999
Z-31.199
Z-31.399
Z-31.599
Z-31.799
Z-31.999
Z-32.199
Z-32.4
Z-32.6
Z-32.8
Z-33
Z-33.199
Z-33.333
G0Z160
X353.5
G1Z0
G0Z160
Y141.399
G1Z0
Z-0.2
Z-0.4
Z-0.6
Z-0.8
Z-1
Z-1.2
Z-1.4
Z-1.6
Z-1.8
Z-2
Z-2.2
Z-2.4
Z-2.6
Z-2.8
Z-3
Z-3.2
Z-3.4
Z-3.6
Z-3.8
Z-4
Z-4.2
Z-4.4
Z-4.6
Z-4.8
Z-5
Z-5.2
Z-5.4
Z-5.6
Z-5.8
Z-6
Z-6.2
Z-6.4
Z-6.6
Z-6.8
Z-7
Z-7.2
Z-7.4
Z-7.6
Z-7.8
Z-7.999
Z-8.2
Z-8.4
Z-8.599
Z-8.8
Z-9
Z-9.2
Z-9.4
Z-9.6
Z-9.8
Z-10
Z-10.199
Z-10.4
Z-10.6
Z-10.799
Z-11
Z-11.2
Z-11.399
Z-11.6
Z-11.8
Z-12
Z-12.2
Z-12.399
Z-12.6
Z-12.8
Z-12.999
Z-13.2
Z-13.4
Z-13.599
Z-13.8
Z-14
Z-14.2
Z-14.4
Z-14.599
Z-14.8
Z-15
Z-15.199
Z-15.4
Z-15.6
Z-15.799
Z-15.999
Z-16.2
Z-16.4
Z-16.6
Z-16.666
G0Z160
X424.199
G1Z0
Z-0.2
Z-0.4
Z-0.6
Z-0.8
Z-1
Z-1.2
Z-1.4
Z-1.6
Z-1.8
Z-2
Z-2.2
Z-2.4
Z-2.6
Z-2.8
Z-3
Z-3.2
Z-3.4
Z-3.6
Z-3.8
Z-4
Z-4.2
Z-4.4
Z-4.6
Z-4.8
Z-5
Z-5.2
Z-5.4
Z-5.6
Z-5.8
Z-6
Z-6.2
Z-6.4
Z-6.6
Z-6.8
Z-7
Z-7.2
Z-7.4
Z-7.6
Z-7.8
Z-7.999
Z-8.2
Z-8.4
Z-8.599
Z-8.8
Z-9
Z-9.2
Z-9.4
Z-9.6
Z-9.8
Z-10
Z-10.199
Z-10.4
Z-10.6
Z-10.799
Z-11
Z-11.2
Z-11.399
Z-11.6
Z-11.8
Z-12
Z-12.2
Z-12.399
Z-12.6
Z-12.8
Z-12.999
Z-13.2
Z-13.4
Z-13.599
Z-13.8
Z-14
Z-14.2
Z-14.4
Z-14.599
Z-14.8
Z-15
Z-15.199
Z-15.4
Z-15.6
Z-15.799
Z-15.999
Z-16.2
Z-16.4
Z-16.6
Z-16.799
Z-16.999
Z-17.199
Z-17.4
Z-17.6
Z-17.8
Z-17.999
Z-18.199
Z-18.4
Z-18.6
Z-18.8
Z-18.999
Z-19.199
Z-19.399
Z-19.6
Z-19.8
Z-20
Z-20.199
Z-20.399
Z-20.6
Z-20.8
Z-21
Z-21.199
Z-21.399
Z-21.599
Z-21.8
Z-22
Z-22.2
Z-22.399
Z-22.599
Z-22.799
Z-23
Z-23.2
Z-23.399
Z-23.599
Z-23.799
Z-24
Z-24.2
Z-24.4
Z-24.599
Z-24.799
Z-24.999
Z-25.2
Z-25.4
Z-25.599
Z-25.799
Z-25.999
Z-26.2
Z-26.4
Z-26.6
Z-26.799
Z-26.999
Z-27.199
Z-27.4
Z-27.6
Z-27.799
Z-27.999
Z-28.199
Z-28.4
Z-28.6
Z-28.8
Z-28.999
Z-29.199
Z-29.399
Z-29.6
Z-29.8
Z-29.999
Z-30.199
Z-30.399
Z-30.599
Z-30.8
Z-30.999
Z-31.199
Z-31.399
Z-31.599
Z-31.799
Z-31.999
Z-32.199
Z-32.4
Z-32.6
Z-32.8
Z-33
Z-33.199
Z-33.399
Z-33.599
Z-33.799
Z-33.999
Z-34.199
Z-34.399
Z-34.6
Z-34.8
Z-35
Z-35.2
Z-35.399
Z-35.599
Z-35.799
Z-35.999
Z-36.199
Z-36.399
Z-36.599
Z-36.8
Z-37
Z-37.2
Z-37.4
Z-37.599
Z-37.799
Z-37.999
Z-38.199
Z-38.399
Z-38.599
Z-38.799
Z-39
Z-39.2
Z-39.4
Z-39.6
Z-39.799
Z-39.999
Z-40.199
Z-40.399
Z-40.599
Z-40.799
Z-40.999
Z-41.2
Z-41.4
Z-41.6
Z-41.8
Z-41.999
Z-42.199
Z-42.399
Z-42.599
Z-42.799
Z-42.999
Z-43.199
Z-43.399
Z-43.6
Z-43.8
Z-44
Z-44.199
Z-44.399
Z-44.599
Z-44.799
Z-44.999
Z-45.199
Z-45.399
Z-45.599
Z-45.8
Z-46
Z-46.2
Z-46.399
Z-46.599
Z-46.799
Z-46.999
Z-47.199
Z-47.399
Z-47.599
Z-47.799
Z-48
Z-48.2
Z-48.4
Z-48.599
Z-48.799
Z-48.999
Z-49.199
Z-49.399
Z-49.599
Z-49.799
Z-49.999
Z-50
G0Z160
Y212.099
G1Z0
Z-0.2
Z-0.4
Z-0.6
Z-0.8
Z-1
Z-1.2
Z-1.4
Z-1.6
Z-1.8
Z-2
Z-2.2
Z-2.4
Z-2.6
Z-2.8
Z-3
Z-3.2
Z-3.4
Z-3.6
Z-3.8
Z-4
Z-4.2
Z-4.4
Z-4.6
Z-4.8
Z-5
Z-5.2
Z-5.4
Z-5.6
Z-5.8
Z-6
Z-6.2
Z-6.4
Z-6.6
Z-6.8
Z-7
Z-7.2
Z-7.4
Z-7.6
Z-7.8
Z-7.999
Z-8.2
Z-8.4
Z-8.599
Z-8.8
Z-9
Z-9.2
Z-9.4
Z-9.6
Z-9.8
Z-10
Z-10.199
Z-10.4
Z-10.6
Z-10.799
Z-11
Z-11.2
Z-11.399
Z-11.6
Z-11.8
Z-12
Z-12.2
Z-12.399
Z-12.6
Z-12.8
Z-12.999
Z-13.2
Z-13.4
Z-13.599
Z-13.8
Z-14
Z-14.2
Z-14.4
Z-14.599
Z-14.8
Z-15
Z-15.199
Z-15.4
Z-15.6
Z-15.799
Z-15.999
Z-16.2
Z-16.4
Z-16.6
Z-16.799
Z-16.999
Z-17.199
Z-17.4
Z-17.6
Z-17.8
Z-17.999
Z-18.199
Z-18.4
Z-18.6
Z-18.8
Z-18.999
Z-19.199
Z-19.399
Z-19.6
Z-19.8
Z-20
Z-20.199
Z-20.399
Z-20.6
Z-20.8
Z-21
Z-21.199
Z-21.399
Z-21.599
Z-21.8
Z-22
Z-22.2
Z-22.399
Z-22.599
Z-22.799
Z-23
Z-23.2
Z-23.399
Z-23.599
Z-23.799
Z-24
Z-24.2
Z-24.4
Z-24.599
Z-24.799
Z-24.999
Z-25.2
Z-25.4
Z-25.599
Z-25.799
Z-25.999
Z-26.2
Z-26.4
Z-26.6
Z-26.799
Z-26.999
Z-27.199
Z-27.4
Z-27.6
Z-27.799
Z-27.999
Z-28.199
Z-28.4
Z-28.6
Z-28.8
Z-28.999
Z-29.199
Z-29.399
Z-29.6
Z-29.8
Z-29.999
Z-30.199
Z-30.399
Z-30.599
Z-30.8
Z-30.999
Z-31.199
Z-31.399
Z-31.599
Z-31.799
Z-31.999
Z-32.199
Z-32.4
Z-32.6
Z-32.8
Z-33
Z-33.199
Z-33.399
Z-33.599
Z-33.799
Z-33.999
Z-34.199
Z-34.399
Z-34.6
Z-34.8
Z-35
Z-35.2
Z-35.399
Z-35.599
Z-35.799
Z-35.999
Z-36.199
Z-36.399
Z-36.599
Z-36.8
Z-37
Z-37.2
Z-37.4
Z-37.599
Z-37.799
Z-37.999
Z-38.199
Z-38.399
Z-38.599
Z-38.799
Z-39
Z-39.2
Z-39.4
Z-39.6
Z-39.799
Z-39.999
Z-40.199
Z-40.399
Z-40.599
Z-40.799
Z-40.999
Z-41.2
Z-41.4
Z-41.6
Z-41.8
Z-41.999
Z-42.199
Z-42.399
Z-42.599
Z-42.799
Z-42.999
Z-43.199
Z-43.399
Z-43.6
Z-43.8
Z-44
Z-44.199
Z-44.399
Z-44.599
Z-44.799
Z-44.999
Z-45.199
Z-45.399
Z-45.599
Z-45.8
Z-46
Z-46.2
Z-46.399
Z-46.599
Z-46.799
Z-46.999
Z-47.199
Z-47.399
Z-47.599
Z-47.799
Z-48
Z-48.2
Z-48.4
Z-48.599
Z-48.799
Z-48.999
Z-49.199
Z-49.399
Z-49.599
Z-49.799
Z-49.999
Z-50.2
Z-50.4
Z-50.6
Z-50.799
Z-50.999
Z-51.199
Z-51.399
Z-51.599
Z-51.799
Z-51.999
Z-52.199
Z-52.4
Z-52.6
Z-52.8
Z-52.999
Z-53.199
Z-53.399
Z-53.599
Z-53.799
Z-53.999
Z-54.199
Z-54.399
Z-54.6
Z-54.8
Z-55
Z-55.199
Z-55.399
Z-55.599
Z-55.799
Z-55.999
Z-56.199
Z-56.399
Z-56.599
Z-56.8
Z-57
Z-57.2
Z-57.399
Z-57.599
Z-57.799
Z-57.999
Z-58.199
Z-58.399
Z-58.599
Z-58.799
Z-59
Z-59.2
Z-59.4
Z-59.599
Z-59.799
Z-59.999
Z-60.199
Z-60.399
Z-60.599
Z-60.799
Z-60.999
Z-61.199
Z-61.4
Z-61.6
Z-61.799
Z-61.999
Z-62.199
Z-62.399
Z-62.6
Z-62.799
Z-63
Z-63.199
Z-63.4
Z-63.599
Z-63.8
Z-63.999
Z-64.199
Z-64.399
Z-64.599
Z-64.8
Z-64.999
Z-65.2
Z-65.399
Z-65.6
Z-65.799
Z-66
Z-66.199
Z-66.399
Z-66.599
Z-66.666
G0Z160
Y282.799
G1Z0
Z-0.2
Z-0.4
Z-0.6
Z-0.8
Z-1
Z-1.2
Z-1.4
Z-1.6
Z-1.8
Z-2
Z-2.2
Z-2.4
Z-2.6
Z-2.8
Z-3
Z-3.2
Z-3.4
Z-3.6
Z-3.8
Z-4
Z-4.2
Z-4.4
Z-4.6
Z-4.8
Z-5
Z-5.2
Z-5.4
Z-5.6
Z-5.8
Z-6
Z-6.2
Z-6.4
Z-6.6
Z-6.8
Z-7
Z-7.2
Z-7.4
Z-7.6
Z-7.8
Z-7.999
Z-8.2
Z-8.4
Z-8.599
Z-8.8
Z-9
Z-9.2
Z-9.4
Z-9.6
Z-9.8
Z-10
Z-10.199
Z-10.4
Z-10.6
Z-10.799
Z-11
Z-11.2
Z-11.399
Z-11.6
Z-11.8
Z-12
Z-12.2
Z-12.399
Z-12.6
Z-12.8
Z-12.999
Z-13.2
Z-13.4
Z-13.599
Z-13.8
Z-14
Z-14.2
Z-14.4
Z-14.599
Z-14.8
Z-15
Z-15.199
Z-15.4
Z-15.6
Z-15.799
Z-15.999
Z-16.2
Z-16.4
Z-16.6
Z-16.799
Z-16.999
Z-17.199
Z-17.4
Z-17.6
Z-17.8
Z-17.999
Z-18.199
Z-18.4
Z-18.6
Z-18.8
Z-18.999
Z-19.199
Z-19.399
Z-19.6
Z-19.8
Z-20
Z-20.199
Z-20.399
Z-20.6
Z-20.8
Z-21
Z-21.199
Z-21.399
Z-21.599
Z-21.8
Z-22
Z-22.2
Z-22.399
Z-22.599
Z-22.799
Z-23
Z-23.2
Z-23.399
Z-23.599
Z-23.799
Z-24
Z-24.2
Z-24.4
Z-24.599
Z-24.799
Z-24.999
Z-25.2
Z-25.4
Z-25.599
Z-25.799
Z-25.999
Z-26.2
Z-26.4
Z-26.6
Z-26.799
Z-26.999
Z-27.199
Z-27.4
Z-27.6
Z-27.799
Z-27.999
Z-28.199
Z-28.4
Z-28.6
Z-28.8
Z-28.999
Z-29.199
Z-29.399
Z-29.6
Z-29.8
Z-29.999
Z-30.199
Z-30.399
Z-30.599
Z-30.8
Z-30.999
Z-31.199
Z-31.399
Z-31.599
Z-31.799
Z-31.999
Z-32.199
Z-32.4
Z-32.6
Z-32.8
Z-33
Z-33.199
Z-33.399
Z-33.599
Z-33.799
Z-33.999
Z-34.199
Z-34.399
Z-34.6
Z-34.8
Z-35
Z-35.2
Z-35.399
Z-35.599
Z-35.799
Z-35.999
Z-36.199
Z-36.399
Z-36.599
Z-36.8
Z-37
Z-37.2
Z-37.4
Z-37.599
Z-37.799
Z-37.999
Z-38.199
Z-38.399
Z-38.599
Z-38.799
Z-39
Z-39.2
Z-39.4
Z-39.6
Z-39.799
Z-39.999
Z-40.199
Z-40.399
Z-40.599
Z-40.799
Z-40.999
Z-41.2
Z-41.4
Z-41.6
Z-41.8
Z-41.999
Z-42.199
Z-42.399
Z-42.599
Z-42.799
Z-42.999
Z-43.199
Z-43.399
Z-43.6
Z-43.8
Z-44
Z-44.199
Z-44.399
Z-44.599
Z-44.799
Z-44.999
Z-45.199
Z-45.399
Z-45.599
Z-45.8
Z-46
Z-46.2
Z-46.399
Z-46.599
Z-46.799
Z-46.999
Z-47.199
Z-47.399
Z-47.599
Z-47.799
Z-48
Z-48.2
Z-48.4
Z-48.599
Z-48.799
Z-48.999
Z-49.199
Z-49.399
Z-49.599
Z-49.799
Z-49.999
Z-50
G0Z160
X353.5
G1Z0
Z-0.2
Z-0.4
Z-0.6
Z-0.8
Z-1
Z-1.2
Z-1.4
Z-1.6
Z-1.8
Z-2
Z-2.2
Z-2.4
Z-2.6
Z-2.8
Z-3
Z-3.2
Z-3.4
Z-3.6
Z-3.8
Z-4
Z-4.2
Z-4.4
Z-4.6
Z-4.8
Z-5
Z-5.2
Z-5.4
Z-5.6
Z-5.8
Z-6
Z-6.2
Z-6.4
Z-6.6
Z-6.8
Z-7
Z-7.2
Z-7.4
Z-7.6
Z-7.8
Z-7.999
Z-8.2
Z-8.4
Z-8.599
Z-8.8
Z-9
Z-9.2
Z-9.4
Z-9.6
Z-9.8
Z-10
Z-10.199
Z-10.4
Z-10.6
Z-10.799
Z-11
Z-11.2
Z-11.399
Z-11.6
Z-11.8
Z-12
Z-12.2
Z-12.399
Z-12.6
Z-12.8
Z-12.999
Z-13.2
Z-13.4
Z-13.599
Z-13.8
Z-14
Z-14.2
Z-14.4
Z-14.599
Z-14.8
Z-15
Z-15.199
Z-15.4
Z-15.6
Z-15.799
Z-15.999
Z-16.2
Z-16.4
Z-16.6
Z-16.666
G0Z160
X282.8
G1Z0
Z-0.2
Z-0.4
Z-0.6
Z-0.8
Z-1
Z-1.2
Z-1.4
Z-1.6
Z-1.8
Z-2
Z-2.2
Z-2.4
Z-2.6
Z-2.8
Z-3
Z-3.2
Z-3.4
Z-3.6
Z-3.8
Z-4
Z-4.2
Z-4.4
Z-4.6
Z-4.8
Z-5
Z-5.2
Z-5.4
Z-5.6
Z-5.8
Z-6
Z-6.2
Z-6.4
Z-6.6
Z-6.8
Z-7
Z-7.2
Z-7.4
Z-7.6
Z-7.8
Z-7.999
Z-8.2
Z-8.4
Z-8.599
Z-8.8
Z-9
Z-9.2
Z-9.4
Z-9.6
Z-9.8
Z-10
Z-10.199
Z-10.4
Z-10.6
Z-10.799
Z-11
Z-11.2
Z-11.399
Z-11.6
Z-11.8
Z-12
Z-12.2
Z-12.399
Z-12.6
Z-12.8
Z-12.999
Z-13.2
Z-13.4
Z-13.599
Z-13.8
Z-14
Z-14.2
Z-14.4
Z-14.599
Z-14.8
Z-15
Z-15.199
Z-15.4
Z-15.6
Z-15.799
Z-15.999
Z-16.2
Z-16.4
Z-16.6
Z-16.799
Z-16.999
Z-17.199
Z-17.4
Z-17.6
Z-17.8
Z-17.999
Z-18.199
Z-18.4
Z-18.6
Z-18.8
Z-18.999
Z-19.199
Z-19.399
Z-19.6
Z-19.8
Z-20
Z-20.199
Z-20.399
Z-20.6
Z-20.8
Z-21
Z-21.199
Z-21.399
Z-21.599
Z-21.8
Z-22
Z-22.2
Z-22.399
Z-22.599
Z-22.799
Z-23
Z-23.2
Z-23.399
Z-23.599
Z-23.799
Z-24
Z-24.2
Z-24.4
Z-24.599
Z-24.799
Z-24.999
Z-25.2
Z-25.4
Z-25.599
Z-25.799
Z-25.999
Z-26.2
Z-26.4
Z-26.6
Z-26.799
Z-26.999
Z-27.199
Z-27.4
Z-27.6
Z-27.799
Z-27.999
Z-28.199
Z-28.4
Z-28.6
Z-28.8
Z-28.999
Z-29.199
Z-29.399
Z-29.6
Z-29.8
Z-29.999
Z-30.199
Z-30.399
Z-30.599
Z-30.8
Z-30.999
Z-31.199
Z-31.399
Z-31.599
Z-31.799
Z-31.999
Z-32.199
Z-32.4
Z-32.6
Z-32.8
Z-33
Z-33.199
Z-33.399
Z-33.599
Z-33.799
Z-33.999
Z-34.199
Z-34.399
Z-34.6
Z-34.8
Z-35
Z-35.2
Z-35.399
Z-35.599
Z-35.799
Z-35.999
Z-36.199
Z-36.399
Z-36.599
Z-36.8
Z-37
Z-37.2
Z-37.4
Z-37.599
Z-37.799
Z-37.999
Z-38.199
Z-38.399
Z-38.599
Z-38.799
Z-39
Z-39.2
Z-39.4
Z-39.6
Z-39.799
Z-39.999
Z-40.199
Z-40.399
Z-40.599
Z-40.799
Z-40.999
Z-41.2
Z-41.4
Z-41.6
Z-41.8
Z-41.999
Z-42.199
Z-42.399
Z-42.599
Z-42.799
Z-42.999
Z-43.199
Z-43.399
Z-43.6
Z-43.8
Z-44
Z-44.199
Z-44.399
Z-44.599
Z-44.799
Z-44.999
Z-45.199
Z-45.399
Z-45.599
Z-45.8
Z-46
Z-46.2
Z-46.399
Z-46.599
Z-46.799
Z-46.999
Z-47.199
Z-47.399
Z-47.599
Z-47.799
Z-48
Z-48.2
Z-48.4
Z-48.599
Z-48.799
Z-48.999
Z-49.199
Z-49.399
Z-49.599
Z-49.799
Z-49.999
Z-50.2
Z-50.4
Z-50.6
Z-50.799
Z-50.999
Z-51.199
Z-51.399
Z-51.599
Z-51.799
Z-51.999
Z-52.199
Z-52.4
Z-52.6
Z-52.8
Z-52.999
Z-53.199
Z-53.399
Z-53.599
Z-53.799
Z-53.999
Z-54.199
Z-54.399
Z-54.6
Z-54.8
Z-55
Z-55.199
Z-55.399
Z-55.599
Z-55.799
Z-55.999
Z-56.199
Z-56.399
Z-56.599
Z-56.8
Z-57
Z-57.2
Z-57.399
Z-57.599
Z-57.799
Z-57.999
Z-58.199
Z-58.399
Z-58.599
Z-58.799
Z-59
Z-59.2
Z-59.4
Z-59.599
Z-59.799
Z-59.999
Z-60.199
Z-60.399
Z-60.599
Z-60.799
Z-60.999
Z-61.199
Z-61.4
Z-61.6
Z-61.799
Z-61.999
Z-62.199
Z-62.399
Z-62.6
Z-62.799
Z-63
Z-63.199
Z-63.4
Z-63.599
Z-63.8
Z-63.999
Z-64.199
Z-64.399
Z-64.599
Z-64.8
Z-64.999
Z-65.2
Z-65.399
Z-65.6
Z-65.799
Z-66
Z-66.199
Z-66.399
Z-66.599
Z-66.666
G0Z160
Y212.099
G1Z0
Z-0.2
Z-0.4
Z-0.6
Z-0.8
Z-1
Z-1.2
Z-1.4
Z-1.6
Z-1.8
Z-2
Z-2.2
Z-2.4
Z-2.6
Z-2.8
Z-3
Z-3.2
Z-3.4
Z-3.6
Z-3.8
Z-4
Z-4.2
Z-4.4
Z-4.6
Z-4.8
Z-5
Z-5.2
Z-5.4
Z-5.6
Z-5.8
Z-6
Z-6.2
Z-6.4
Z-6.6
Z-6.8
Z-7
Z-7.2
Z-7.4
Z-7.6
Z-7.8
Z-7.999
Z-8.2
Z-8.4
Z-8.599
Z-8.8
Z-9
Z-9.2
Z-9.4
Z-9.6
Z-9.8
Z-10
Z-10.199
Z-10.4
Z-10.6
Z-10.799
Z-11
Z-11.2
Z-11.399
Z-11.6
Z-11.8
Z-12
Z-12.2
Z-12.399
Z-12.6
Z-12.8
Z-12.999
Z-13.2
Z-13.4
Z-13.599
Z-13.8
Z-14
Z-14.2
Z-14.4
Z-14.599
Z-14.8
Z-15
Z-15.199
Z-15.4
Z-15.6
Z-15.799
Z-15.999
Z-16.2
Z-16.4
Z-16.6
Z-16.799
Z-16.999
Z-17.199
Z-17.4
Z-17.6
Z-17.8
Z-17.999
Z-18.199
Z-18.4
Z-18.6
Z-18.8
Z-18.999
Z-19.199
Z-19.399
Z-19.6
Z-19.8
Z-20
Z-20.199
Z-20.399
Z-20.6
Z-20.8
Z-21
Z-21.199
Z-21.399
Z-21.599
Z-21.8
Z-22
Z-22.2
Z-22.399
Z-22.599
Z-22.799
Z-23
Z-23.2
Z-23.399
Z-23.599
Z-23.799
Z-24
Z-24.2
Z-24.4
Z-24.599
Z-24.799
Z-24.999
Z-25.2
Z-25.4
Z-25.599
Z-25.799
Z-25.999
Z-26.2
Z-26.4
Z-26.6
Z-26.799
Z-26.999
Z-27.199
Z-27.4
Z-27.6
Z-27.799
Z-27.999
Z-28.199
Z-28.4
Z-28.6
Z-28.8
Z-28.999
Z-29.199
Z-29.399
Z-29.6
Z-29.8
Z-29.999
Z-30.199
Z-30.399
Z-30.599
Z-30.8
Z-30.999
Z-31.199
Z-31.399
Z-31.599
Z-31.799
Z-31.999
Z-32.199
Z-32.4
Z-32.6
Z-32.8
Z-33
Z-33.199
Z-33.399
Z-33.599
Z-33.799
Z-33.999
Z-34.199
Z-34.399
Z-34.6
Z-34.8
Z-35
Z-35.2
Z-35.399
Z-35.599
Z-35.799
Z-35.999
Z-36.199
Z-36.399
Z-36.599
Z-36.8
Z-37
Z-37.2
Z-37.4
Z-37.599
Z-37.799
Z-37.999
Z-38.199
Z-38.399
Z-38.599
Z-38.799
Z-39
Z-39.2
Z-39.4
Z-39.6
Z-39.799
Z-39.999
Z-40.199
Z-40.399
Z-40.599
Z-40.799
Z-40.999
Z-41.2
Z-41.4
Z-41.6
Z-41.8
Z-41.999
Z-42.199
Z-42.399
Z-42.599
Z-42.799
Z-42.999
Z-43.199
Z-43.399
Z-43.6
Z-43.8
Z-44
Z-44.199
Z-44.399
Z-44.599
Z-44.799
Z-44.999
Z-45.199
Z-45.399
Z-45.599
Z-45.8
Z-46
Z-46.2
Z-46.399
Z-46.599
Z-46.799
Z-46.999
Z-47.199
Z-47.399
Z-47.599
Z-47.799
Z-48
Z-48.2
Z-48.4
Z-48.599
Z-48.799
Z-48.999
Z-49.199
Z-49.399
Z-49.599
Z-49.799
Z-49.999
Z-50.2
Z-50.4
Z-50.6
Z-50.799
Z-50.999
Z-51.199
Z-51.399
Z-51.599
Z-51.799
Z-51.999
Z-52.199
Z-52.4
Z-52.6
Z-52.8
Z-52.999
Z-53.199
Z-53.399
Z-53.599
Z-53.799
Z-53.999
Z-54.199
Z-54.399
Z-54.6
Z-54.8
Z-55
Z-55.199
Z-55.399
Z-55.599
Z-55.799
Z-55.999
Z-56.199
Z-56.399
Z-56.599
Z-56.8
Z-57
Z-57.2
Z-57.399
Z-57.599
Z-57.799
Z-57.999
Z-58.199
Z-58.399
Z-58.599
Z-58.799
Z-59
Z-59.2
Z-59.4
Z-59.599
Z-59.799
Z-59.999
Z-60.199
Z-60.399
Z-60.599
Z-60.799
Z-60.999
Z-61.199
Z-61.4
Z-61.6
Z-61.799
Z-61.999
Z-62.199
Z-62.399
Z-62.6
Z-62.799
Z-63
Z-63.199
Z-63.4
Z-63.599
Z-63.8
Z-63.999
Z-64.199
Z-64.399
Z-64.599
Z-64.8
Z-64.999
Z-65.2
Z-65.399
Z-65.6
Z-65.799
Z-66
Z-66.199
Z-66.399
Z-66.599
Z-66.799
Z-67
Z-67.199
Z-67.4
Z-67.599
Z-67.8
Z-67.999
Z-68.2
Z-68.399
Z-68.599
Z-68.799
Z-68.999
Z-69.2
Z-69.399
Z-69.6
Z-69.799
Z-70
Z-70.199
Z-70.4
Z-70.599
Z-70.799
Z-70.999
Z-71.199
Z-71.4
Z-71.599
Z-71.8
Z-71.999
Z-72.2
Z-72.399
Z-72.6
Z-72.799
Z-72.999
Z-73.199
Z-73.399
Z-73.6
Z-73.799
Z-74
Z-74.199
Z-74.4
Z-74.599
Z-74.8
Z-74.999
Z-75.199
Z-75.399
Z-75.599
Z-75.8
Z-75.999
Z-76.2
Z-76.399
Z-76.6
Z-76.799
Z-77
Z-77.199
Z-77.399
Z-77.599
Z-77.799
Z-78
Z-78.199
Z-78.4
Z-78.599
Z-78.8
Z-78.999
Z-79.2
Z-79.399
Z-79.599
Z-79.799
Z-79.999
Z-80.2
Z-80.399
Z-80.6
Z-80.799
Z-81
Z-81.199
Z-81.4
Z-81.599
Z-81.799
Z-81.999
Z-82.199
Z-82.4
Z-82.599
Z-82.8
Z-82.999
Z-83.2
Z-83.333
G0Z160
X353.5
G1Z0
Z-0.2
Z-0.4
Z-0.6
Z-0.8
Z-1
Z-1.2
Z-1.4
Z-1.6
Z-1.8
Z-2
Z-2.2
Z-2.4
Z-2.6
Z-2.8
Z-3
Z-3.2
Z-3.4
Z-3.6
Z-3.8
Z-4
Z-4.2
Z-4.4
Z-4.6
Z-4.8
Z-5
Z-5.2
Z-5.4
Z-5.6
Z-5.8
Z-6
Z-6.2
Z-6.4
Z-6.6
Z-6.8
Z-7
Z-7.2
Z-7.4
Z-7.6
Z-7.8
Z-7.999
Z-8.2
Z-8.4
Z-8.599
Z-8.8
Z-9
Z-9.2
Z-9.4
Z-9.6
Z-9.8
Z-10
Z-10.199
Z-10.4
Z-10.6
Z-10.799
Z-11
Z-11.2
Z-11.399
Z-11.6
Z-11.8
Z-12
Z-12.2
Z-12.399
Z-12.6
Z-12.8
Z-12.999
Z-13.2
Z-13.4
Z-13.599
Z-13.8
Z-14
Z-14.2
Z-14.4
Z-14.599
Z-14.8
Z-15
Z-15.199
Z-15.4
Z-15.6
Z-15.799
Z-15.999
Z-16.2
Z-16.4
Z-16.6
Z-16.799
Z-16.999
Z-17.199
Z-17.4
Z-17.6
Z-17.8
Z-17.999
Z-18.199
Z-18.4
Z-18.6
Z-18.8
Z-18.999
Z-19.199
Z-19.399
Z-19.6
Z-19.8
Z-20
Z-20.199
Z-20.399
Z-20.6
Z-20.8
Z-21
Z-21.199
Z-21.399
Z-21.599
Z-21.8
Z-22
Z-22.2
Z-22.399
Z-22.599
Z-22.799
Z-23
Z-23.2
Z-23.399
Z-23.599
Z-23.799
Z-24
Z-24.2
Z-24.4
Z-24.599
Z-24.799
Z-24.999
Z-25.2
Z-25.4
Z-25.599
Z-25.799
Z-25.999
Z-26.2
Z-26.4
Z-26.6
Z-26.799
Z-26.999
Z-27.199
Z-27.4
Z-27.6
Z-27.799
Z-27.999
Z-28.199
Z-28.4
Z-28.6
Z-28.8
Z-28.999
Z-29.199
Z-29.399
Z-29.6
Z-29.8
Z-29.999
Z-30.199
Z-30.399
Z-30.599
Z-30.8
Z-30.999
Z-31.199
Z-31.399
Z-31.599
Z-31.799
Z-31.999
Z-32.199
Z-32.4
Z-32.6
Z-32.8
Z-33
Z-33.199
Z-33.333
G0Z160
X282.8Y141.399
G1Z0
Z-0.2
Z-0.4
Z-0.6
Z-0.8
Z-1
Z-1.2
Z-1.4
Z-1.6
Z-1.8
Z-2
Z-2.2
Z-2.4
Z-2.6
Z-2.8
Z-3
Z-3.2
Z-3.4
Z-3.6
Z-3.8
Z-4
Z-4.2
Z-4.4
Z-4.6
Z-4.8
Z-5
Z-5.2
Z-5.4
Z-5.6
Z-5.8
Z-6
Z-6.2
Z-6.4
Z-6.6
Z-6.8
Z-7
Z-7.2
Z-7.4
Z-7.6
Z-7.8
Z-7.999
Z-8.2
Z-8.4
Z-8.599
Z-8.8
Z-9
Z-9.2
Z-9.4
Z-9.6
Z-9.8
Z-10
Z-10.199
Z-10.4
Z-10.6
Z-10.799
Z-11
Z-11.2
Z-11.399
Z-11.6
Z-11.8
Z-12
Z-12.2
Z-12.399
Z-12.6
Z-12.8
Z-12.999
Z-13.2
Z-13.4
Z-13.599
Z-13.8
Z-14
Z-14.2
Z-14.4
Z-14.599
Z-14.8
Z-15
Z-15.199
Z-15.4
Z-15.6
Z-15.799
Z-15.999
Z-16.2
Z-16.4
Z-16.6
Z-16.799
Z-16.999
Z-17.199
Z-17.4
Z-17.6
Z-17.8
Z-17.999
Z-18.199
Z-18.4
Z-18.6
Z-18.8
Z-18.999
Z-19.199
Z-19.399
Z-19.6
Z-19.8
Z-20
Z-20.199
Z-20.399
Z-20.6
Z-20.8
Z-21
Z-21.199
Z-21.399
Z-21.599
Z-21.8
Z-22
Z-22.2
Z-22.399
Z-22.599
Z-22.799
Z-23
Z-23.2
Z-23.399
Z-23.599
Z-23.799
Z-24
Z-24.2
Z-24.4
Z-24.599
Z-24.799
Z-24.999
Z-25.2
Z-25.4
Z-25.599
Z-25.799
Z-25.999
Z-26.2
Z-26.4
Z-26.6
Z-26.799
Z-26.999
Z-27.199
Z-27.4
Z-27.6
Z-27.799
Z-27.999
Z-28.199
Z-28.4
Z-28.6
Z-28.8
Z-28.999
Z-29.199
Z-29.399
Z-29.6
Z-29.8
Z-29.999
Z-30.199
Z-30.399
Z-30.599
Z-30.8
Z-30.999
Z-31.199
Z-31.399
Z-31.599
Z-31.799
Z-31.999
Z-32.199
Z-32.4
Z-32.6
Z-32.8
Z-33
Z-33.199
Z-33.399
Z-33.599
Z-33.799
Z-33.999
Z-34.199
Z-34.399
Z-34.6
Z-34.8
Z-35
Z-35.2
Z-35.399
Z-35.599
Z-35.799
Z-35.999
Z-36.199
Z-36.399
Z-36.599
Z-36.8
Z-37
Z-37.2
Z-37.4
Z-37.599
Z-37.799
Z-37.999
Z-38.199
Z-38.399
Z-38.599
Z-38.799
Z-39
Z-39.2
Z-39.4
Z-39.6
Z-39.799
Z-39.999
Z-40.199
Z-40.399
Z-40.599
Z-40.799
Z-40.999
Z-41.2
Z-41.4
Z-41.6
Z-41.8
Z-41.999
Z-42.199
Z-42.399
Z-42.599
Z-42.799
Z-42.999
Z-43.199
Z-43.399
Z-43.6
Z-43.8
Z-44
Z-44.199
Z-44.399
Z-44.599
Z-44.799
Z-44.999
Z-45.199
Z-45.399
Z-45.599
Z-45.8
Z-46
Z-46.2
Z-46.399
Z-46.599
Z-46.799
Z-46.999
Z-47.199
Z-47.399
Z-47.599
Z-47.799
Z-48
Z-48.2
Z-48.4
Z-48.599
Z-48.799
Z-48.999
Z-49.199
Z-49.399
Z-49.599
Z-49.799
Z-49.999
Z-50.2
Z-50.4
Z-50.6
Z-50.799
Z-50.999
Z-51.199
Z-51.399
Z-51.599
Z-51.799
Z-51.999
Z-52.199
Z-52.4
Z-52.6
Z-52.8
Z-52.999
Z-53.199
Z-53.399
Z-53.599
Z-53.799
Z-53.999
Z-54.199
Z-54.399
Z-54.6
Z-54.8
Z-55
Z-55.199
Z-55.399
Z-55.599
Z-55.799
Z-55.999
Z-56.199
Z-56.399
Z-56.599
Z-56.8
Z-57
Z-57.2
Z-57.399
Z-57.599
Z-57.799
Z-57.999
Z-58.199
Z-58.399
Z-58.599
Z-58.799
Z-59
Z-59.2
Z-59.4
Z-59.599
Z-59.799
Z-59.999
Z-60.199
Z-60.399
Z-60.599
Z-60.799
Z-60.999
Z-61.199
Z-61.4
Z-61.6
Z-61.799
Z-61.999
Z-62.199
Z-62.399
Z-62.6
Z-62.799
Z-63
Z-63.199
Z-63.4
Z-63.599
Z-63.8
Z-63.999
Z-64.199
Z-64.399
Z-64.599
Z-64.8
Z-64.999
Z-65.2
Z-65.399
Z-65.6
Z-65.799
Z-66
Z-66.199
Z-66.399
Z-66.599
Z-66.666
G0Z160
Y353.5
G1Z0
Z-0.2
Z-0.4
Z-0.6
Z-0.8
Z-1
Z-1.2
Z-1.4
Z-1.6
Z-1.8
Z-2
Z-2.2
Z-2.4
Z-2.6
Z-2.8
Z-3
Z-3.2
Z-3.4
Z-3.6
Z-3.8
Z-4
Z-4.2
Z-4.4
Z-4.6
Z-4.8
Z-5
Z-5.2
Z-5.4
Z-5.6
Z-5.8
Z-6
Z-6.2
Z-6.4
Z-6.6
Z-6.8
Z-7
Z-7.2
Z-7.4
Z-7.6
Z-7.8
Z-7.999
Z-8.2
Z-8.4
Z-8.599
Z-8.8
Z-9
Z-9.2
Z-9.4
Z-9.6
Z-9.8
Z-10
Z-10.199
Z-10.4
Z-10.6
Z-10.799
Z-11
Z-11.2
Z-11.399
Z-11.6
Z-11.8
Z-12
Z-12.2
Z-12.399
Z-12.6
Z-12.8
Z-12.999
Z-13.2
Z-13.4
Z-13.599
Z-13.8
Z-14
Z-14.2
Z-14.4
Z-14.599
Z-14.8
Z-15
Z-15.199
Z-15.4
Z-15.6
Z-15.799
Z-15.999
Z-16.2
Z-16.4
Z-16.6
Z-16.666
G0Z160
Y424.199
G1Z0
Z-0.2
Z-0.4
Z-0.6
Z-0.8
Z-1
Z-1.2
Z-1.4
Z-1.6
Z-1.8
Z-2
Z-2.2
Z-2.4
Z-2.6
Z-2.8
Z-3
Z-3.2
Z-3.4
Z-3.6
Z-3.8
Z-4
Z-4.2
Z-4.4
Z-4.6
Z-4.8
Z-5
Z-5.2
Z-5.4
Z-5.6
Z-5.8
Z-6
Z-6.2
Z-6.4
Z-6.6
Z-6.8
Z-7
Z-7.2
Z-7.4
Z-7.6
Z-7.8
Z-7.999
Z-8.2
Z-8.4
Z-8.599
Z-8.8
Z-9
Z-9.2
Z-9.4
Z-9.6
Z-9.8
Z-10
Z-10.199
Z-10.4
Z-10.6
Z-10.799
Z-11
Z-11.2
Z-11.399
Z-11.6
Z-11.8
Z-12
Z-12.2
Z-12.399
Z-12.6
Z-12.8
Z-12.999
Z-13.2
Z-13.4
Z-13.599
Z-13.8
Z-14
Z-14.2
Z-14.4
Z-14.599
Z-14.8
Z-15
Z-15.199
Z-15.4
Z-15.6
Z-15.799
Z-15.999
Z-16.2
Z-16.4
Z-16.6
Z-16.799
Z-16.999
Z-17.199
Z-17.4
Z-17.6
Z-17.8
Z-17.999
Z-18.199
Z-18.4
Z-18.6
Z-18.8
Z-18.999
Z-19.199
Z-19.399
Z-19.6
Z-19.8
Z-20
Z-20.199
Z-20.399
Z-20.6
Z-20.8
Z-21
Z-21.199
Z-21.399
Z-21.599
Z-21.8
Z-22
Z-22.2
Z-22.399
Z-22.599
Z-22.799
Z-23
Z-23.2
Z-23.399
Z-23.599
Z-23.799
Z-24
Z-24.2
Z-24.4
Z-24.599
Z-24.799
Z-24.999
Z-25.2
Z-25.4
Z-25.599
Z-25.799
Z-25.999
Z-26.2
Z-26.4
Z-26.6
Z-26.799
Z-26.999
Z-27.199
Z-27.4
Z-27.6
Z-27.799
Z-27.999
Z-28.199
Z-28.4
Z-28.6
Z-28.8
Z-28.999
Z-29.199
Z-29.399
Z-29.6
Z-29.8
Z-29.999
Z-30.199
Z-30.399
Z-30.599
Z-30.8
Z-30.999
Z-31.199
Z-31.399
Z-31.599
Z-31.799
Z-31.999
Z-32.199
Z-32.4
Z-32.6
Z-32.8
Z-33
Z-33.199
Z-33.399
Z-33.599
Z-33.799
Z-33.999
Z-34.199
Z-34.399
Z-34.6
Z-34.8
Z-35
Z-35.2
Z-35.399
Z-35.599
Z-35.799
Z-35.999
Z-36.199
Z-36.399
Z-36.599
Z-36.8
Z-37
Z-37.2
Z-37.4
Z-37.599
Z-37.799
Z-37.999
Z-38.199
Z-38.399
Z-38.599
Z-38.799
Z-39
Z-39.2
Z-39.4
Z-39.6
Z-39.799
Z-39.999
Z-40.199
Z-40.399
Z-40.599
Z-40.799
Z-40.999
Z-41.2
Z-41.4
Z-41.6
Z-41.8
Z-41.999
Z-42.199
Z-42.399
Z-42.599
Z-42.799
Z-42.999
Z-43.199
Z-43.399
Z-43.6
Z-43.8
Z-44
Z-44.199
Z-44.399
Z-44.599
Z-44.799
Z-44.999
Z-45.199
Z-45.399
Z-45.599
Z-45.8
Z-46
Z-46.2
Z-46.399
Z-46.599
Z-46.799
Z-46.999
Z-47.199
Z-47.399
Z-47.599
Z-47.799
Z-48
Z-48.2
Z-48.4
Z-48.599
Z-48.799
Z-48.999
Z-49.199
Z-49.399
Z-49.599
Z-49.799
Z-49.999
Z-50
G0Z160
X353.5
G1Z0
G0Z160
X424.199
G1Z0
Z-0.2
Z-0.4
Z-0.6
Z-0.8
Z-1
Z-1.2
Z-1.4
Z-1.6
Z-1.8
Z-2
Z-2.2
Z-2.4
Z-2.6
Z-2.8
Z-3
Z-3.2
Z-3.4
Z-3.6
Z-3.8
Z-4
Z-4.2
Z-4.4
Z-4.6
Z-4.8
Z-5
Z-5.2
Z-5.4
Z-5.6
Z-5.8
Z-6
Z-6.2
Z-6.4
Z-6.6
Z-6.8
Z-7
Z-7.2
Z-7.4
Z-7.6
Z-7.8
Z-7.999
Z-8.2
Z-8.4
Z-8.599
Z-8.8
Z-9
Z-9.2
Z-9.4
Z-9.6
Z-9.8
Z-10
Z-10.199
Z-10.4
Z-10.6
Z-10.799
Z-11
Z-11.2
Z-11.399
Z-11.6
Z-11.8
Z-12
Z-12.2
Z-12.399
Z-12.6
Z-12.8
Z-12.999
Z-13.2
Z-13.4
Z-13.599
Z-13.8
Z-14
Z-14.2
Z-14.4
Z-14.599
Z-14.8
Z-15
Z-15.199
Z-15.4
Z-15.6
Z-15.799
Z-15.999
Z-16.2
Z-16.4
Z-16.6
Z-16.799
Z-16.999
Z-17.199
Z-17.4
Z-17.6
Z-17.8
Z-17.999
Z-18.199
Z-18.4
Z-18.6
Z-18.8
Z-18.999
Z-19.199
Z-19.399
Z-19.6
Z-19.8
Z-20
Z-20.199
Z-20.399
Z-20.6
Z-20.8
Z-21
Z-21.199
Z-21.399
Z-21.599
Z-21.8
Z-22
Z-22.2
Z-22.399
Z-22.599
Z-22.799
Z-23
Z-23.2
Z-23.399
Z-23.599
Z-23.799
Z-24
Z-24.2
Z-24.4
Z-24.599
Z-24.799
Z-24.999
Z-25.2
Z-25.4
Z-25.599
Z-25.799
Z-25.999
Z-26.2
Z-26.4
Z-26.6
Z-26.799
Z-26.999
Z-27.199
Z-27.4
Z-27.6
Z-27.799
Z-27.999
Z-28.199
Z-28.4
Z-28.6
Z-28.8
Z-28.999
Z-29.199
Z-29.399
Z-29.6
Z-29.8
Z-29.999
Z-30.199
Z-30.399
Z-30.599
Z-30.8
Z-30.999
Z-31.199
Z-31.399
Z-31.599
Z-31.799
Z-31.999
Z-32.199
Z-32.4
Z-32.6
Z-32.8
Z-33
Z-33.199
Z-33.333
G0Z160
Y353.5
G1Z0
G0Z160
X353.5
G1Z0
Z-0.2
Z-0.4
Z-0.6
Z-0.8
Z-1
Z-1.2
Z-1.4
Z-1.6
Z-1.8
Z-2
Z-2.2
Z-2.4
Z-2.6
Z-2.8
Z-3
Z-3.2
Z-3.4
Z-3.6
Z-3.8
Z-4
Z-4.2
Z-4.4
Z-4.6
Z-4.8
Z-5
Z-5.2
Z-5.4
Z-5.6
Z-5.8
Z-6
Z-6.2
Z-6.4
Z-6.6
Z-6.8
Z-7
Z-7.2
Z-7.4
Z-7.6
Z-7.8
Z-7.999
Z-8.2
Z-8.4
Z-8.599
Z-8.8
Z-9
Z-9.2
Z-9.4
Z-9.6
Z-9.8
Z-10
Z-10.199
Z-10.4
Z-10.6
Z-10.799
Z-11
Z-11.2
Z-11.399
Z-11.6
Z-11.8
Z-12
Z-12.2
Z-12.399
Z-12.6
Z-12.8
Z-12.999
Z-13.2
Z-13.4
Z-13.599
Z-13.8
Z-14
Z-14.2
Z-14.4
Z-14.599
Z-14.8
Z-15
Z-15.199
Z-15.4
Z-15.6
Z-15.799
Z-15.999
Z-16.2
Z-16.4
Z-16.6
Z-16.799
Z-16.999
Z-17.199
Z-17.4
Z-17.6
Z-17.8
Z-17.999
Z-18.199
Z-18.4
Z-18.6
Z-18.8
Z-18.999
Z-19.199
Z-19.399
Z-19.6
Z-19.8
Z-20
Z-20.199
Z-20.399
Z-20.6
Z-20.8
Z-21
Z-21.199
Z-21.399
Z-21.599
Z-21.8
Z-22
Z-22.2
Z-22.399
Z-22.599
Z-22.799
Z-23
Z-23.2
Z-23.399
Z-23.599
Z-23.799
Z-24
Z-24.2
Z-24.4
Z-24.599
Z-24.799
Z-24.999
Z-25.2
Z-25.4
Z-25.599
Z-25.799
Z-25.999
Z-26.2
Z-26.4
Z-26.6
Z-26.799
Z-26.999
Z-27.199
Z-27.4
Z-27.6
Z-27.799
Z-27.999
Z-28.199
Z-28.4
Z-28.6
Z-28.8
Z-28.999
Z-29.199
Z-29.399
Z-29.6
Z-29.8
Z-29.999
Z-30.199
Z-30.399
Z-30.599
Z-30.8
Z-30.999
Z-31.199
Z-31.399
Z-31.599
Z-31.799
Z-31.999
Z-32.199
Z-32.4
Z-32.6
Z-32.8
Z-33
Z-33.199
Z-33.399
Z-33.599
Z-33.799
Z-33.999
Z-34.199
Z-34.399
Z-34.6
Z-34.8
Z-35
Z-35.2
Z-35.399
Z-35.599
Z-35.799
Z-35.999
Z-36.199
Z-36.399
Z-36.599
Z-36.8
Z-37
Z-37.2
Z-37.4
Z-37.599
Z-37.799
Z-37.999
Z-38.199
Z-38.399
Z-38.599
Z-38.799
Z-39
Z-39.2
Z-39.4
Z-39.6
Z-39.799
Z-39.999
Z-40.199
Z-40.399
Z-40.599
Z-40.799
Z-40.999
Z-41.2
Z-41.4
Z-41.6
Z-41.8
Z-41.999
Z-42.199
Z-42.399
Z-42.599
Z-42.799
Z-42.999
Z-43.199
Z-43.399
Z-43.6
Z-43.8
Z-44
Z-44.199
Z-44.399
Z-44.599
Z-44.799
Z-44.999
Z-45.199
Z-45.399
Z-45.599
Z-45.8
Z-46
Z-46.2
Z-46.399
Z-46.599
Z-46.799
Z-46.999
Z-47.199
Z-47.399
Z-47.599
Z-47.799
Z-48
Z-48.2
Z-48.4
Z-48.599
Z-48.799
Z-48.999
Z-49.199
Z-49.399
Z-49.599
Z-49.799
Z-49.999
Z-50.2
Z-50.4
Z-50.6
Z-50.799
Z-50.999
Z-51.199
Z-51.399
Z-51.599
Z-51.799
Z-51.999
Z-52.199
Z-52.4
Z-52.6
Z-52.8
Z-52.999
Z-53.199
Z-53.399
Z-53.599
Z-53.799
Z-53.999
Z-54.199
Z-54.399
Z-54.6
Z-54.8
Z-55
Z-55.199
Z-55.399
Z-55.599
Z-55.799
Z-55.999
Z-56.199
Z-56.399
Z-56.599
Z-56.8
Z-57
Z-57.2
Z-57.399
Z-57.599
Z-57.799
Z-57.999
Z-58.199
Z-58.399
Z-58.599
Z-58.799
Z-59
Z-59.2
Z-59.4
Z-59.599
Z-59.799
Z-59.999
Z-60.199
Z-60.399
Z-60.599
Z-60.799
Z-60.999
Z-61.199
Z-61.4
Z-61.6
Z-61.799
Z-61.999
Z-62.199
Z-62.399
Z-62.6
Z-62.799
Z-63
Z-63.199
Z-63.4
Z-63.599
Z-63.8
Z-63.999
Z-64.199
Z-64.399
Z-64.599
Z-64.8
Z-64.999
Z-65.2
Z-65.399
Z-65.6
Z-65.799
Z-66
Z-66.199
Z-66.399
Z-66.599
Z-66.799
Z-67
Z-67.199
Z-67.4
Z-67.599
Z-67.8
Z-67.999
Z-68.2
Z-68.399
Z-68.599
Z-68.799
Z-68.999
Z-69.2
Z-69.399
Z-69.6
Z-69.799
Z-70
Z-70.199
Z-70.4
Z-70.599
Z-70.799
Z-70.999
Z-71.199
Z-71.4
Z-71.599
Z-71.8
Z-71.999
Z-72.2
Z-72.399
Z-72.6
Z-72.799
Z-72.999
Z-73.199
Z-73.399
Z-73.6
Z-73.799
Z-74
Z-74.199
Z-74.4
Z-74.599
Z-74.8
Z-74.999
Z-75.199
Z-75.399
Z-75.599
Z-75.8
Z-75.999
Z-76.2
Z-76.399
Z-76.6
Z-76.799
Z-77
Z-77.199
Z-77.399
Z-77.599
Z-77.799
Z-78
Z-78.199
Z-78.4
Z-78.599
Z-78.8
Z-78.999
Z-79.2
Z-79.399
Z-79.599
Z-79.799
Z-79.999
Z-80.2
Z-80.399
Z-80.6
Z-80.799
Z-81
Z-81.199
Z-81.4
Z-81.599
Z-81.799
Z-81.999
Z-82.199
Z-82.4
Z-82.599
Z-82.8
Z-82.999
Z-83.2
Z-83.333
G0Z160
X212.099
G1Z0
Z-0.2
Z-0.4
Z-0.6
Z-0.8
Z-1
Z-1.2
Z-1.4
Z-1.6
Z-1.8
Z-2
Z-2.2
Z-2.4
Z-2.6
Z-2.8
Z-3
Z-3.2
Z-3.4
Z-3.6
Z-3.8
Z-4
Z-4.2
Z-4.4
Z-4.6
Z-4.8
Z-5
Z-5.2
Z-5.4
Z-5.6
Z-5.8
Z-6
Z-6.2
Z-6.4
Z-6.6
Z-6.8
Z-7
Z-7.2
Z-7.4
Z-7.6
Z-7.8
Z-7.999
Z-8.2
Z-8.4
Z-8.599
Z-8.8
Z-9
Z-9.2
Z-9.4
Z-9.6
Z-9.8
Z-10
Z-10.199
Z-10.4
Z-10.6
Z-10.799
Z-11
Z-11.2
Z-11.399
Z-11.6
Z-11.8
Z-12
Z-12.2
Z-12.399
Z-12.6
Z-12.8
Z-12.999
Z-13.2
Z-13.4
Z-13.599
Z-13.8
Z-14
Z-14.2
Z-14.4
Z-14.599
Z-14.8
Z-15
Z-15.199
Z-15.4
Z-15.6
Z-15.799
Z-15.999
Z-16.2
Z-16.4
Z-16.6
Z-16.799
Z-16.999
Z-17.199
Z-17.4
Z-17.6
Z-17.8
Z-17.999
Z-18.199
Z-18.4
Z-18.6
Z-18.8
Z-18.999
Z-19.199
Z-19.399
Z-19.6
Z-19.8
Z-20
Z-20.199
Z-20.399
Z-20.6
Z-20.8
Z-21
Z-21.199
Z-21.399
Z-21.599
Z-21.8
Z-22
Z-22.2
Z-22.399
Z-22.599
Z-22.799
Z-23
Z-23.2
Z-23.399
Z-23.599
Z-23.799
Z-24
Z-24.2
Z-24.4
Z-24.599
Z-24.799
Z-24.999
Z-25.2
Z-25.4
Z-25.599
Z-25.799
Z-25.999
Z-26.2
Z-26.4
Z-26.6
Z-26.799
Z-26.999
Z-27.199
Z-27.4
Z-27.6
Z-27.799
Z-27.999
Z-28.199
Z-28.4
Z-28.6
Z-28.8
Z-28.999
Z-29.199
Z-29.399
Z-29.6
Z-29.8
Z-29.999
Z-30.199
Z-30.399
Z-30.599
Z-30.8
Z-30.999
Z-31.199
Z-31.399
Z-31.599
Z-31.799
Z-31.999
Z-32.199
Z-32.4
Z-32.6
Z-32.8
Z-33
Z-33.199
Z-33.333
G0Z160
Y424.199
G1Z0
Z-0.2
Z-0.4
Z-0.6
Z-0.8
Z-1
Z-1.2
Z-1.4
Z-1.6
Z-1.8
Z-2
Z-2.2
Z-2.4
Z-2.6
Z-2.8
Z-3
Z-3.2
Z-3.4
Z-3.6
Z-3.8
Z-4
Z-4.2
Z-4.4
Z-4.6
Z-4.8
Z-5
Z-5.2
Z-5.4
Z-5.6
Z-5.8
Z-6
Z-6.2
Z-6.4
Z-6.6
Z-6.8
Z-7
Z-7.2
Z-7.4
Z-7.6
Z-7.8
Z-7.999
Z-8.2
Z-8.4
Z-8.599
Z-8.8
Z-9
Z-9.2
Z-9.4
Z-9.6
Z-9.8
Z-10
Z-10.199
Z-10.4
Z-10.6
Z-10.799
Z-11
Z-11.2
Z-11.399
Z-11.6
Z-11.8
Z-12
Z-12.2
Z-12.399
Z-12.6
Z-12.8
Z-12.999
Z-13.2
Z-13.4
Z-13.599
Z-13.8
Z-14
Z-14.2
Z-14.4
Z-14.599
Z-14.8
Z-15
Z-15.199
Z-15.4
Z-15.6
Z-15.799
Z-15.999
Z-16.2
Z-16.4
Z-16.6
Z-16.799
Z-16.999
Z-17.199
Z-17.4
Z-17.6
Z-17.8
Z-17.999
Z-18.199
Z-18.4
Z-18.6
Z-18.8
Z-18.999
Z-19.199
Z-19.399
Z-19.6
Z-19.8
Z-20
Z-20.199
Z-20.399
Z-20.6
Z-20.8
Z-21
Z-21.199
Z-21.399
Z-21.599
Z-21.8
Z-22
Z-22.2
Z-22.399
Z-22.599
Z-22.799
Z-23
Z-23.2
Z-23.399
Z-23.599
Z-23.799
Z-24
Z-24.2
Z-24.4
Z-24.599
Z-24.799
Z-24.999
Z-25.2
Z-25.4
Z-25.599
Z-25.799
Z-25.999
Z-26.2
Z-26.4
Z-26.6
Z-26.799
Z-26.999
Z-27.199
Z-27.4
Z-27.6
Z-27.799
Z-27.999
Z-28.199
Z-28.4
Z-28.6
Z-28.8
Z-28.999
Z-29.199
Z-29.399
Z-29.6
Z-29.8
Z-29.999
Z-30.199
Z-30.399
Z-30.599
Z-30.8
Z-30.999
Z-31.199
Z-31.399
Z-31.599
Z-31.799
Z-31.999
Z-32.199
Z-32.4
Z-32.6
Z-32.8
Z-33
Z-33.199
Z-33.399
Z-33.599
Z-33.799
Z-33.999
Z-34.199
Z-34.399
Z-34.6
Z-34.8
Z-35
Z-35.2
Z-35.399
Z-35.599
Z-35.799
Z-35.999
Z-36.199
Z-36.399
Z-36.599
Z-36.8
Z-37
Z-37.2
Z-37.4
Z-37.599
Z-37.799
Z-37.999
Z-38.199
Z-38.399
Z-38.599
Z-38.799
Z-39
Z-39.2
Z-39.4
Z-39.6
Z-39.799
Z-39.999
Z-40.199
Z-40.399
Z-40.599
Z-40.799
Z-40.999
Z-41.2
Z-41.4
Z-41.6
Z-41.8
Z-41.999
Z-42.199
Z-42.399
Z-42.599
Z-42.799
Z-42.999
Z-43.199
Z-43.399
Z-43.6
Z-43.8
Z-44
Z-44.199
Z-44.399
Z-44.599
Z-44.799
Z-44.999
Z-45.199
Z-45.399
Z-45.599
Z-45.8
Z-46
Z-46.2
Z-46.399
Z-46.599
Z-46.799
Z-46.999
Z-47.199
Z-47.399
Z-47.599
Z-47.799
Z-48
Z-48.2
Z-48.4
Z-48.599
Z-48.799
Z-48.999
Z-49.199
Z-49.399
Z-49.599
Z-49.799
Z-49.999
Z-50.2
Z-50.4
Z-50.6
Z-50.799
Z-50.999
Z-51.199
Z-51.399
Z-51.599
Z-51.799
Z-51.999
Z-52.199
Z-52.4
Z-52.6
Z-52.8
Z-52.999
Z-53.199
Z-53.399
Z-53.599
Z-53.799
Z-53.999
Z-54.199
Z-54.399
Z-54.6
Z-54.8
Z-55
Z-55.199
Z-55.399
Z-55.599
Z-55.799
Z-55.999
Z-56.199
Z-56.399
Z-56.599
Z-56.8
Z-57
Z-57.2
Z-57.399
Z-57.599
Z-57.799
Z-57.999
Z-58.199
Z-58.399
Z-58.599
Z-58.799
Z-59
Z-59.2
Z-59.4
Z-59.599
Z-59.799
Z-59.999
Z-60.199
Z-60.399
Z-60.599
Z-60.799
Z-60.999
Z-61.199
Z-61.4
Z-61.6
Z-61.799
Z-61.999
Z-62.199
Z-62.399
Z-62.6
Z-62.799
Z-63
Z-63.199
Z-63.4
Z-63.599
Z-63.8
Z-63.999
Z-64.199
Z-64.399
Z-64.599
Z-64.8
Z-64.999
Z-65.2
Z-65.399
Z-65.6
Z-65.799
Z-66
Z-66.199
Z-66.399
Z-66.599
Z-66.666
G0Z160
X141.4
G1Z0
Z-0.2
Z-0.4
Z-0.6
Z-0.8
Z-1
Z-1.2
Z-1.4
Z-1.6
Z-1.8
Z-2
Z-2.2
Z-2.4
Z-2.6
Z-2.8
Z-3
Z-3.2
Z-3.4
Z-3.6
Z-3.8
Z-4
Z-4.2
Z-4.4
Z-4.6
Z-4.8
Z-5
Z-5.2
Z-5.4
Z-5.6
Z-5.8
Z-6
Z-6.2
Z-6.4
Z-6.6
Z-6.8
Z-7
Z-7.2
Z-7.4
Z-7.6
Z-7.8
Z-7.999
Z-8.2
Z-8.4
Z-8.599
Z-8.8
Z-9
Z-9.2
Z-9.4
Z-9.6
Z-9.8
Z-10
Z-10.199
Z-10.4
Z-10.6
Z-10.799
Z-11
Z-11.2
Z-11.399
Z-11.6
Z-11.8
Z-12
Z-12.2
Z-12.399
Z-12.6
Z-12.8
Z-12.999
Z-13.2
Z-13.4
Z-13.599
Z-13.8
Z-14
Z-14.2
Z-14.4
Z-14.599
Z-14.8
Z-15
Z-15.199
Z-15.4
Z-15.6
Z-15.799
Z-15.999
Z-16.2
Z-16.4
Z-16.6
Z-16.799
Z-16.999
Z-17.199
Z-17.4
Z-17.6
Z-17.8
Z-17.999
Z-18.199
Z-18.4
Z-18.6
Z-18.8
Z-18.999
Z-19.199
Z-19.399
Z-19.6
Z-19.8
Z-20
Z-20.199
Z-20.399
Z-20.6
Z-20.8
Z-21
Z-21.199
Z-21.399
Z-21.599
Z-21.8
Z-22
Z-22.2
Z-22.399
Z-22.599
Z-22.799
Z-23
Z-23.2
Z-23.399
Z-23.599
Z-23.799
Z-24
Z-24.2
Z-24.4
Z-24.599
Z-24.799
Z-24.999
Z-25.2
Z-25.4
Z-25.599
Z-25.799
Z-25.999
Z-26.2
Z-26.4
Z-26.6
Z-26.799
Z-26.999
Z-27.199
Z-27.4
Z-27.6
Z-27.799
Z-27.999
Z-28.199
Z-28.4
Z-28.6
Z-28.8
Z-28.999
Z-29.199
Z-29.399
Z-29.6
Z-29.8
Z-29.999
Z-30.199
Z-30.399
Z-30.599
Z-30.8
Z-30.999
Z-31.199
Z-31.399
Z-31.599
Z-31.799
Z-31.999
Z-32.199
Z-32.4
Z-32.6
Z-32.8
Z-33
Z-33.199
Z-33.399
Z-33.599
Z-33.799
Z-33.999
Z-34.199
Z-34.399
Z-34.6
Z-34.8
Z-35
Z-35.2
Z-35.399
Z-35.599
Z-35.799
Z-35.999
Z-36.199
Z-36.399
Z-36.599
Z-36.8
Z-37
Z-37.2
Z-37.4
Z-37.599
Z-37.799
Z-37.999
Z-38.199
Z-38.399
Z-38.599
Z-38.799
Z-39
Z-39.2
Z-39.4
Z-39.6
Z-39.799
Z-39.999
Z-40.199
Z-40.399
Z-40.599
Z-40.799
Z-40.999
Z-41.2
Z-41.4
Z-41.6
Z-41.8
Z-41.999
Z-42.199
Z-42.399
Z-42.599
Z-42.799
Z-42.999
Z-43.199
Z-43.399
Z-43.6
Z-43.8
Z-44
Z-44.199
Z-44.399
Z-44.599
Z-44.799
Z-44.999
Z-45.199
Z-45.399
Z-45.599
Z-45.8
Z-46
Z-46.2
Z-46.399
Z-46.599
Z-46.799
Z-46.999
Z-47.199
Z-47.399
Z-47.599
Z-47.799
Z-48
Z-48.2
Z-48.4
Z-48.599
Z-48.799
Z-48.999
Z-49.199
Z-49.399
Z-49.599
Z-49.799
Z-49.999
Z-50
G0Z160
Y353.5
G1Z0
Z-0.2
Z-0.4
Z-0.6
Z-0.8
Z-1
Z-1.2
Z-1.4
Z-1.6
Z-1.8
Z-2
Z-2.2
Z-2.4
Z-2.6
Z-2.8
Z-3
Z-3.2
Z-3.4
Z-3.6
Z-3.8
Z-4
Z-4.2
Z-4.4
Z-4.6
Z-4.8
Z-5
Z-5.2
Z-5.4
Z-5.6
Z-5.8
Z-6
Z-6.2
Z-6.4
Z-6.6
Z-6.8
Z-7
Z-7.2
Z-7.4
Z-7.6
Z-7.8
Z-7.999
Z-8.2
Z-8.4
Z-8.599
Z-8.8
Z-9
Z-9.2
Z-9.4
Z-9.6
Z-9.8
Z-10
Z-10.199
Z-10.4
Z-10.6
Z-10.799
Z-11
Z-11.2
Z-11.399
Z-11.6
Z-11.8
Z-12
Z-12.2
Z-12.399
Z-12.6
Z-12.8
Z-12.999
Z-13.2
Z-13.4
Z-13.599
Z-13.8
Z-14
Z-14.2
Z-14.4
Z-14.599
Z-14.8
Z-15
Z-15.199
Z-15.4
Z-15.6
Z-15.799
Z-15.999
Z-16.2
Z-16.4
Z-16.6
Z-16.666
G0Z160
X70.7
G1Z0
Z-0.2
Z-0.4
Z-0.6
Z-0.8
Z-1
Z-1.2
Z-1.4
Z-1.6
Z-1.8
Z-2
Z-2.2
Z-2.4
Z-2.6
Z-2.8
Z-3
Z-3.2
Z-3.4
Z-3.6
Z-3.8
Z-4
Z-4.2
Z-4.4
Z-4.6
Z-4.8
Z-5
Z-5.2
Z-5.4
Z-5.6
Z-5.8
Z-6
Z-6.2
Z-6.4
Z-6.6
Z-6.8
Z-7
Z-7.2
Z-7.4
Z-7.6
Z-7.8
Z-7.999
Z-8.2
Z-8.4
Z-8.599
Z-8.8
Z-9
Z-9.2
Z-9.4
Z-9.6
Z-9.8
Z-10
Z-10.199
Z-10.4
Z-10.6
Z-10.799
Z-11
Z-11.2
Z-11.399
Z-11.6
Z-11.8
Z-12
Z-12.2
Z-12.399
Z-12.6
Z-12.8
Z-12.999
Z-13.2
Z-13.4
Z-13.599
Z-13.8
Z-14
Z-14.2
Z-14.4
Z-14.599
Z-14.8
Z-15
Z-15.199
Z-15.4
Z-15.6
Z-15.799
Z-15.999
Z-16.2
Z-16.4
Z-16.6
Z-16.799
Z-16.999
Z-17.199
Z-17.4
Z-17.6
Z-17.8
Z-17.999
Z-18.199
Z-18.4
Z-18.6
Z-18.8
Z-18.999
Z-19.199
Z-19.399
Z-19.6
Z-19.8
Z-20
Z-20.199
Z-20.399
Z-20.6
Z-20.8
Z-21
Z-21.199
Z-21.399
Z-21.599
Z-21.8
Z-22
Z-22.2
Z-22.399
Z-22.599
Z-22.799
Z-23
Z-23.2
Z-23.399
Z-23.599
Z-23.799
Z-24
Z-24.2
Z-24.4
Z-24.599
Z-24.799
Z-24.999
Z-25.2
Z-25.4
Z-25.599
Z-25.799
Z-25.999
Z-26.2
Z-26.4
Z-26.6
Z-26.799
Z-26.999
Z-27.199
Z-27.4
Z-27.6
Z-27.799
Z-27.999
Z-28.199
Z-28.4
Z-28.6
Z-28.8
Z-28.999
Z-29.199
Z-29.399
Z-29.6
Z-29.8
Z-29.999
Z-30.199
Z-30.399
Z-30.599
Z-30.8
Z-30.999
Z-31.199
Z-31.399
Z-31.599
Z-31.799
Z-31.999
Z-32.199
Z-32.4
Z-32.6
Z-32.8
Z-33
Z-33.199
Z-33.399
Z-33.599
Z-33.799
Z-33.999
Z-34.199
Z-34.399
Z-34.6
Z-34.8
Z-35
Z-35.2
Z-35.399
Z-35.599
Z-35.799
Z-35.999
Z-36.199
Z-36.399
Z-36.599
Z-36.8
Z-37
Z-37.2
Z-37.4
Z-37.599
Z-37.799
Z-37.999
Z-38.199
Z-38.399
Z-38.599
Z-38.799
Z-39
Z-39.2
Z-39.4
Z-39.6
Z-39.799
Z-39.999
Z-40.199
Z-40.399
Z-40.599
Z-40.799
Z-40.999
Z-41.2
Z-41.4
Z-41.6
Z-41.8
Z-41.999
Z-42.199
Z-42.399
Z-42.599
Z-42.799
Z-42.999
Z-43.199
Z-43.399
Z-43.6
Z-43.8
Z-44
Z-44.199
Z-44.399
Z-44.599
Z-44.799
Z-44.999
Z-45.199
Z-45.399
Z-45.599
Z-45.8
Z-46
Z-46.2
Z-46.399
Z-46.599
Z-46.799
Z-46.999
Z-47.199
Z-47.399
Z-47.599
Z-47.799
Z-48
Z-48.2
Z-48.4
Z-48.599
Z-48.799
Z-48.999
Z-49.199
Z-49.399
Z-49.599
Z-49.799
Z-49.999
Z-50.2
Z-50.4
Z-50.6
Z-50.799
Z-50.999
Z-51.199
Z-51.399
Z-51.599
Z-51.799
Z-51.999
Z-52.199
Z-52.4
Z-52.6
Z-52.8
Z-52.999
Z-53.199
Z-53.399
Z-53.599
Z-53.799
Z-53.999
Z-54.199
Z-54.399
Z-54.6
Z-54.8
Z-55
Z-55.199
Z-55.399
Z-55.599
Z-55.799
Z-55.999
Z-56.199
Z-56.399
Z-56.599
Z-56.8
Z-57
Z-57.2
Z-57.399
Z-57.599
Z-57.799
Z-57.999
Z-58.199
Z-58.399
Z-58.599
Z-58.799
Z-59
Z-59.2
Z-59.4
Z-59.599
Z-59.799
Z-59.999
Z-60.199
Z-60.399
Z-60.599
Z-60.799
Z-60.999
Z-61.199
Z-61.4
Z-61.6
Z-61.799
Z-61.999
Z-62.199
Z-62.399
Z-62.6
Z-62.799
Z-63
Z-63.199
Z-63.4
Z-63.599
Z-63.8
Z-63.999
Z-64.199
Z-64.399
Z-64.599
Z-64.8
Z-64.999
Z-65.2
Z-65.399
Z-65.6
Z-65.799
Z-66
Z-66.199
Z-66.399
Z-66.599
Z-66.799
Z-67
Z-67.199
Z-67.4
Z-67.599
Z-67.8
Z-67.999
Z-68.2
Z-68.399
Z-68.599
Z-68.799
Z-68.999
Z-69.2
Z-69.399
Z-69.6
Z-69.799
Z-70
Z-70.199
Z-70.4
Z-70.599
Z-70.799
Z-70.999
Z-71.199
Z-71.4
Z-71.599
Z-71.8
Z-71.999
Z-72.2
Z-72.399
Z-72.6
Z-72.799
Z-72.999
Z-73.199
Z-73.399
Z-73.6
Z-73.799
Z-74
Z-74.199
Z-74.4
Z-74.599
Z-74.8
Z-74.999
Z-75.199
Z-75.399
Z-75.599
Z-75.8
Z-75.999
Z-76.2
Z-76.399
Z-76.6
Z-76.799
Z-77
Z-77.199
Z-77.399
Z-77.599
Z-77.799
Z-78
Z-78.199
Z-78.4
Z-78.599
Z-78.8
Z-78.999
Z-79.2
Z-79.399
Z-79.599
Z-79.799
Z-79.999
Z-80.2
Z-80.399
Z-80.6
Z-80.799
Z-81
Z-81.199
Z-81.4
Z-81.599
Z-81.799
Z-81.999
Z-82.199
Z-82.4
Z-82.599
Z-82.8
Z-82.999
Z-83.2
Z-83.333
G0Z160
Y424.199
G1Z0
G0Z160
X0
G1Z0
Z-0.2
Z-0.4
Z-0.6
Z-0.8
Z-1
Z-1.2
Z-1.4
Z-1.6
Z-1.8
Z-2
Z-2.2
Z-2.4
Z-2.6
Z-2.8
Z-3
Z-3.2
Z-3.4
Z-3.6
Z-3.8
Z-4
Z-4.2
Z-4.4
Z-4.6
Z-4.8
Z-5
Z-5.2
Z-5.4
Z-5.6
Z-5.8
Z-6
Z-6.2
Z-6.4
Z-6.6
Z-6.8
Z-7
Z-7.2
Z-7.4
Z-7.6
Z-7.8
Z-7.999
Z-8.2
Z-8.4
Z-8.599
Z-8.8
Z-9
Z-9.2
Z-9.4
Z-9.6
Z-9.8
Z-10
Z-10.199
Z-10.4
Z-10.6
Z-10.799
Z-11
Z-11.2
Z-11.399
Z-11.6
Z-11.8
Z-12
Z-12.2
Z-12.399
Z-12.6
Z-12.8
Z-12.999
Z-13.2
Z-13.4
Z-13.599
Z-13.8
Z-14
Z-14.2
Z-14.4
Z-14.599
Z-14.8
Z-15
Z-15.199
Z-15.4
Z-15.6
Z-15.799
Z-15.999
Z-16.2
Z-16.4
Z-16.6
Z-16.799
Z-16.999
Z-17.199
Z-17.4
Z-17.6
Z-17.8
Z-17.999
Z-18.199
Z-18.4
Z-18.6
Z-18.8
Z-18.999
Z-19.199
Z-19.399
Z-19.6
Z-19.8
Z-20
Z-20.199
Z-20.399
Z-20.6
Z-20.8
Z-21
Z-21.199
Z-21.399
Z-21.599
Z-21.8
Z-22
Z-22.2
Z-22.399
Z-22.599
Z-22.799
Z-23
Z-23.2
Z-23.399
Z-23.599
Z-23.799
Z-24
Z-24.2
Z-24.4
Z-24.599
Z-24.799
Z-24.999
Z-25.2
Z-25.4
Z-25.599
Z-25.799
Z-25.999
Z-26.2
Z-26.4
Z-26.6
Z-26.799
Z-26.999
Z-27.199
Z-27.4
Z-27.6
Z-27.799
Z-27.999
Z-28.199
Z-28.4
Z-28.6
Z-28.8
Z-28.999
Z-29.199
Z-29.399
Z-29.6
Z-29.8
Z-29.999
Z-30.199
Z-30.399
Z-30.599
Z-30.8
Z-30.999
Z-31.199
Z-31.399
Z-31.599
Z-31.799
Z-31.999
Z-32.199
Z-32.4
Z-32.6
Z-32.8
Z-33
Z-33.199
Z-33.333
G0Z160
Y353.5
G1Z0
G0Z160
 
